%
(2022 late frame 2 ver.2)
(T1 D=2 CR=0 - ZMIN=-1.5 - flat end mill)
N10 G90 G94
N20 G17
N30 G21

(2D ??1)
N40 T1 M6
N50 S5000 M3
N60 G54
N70 M8
N80 G0 X104.699 Y89.815
N90 G43 Z2
N100 G1 Z1.1 F60
N110 Z-0.1
N120 G3 X103.301 Y89.273 I-0.699 J-0.271 F200
N130 X104.699 Y89.815 I0.699 J0.271
N140 G1 Z-0.2 F60
N150 G3 X103.301 Y89.273 I-0.699 J-0.271 F200
N160 X104.699 Y89.815 I0.699 J0.271
N170 G1 Z-0.3 F60
N180 G3 X103.301 Y89.273 I-0.699 J-0.271 F200
N190 X104.699 Y89.815 I0.699 J0.271
N200 G1 Z-0.4 F60
N210 G3 X103.301 Y89.273 I-0.699 J-0.271 F200
N220 X104.699 Y89.815 I0.699 J0.271
N230 G1 Z-0.5 F60
N240 G3 X103.301 Y89.273 I-0.699 J-0.271 F200
N250 X104.699 Y89.815 I0.699 J0.271
N260 G1 Z-0.6 F60
N270 G3 X103.301 Y89.273 I-0.699 J-0.271 F200
N280 X104.699 Y89.815 I0.699 J0.271
N290 G1 Z-0.7 F60
N300 G3 X103.301 Y89.273 I-0.699 J-0.271 F200
N310 X104.699 Y89.815 I0.699 J0.271
N320 G1 Z-0.8 F60
N330 G3 X103.301 Y89.273 I-0.699 J-0.271 F200
N340 X104.699 Y89.815 I0.699 J0.271
N350 G1 Z-0.9 F60
N360 G3 X103.301 Y89.273 I-0.699 J-0.271 F200
N370 X104.699 Y89.815 I0.699 J0.271
N380 G1 Z-1 F60
N390 G3 X103.301 Y89.273 I-0.699 J-0.271 F200
N400 X104.699 Y89.815 I0.699 J0.271
N410 G1 Z-1.1 F60
N420 G3 X103.301 Y89.273 I-0.699 J-0.271 F200
N430 X104.699 Y89.815 I0.699 J0.271
N440 G1 Z-1.2 F60
N450 G3 X103.301 Y89.273 I-0.699 J-0.271 F200
N460 X104.699 Y89.815 I0.699 J0.271
N470 G1 Z-1.3 F60
N480 G3 X103.301 Y89.273 I-0.699 J-0.271 F200
N490 X104.699 Y89.815 I0.699 J0.271
N500 G1 Z-1.4 F60
N510 G3 X103.301 Y89.273 I-0.699 J-0.271 F200
N520 X104.699 Y89.815 I0.699 J0.271
N530 G1 Z-1.5 F60
N540 G3 X103.301 Y89.273 I-0.699 J-0.271 F200
N550 X104.699 Y89.815 I0.699 J0.271
N560 G0 Z2
N570 X120.25 Y70.544
N580 G1 Z1.1 F60
N590 Z-0.1
N600 G3 X119.75 I-0.25 J0 F200
N610 X120.25 I0.25 J0
N620 G1 Z-0.2 F60
N630 G3 X119.75 I-0.25 J0 F200
N640 X120.25 I0.25 J0
N650 G1 Z-0.3 F60
N660 G3 X119.75 I-0.25 J0 F200
N670 X120.25 I0.25 J0
N680 G1 Z-0.4 F60
N690 G3 X119.75 I-0.25 J0 F200
N700 X120.25 I0.25 J0
N710 G1 Z-0.5 F60
N720 G3 X119.75 I-0.25 J0 F200
N730 X120.25 I0.25 J0
N740 G1 Z-0.6 F60
N750 G3 X119.75 I-0.25 J0 F200
N760 X120.25 I0.25 J0
N770 G1 Z-0.7 F60
N780 G3 X119.75 I-0.25 J0 F200
N790 X120.25 I0.25 J0
N800 G1 Z-0.8 F60
N810 G3 X119.75 I-0.25 J0 F200
N820 X120.25 I0.25 J0
N830 G1 Z-0.9 F60
N840 G3 X119.75 I-0.25 J0 F200
N850 X120.25 I0.25 J0
N860 G1 Z-1 F60
N870 G3 X119.75 I-0.25 J0 F200
N880 X120.25 I0.25 J0
N890 G1 Z-1.1 F60
N900 G3 X119.75 I-0.25 J0 F200
N910 X120.25 I0.25 J0
N920 G1 Z-1.2 F60
N930 G3 X119.75 I-0.25 J0 F200
N940 X120.25 I0.25 J0
N950 G1 Z-1.3 F60
N960 G3 X119.75 I-0.25 J0 F200
N970 X120.25 I0.25 J0
N980 G1 Z-1.4 F60
N990 G3 X119.75 I-0.25 J0 F200
N1000 X120.25 I0.25 J0
N1010 G1 Z-1.5 F60
N1020 G3 X119.75 I-0.25 J0 F200
N1030 X120.25 I0.25 J0
N1040 G0 Z2
N1050 X139.75 Y57.544
N1060 G1 Z1.1 F60
N1070 Z-0.1
N1080 G3 X138.25 I-0.75 J0 F200
N1090 X139.75 I0.75 J0
N1100 G1 Z-0.2 F60
N1110 G3 X138.25 I-0.75 J0 F200
N1120 X139.75 I0.75 J0
N1130 G1 Z-0.3 F60
N1140 G3 X138.25 I-0.75 J0 F200
N1150 X139.75 I0.75 J0
N1160 G1 Z-0.4 F60
N1170 G3 X138.25 I-0.75 J0 F200
N1180 X139.75 I0.75 J0
N1190 G1 Z-0.5 F60
N1200 G3 X138.25 I-0.75 J0 F200
N1210 X139.75 I0.75 J0
N1220 G1 Z-0.6 F60
N1230 G3 X138.25 I-0.75 J0 F200
N1240 X139.75 I0.75 J0
N1250 G1 Z-0.7 F60
N1260 G3 X138.25 I-0.75 J0 F200
N1270 X139.75 I0.75 J0
N1280 G1 Z-0.8 F60
N1290 G3 X138.25 I-0.75 J0 F200
N1300 X139.75 I0.75 J0
N1310 G1 Z-0.9 F60
N1320 G3 X138.25 I-0.75 J0 F200
N1330 X139.75 I0.75 J0
N1340 G1 Z-1 F60
N1350 G3 X138.25 I-0.75 J0 F200
N1360 X139.75 I0.75 J0
N1370 G1 Z-1.1 F60
N1380 G3 X138.25 I-0.75 J0 F200
N1390 X139.75 I0.75 J0
N1400 G1 Z-1.2 F60
N1410 G3 X138.25 I-0.75 J0 F200
N1420 X139.75 I0.75 J0
N1430 G1 Z-1.3 F60
N1440 G3 X138.25 I-0.75 J0 F200
N1450 X139.75 I0.75 J0
N1460 G1 Z-1.4 F60
N1470 G3 X138.25 I-0.75 J0 F200
N1480 X139.75 I0.75 J0
N1490 G1 Z-1.5 F60
N1500 G3 X138.25 I-0.75 J0 F200
N1510 X139.75 I0.75 J0
N1520 G0 Z2
N1530 X138.592 Y47.829
N1540 G1 Z1.1 F60
N1550 Z-0.1
N1560 G3 X137.502 Y48.86 I-0.545 J0.515 F200
N1570 X138.592 Y47.829 I0.545 J-0.515
N1580 G1 Z-0.2 F60
N1590 G3 X137.502 Y48.86 I-0.545 J0.515 F200
N1600 X138.592 Y47.829 I0.545 J-0.515
N1610 G1 Z-0.3 F60
N1620 G3 X137.502 Y48.86 I-0.545 J0.515 F200
N1630 X138.592 Y47.829 I0.545 J-0.515
N1640 G1 Z-0.4 F60
N1650 G3 X137.502 Y48.86 I-0.545 J0.515 F200
N1660 X138.592 Y47.829 I0.545 J-0.515
N1670 G1 Z-0.5 F60
N1680 G3 X137.502 Y48.86 I-0.545 J0.515 F200
N1690 X138.592 Y47.829 I0.545 J-0.515
N1700 G1 Z-0.6 F60
N1710 G3 X137.502 Y48.86 I-0.545 J0.515 F200
N1720 X138.592 Y47.829 I0.545 J-0.515
N1730 G1 Z-0.7 F60
N1740 G3 X137.502 Y48.86 I-0.545 J0.515 F200
N1750 X138.592 Y47.829 I0.545 J-0.515
N1760 G1 Z-0.8 F60
N1770 G3 X137.502 Y48.86 I-0.545 J0.515 F200
N1780 X138.592 Y47.829 I0.545 J-0.515
N1790 G1 Z-0.9 F60
N1800 G3 X137.502 Y48.86 I-0.545 J0.515 F200
N1810 X138.592 Y47.829 I0.545 J-0.515
N1820 G1 Z-1 F60
N1830 G3 X137.502 Y48.86 I-0.545 J0.515 F200
N1840 X138.592 Y47.829 I0.545 J-0.515
N1850 G1 Z-1.1 F60
N1860 G3 X137.502 Y48.86 I-0.545 J0.515 F200
N1870 X138.592 Y47.829 I0.545 J-0.515
N1880 G1 Z-1.2 F60
N1890 G3 X137.502 Y48.86 I-0.545 J0.515 F200
N1900 X138.592 Y47.829 I0.545 J-0.515
N1910 G1 Z-1.3 F60
N1920 G3 X137.502 Y48.86 I-0.545 J0.515 F200
N1930 X138.592 Y47.829 I0.545 J-0.515
N1940 G1 Z-1.4 F60
N1950 G3 X137.502 Y48.86 I-0.545 J0.515 F200
N1960 X138.592 Y47.829 I0.545 J-0.515
N1970 G1 Z-1.5 F60
N1980 G3 X137.502 Y48.86 I-0.545 J0.515 F200
N1990 X138.592 Y47.829 I0.545 J-0.515
N2000 G0 Z2
N2010 X158.895 Y68.214
N2020 G1 Z1.1 F60
N2030 Z-0.1
N2040 G3 X157.505 Y68.781 I-0.695 J0.283 F200
N2050 X158.895 Y68.214 I0.695 J-0.283
N2060 G1 Z-0.2 F60
N2070 G3 X157.505 Y68.781 I-0.695 J0.283 F200
N2080 X158.895 Y68.214 I0.695 J-0.283
N2090 G1 Z-0.3 F60
N2100 G3 X157.505 Y68.781 I-0.695 J0.283 F200
N2110 X158.895 Y68.214 I0.695 J-0.283
N2120 G1 Z-0.4 F60
N2130 G3 X157.505 Y68.781 I-0.695 J0.283 F200
N2140 X158.895 Y68.214 I0.695 J-0.283
N2150 G1 Z-0.5 F60
N2160 G3 X157.505 Y68.781 I-0.695 J0.283 F200
N2170 X158.895 Y68.214 I0.695 J-0.283
N2180 G1 Z-0.6 F60
N2190 G3 X157.505 Y68.781 I-0.695 J0.283 F200
N2200 X158.895 Y68.214 I0.695 J-0.283
N2210 G1 Z-0.7 F60
N2220 G3 X157.505 Y68.781 I-0.695 J0.283 F200
N2230 X158.895 Y68.214 I0.695 J-0.283
N2240 G1 Z-0.8 F60
N2250 G3 X157.505 Y68.781 I-0.695 J0.283 F200
N2260 X158.895 Y68.214 I0.695 J-0.283
N2270 G1 Z-0.9 F60
N2280 G3 X157.505 Y68.781 I-0.695 J0.283 F200
N2290 X158.895 Y68.214 I0.695 J-0.283
N2300 G1 Z-1 F60
N2310 G3 X157.505 Y68.781 I-0.695 J0.283 F200
N2320 X158.895 Y68.214 I0.695 J-0.283
N2330 G1 Z-1.1 F60
N2340 G3 X157.505 Y68.781 I-0.695 J0.283 F200
N2350 X158.895 Y68.214 I0.695 J-0.283
N2360 G1 Z-1.2 F60
N2370 G3 X157.505 Y68.781 I-0.695 J0.283 F200
N2380 X158.895 Y68.214 I0.695 J-0.283
N2390 G1 Z-1.3 F60
N2400 G3 X157.505 Y68.781 I-0.695 J0.283 F200
N2410 X158.895 Y68.214 I0.695 J-0.283
N2420 G1 Z-1.4 F60
N2430 G3 X157.505 Y68.781 I-0.695 J0.283 F200
N2440 X158.895 Y68.214 I0.695 J-0.283
N2450 G1 Z-1.5 F60
N2460 G3 X157.505 Y68.781 I-0.695 J0.283 F200
N2470 X158.895 Y68.214 I0.695 J-0.283
N2480 G0 Z2
N2490 X195.583 Y58.381
N2500 G1 Z1.1 F60
N2510 Z-0.1
N2520 G3 X194.083 I-0.75 J0 F200
N2530 X195.583 I0.75 J0
N2540 G1 Z-0.2 F60
N2550 G3 X194.083 I-0.75 J0 F200
N2560 X195.583 I0.75 J0
N2570 G1 Z-0.3 F60
N2580 G3 X194.083 I-0.75 J0 F200
N2590 X195.583 I0.75 J0
N2600 G1 Z-0.4 F60
N2610 G3 X194.083 I-0.75 J0 F200
N2620 X195.583 I0.75 J0
N2630 G1 Z-0.5 F60
N2640 G3 X194.083 I-0.75 J0 F200
N2650 X195.583 I0.75 J0
N2660 G1 Z-0.6 F60
N2670 G3 X194.083 I-0.75 J0 F200
N2680 X195.583 I0.75 J0
N2690 G1 Z-0.7 F60
N2700 G3 X194.083 I-0.75 J0 F200
N2710 X195.583 I0.75 J0
N2720 G1 Z-0.8 F60
N2730 G3 X194.083 I-0.75 J0 F200
N2740 X195.583 I0.75 J0
N2750 G1 Z-0.9 F60
N2760 G3 X194.083 I-0.75 J0 F200
N2770 X195.583 I0.75 J0
N2780 G1 Z-1 F60
N2790 G3 X194.083 I-0.75 J0 F200
N2800 X195.583 I0.75 J0
N2810 G1 Z-1.1 F60
N2820 G3 X194.083 I-0.75 J0 F200
N2830 X195.583 I0.75 J0
N2840 G1 Z-1.2 F60
N2850 G3 X194.083 I-0.75 J0 F200
N2860 X195.583 I0.75 J0
N2870 G1 Z-1.3 F60
N2880 G3 X194.083 I-0.75 J0 F200
N2890 X195.583 I0.75 J0
N2900 G1 Z-1.4 F60
N2910 G3 X194.083 I-0.75 J0 F200
N2920 X195.583 I0.75 J0
N2930 G1 Z-1.5 F60
N2940 G3 X194.083 I-0.75 J0 F200
N2950 X195.583 I0.75 J0
N2960 G0 Z2
N2970 X203.918 Y121.694
N2980 G1 Z1.1 F60
N2990 Z-0.1
N3000 G3 X202.418 I-0.75 J0 F200
N3010 X203.918 I0.75 J0
N3020 G1 Z-0.2 F60
N3030 G3 X202.418 I-0.75 J0 F200
N3040 X203.918 I0.75 J0
N3050 G1 Z-0.3 F60
N3060 G3 X202.418 I-0.75 J0 F200
N3070 X203.918 I0.75 J0
N3080 G1 Z-0.4 F60
N3090 G3 X202.418 I-0.75 J0 F200
N3100 X203.918 I0.75 J0
N3110 G1 Z-0.5 F60
N3120 G3 X202.418 I-0.75 J0 F200
N3130 X203.918 I0.75 J0
N3140 G1 Z-0.6 F60
N3150 G3 X202.418 I-0.75 J0 F200
N3160 X203.918 I0.75 J0
N3170 G1 Z-0.7 F60
N3180 G3 X202.418 I-0.75 J0 F200
N3190 X203.918 I0.75 J0
N3200 G1 Z-0.8 F60
N3210 G3 X202.418 I-0.75 J0 F200
N3220 X203.918 I0.75 J0
N3230 G1 Z-0.9 F60
N3240 G3 X202.418 I-0.75 J0 F200
N3250 X203.918 I0.75 J0
N3260 G1 Z-1 F60
N3270 G3 X202.418 I-0.75 J0 F200
N3280 X203.918 I0.75 J0
N3290 G1 Z-1.1 F60
N3300 G3 X202.418 I-0.75 J0 F200
N3310 X203.918 I0.75 J0
N3320 G1 Z-1.2 F60
N3330 G3 X202.418 I-0.75 J0 F200
N3340 X203.918 I0.75 J0
N3350 G1 Z-1.3 F60
N3360 G3 X202.418 I-0.75 J0 F200
N3370 X203.918 I0.75 J0
N3380 G1 Z-1.4 F60
N3390 G3 X202.418 I-0.75 J0 F200
N3400 X203.918 I0.75 J0
N3410 G1 Z-1.5 F60
N3420 G3 X202.418 I-0.75 J0 F200
N3430 X203.918 I0.75 J0
N3440 G0 Z2
N3450 X165.915 Y121.404
N3460 G1 Z1.1 F60
N3470 Z-0.1
N3480 G3 X164.415 I-0.75 J0 F200
N3490 X165.915 I0.75 J0
N3500 G1 Z-0.2 F60
N3510 G3 X164.415 I-0.75 J0 F200
N3520 X165.915 I0.75 J0
N3530 G1 Z-0.3 F60
N3540 G3 X164.415 I-0.75 J0 F200
N3550 X165.915 I0.75 J0
N3560 G1 Z-0.4 F60
N3570 G3 X164.415 I-0.75 J0 F200
N3580 X165.915 I0.75 J0
N3590 G1 Z-0.5 F60
N3600 G3 X164.415 I-0.75 J0 F200
N3610 X165.915 I0.75 J0
N3620 G1 Z-0.6 F60
N3630 G3 X164.415 I-0.75 J0 F200
N3640 X165.915 I0.75 J0
N3650 G1 Z-0.7 F60
N3660 G3 X164.415 I-0.75 J0 F200
N3670 X165.915 I0.75 J0
N3680 G1 Z-0.8 F60
N3690 G3 X164.415 I-0.75 J0 F200
N3700 X165.915 I0.75 J0
N3710 G1 Z-0.9 F60
N3720 G3 X164.415 I-0.75 J0 F200
N3730 X165.915 I0.75 J0
N3740 G1 Z-1 F60
N3750 G3 X164.415 I-0.75 J0 F200
N3760 X165.915 I0.75 J0
N3770 G1 Z-1.1 F60
N3780 G3 X164.415 I-0.75 J0 F200
N3790 X165.915 I0.75 J0
N3800 G1 Z-1.2 F60
N3810 G3 X164.415 I-0.75 J0 F200
N3820 X165.915 I0.75 J0
N3830 G1 Z-1.3 F60
N3840 G3 X164.415 I-0.75 J0 F200
N3850 X165.915 I0.75 J0
N3860 G1 Z-1.4 F60
N3870 G3 X164.415 I-0.75 J0 F200
N3880 X165.915 I0.75 J0
N3890 G1 Z-1.5 F60
N3900 G3 X164.415 I-0.75 J0 F200
N3910 X165.915 I0.75 J0
N3920 G0 Z2
N3930 X151.539 Y146.5
N3940 G1 Z1.1 F60
N3950 Z-0.1
N3960 G3 X150.29 Y145.67 I-0.624 J-0.415 F200
N3970 X151.539 Y146.5 I0.624 J0.415
N3980 G1 Z-0.2 F60
N3990 G3 X150.29 Y145.67 I-0.624 J-0.415 F200
N4000 X151.539 Y146.5 I0.624 J0.415
N4010 G1 Z-0.3 F60
N4020 G3 X150.29 Y145.67 I-0.624 J-0.415 F200
N4030 X151.539 Y146.5 I0.624 J0.415
N4040 G1 Z-0.4 F60
N4050 G3 X150.29 Y145.67 I-0.624 J-0.415 F200
N4060 X151.539 Y146.5 I0.624 J0.415
N4070 G1 Z-0.5 F60
N4080 G3 X150.29 Y145.67 I-0.624 J-0.415 F200
N4090 X151.539 Y146.5 I0.624 J0.415
N4100 G1 Z-0.6 F60
N4110 G3 X150.29 Y145.67 I-0.624 J-0.415 F200
N4120 X151.539 Y146.5 I0.624 J0.415
N4130 G1 Z-0.7 F60
N4140 G3 X150.29 Y145.67 I-0.624 J-0.415 F200
N4150 X151.539 Y146.5 I0.624 J0.415
N4160 G1 Z-0.8 F60
N4170 G3 X150.29 Y145.67 I-0.624 J-0.415 F200
N4180 X151.539 Y146.5 I0.624 J0.415
N4190 G1 Z-0.9 F60
N4200 G3 X150.29 Y145.67 I-0.624 J-0.415 F200
N4210 X151.539 Y146.5 I0.624 J0.415
N4220 G1 Z-1 F60
N4230 G3 X150.29 Y145.67 I-0.624 J-0.415 F200
N4240 X151.539 Y146.5 I0.624 J0.415
N4250 G1 Z-1.1 F60
N4260 G3 X150.29 Y145.67 I-0.624 J-0.415 F200
N4270 X151.539 Y146.5 I0.624 J0.415
N4280 G1 Z-1.2 F60
N4290 G3 X150.29 Y145.67 I-0.624 J-0.415 F200
N4300 X151.539 Y146.5 I0.624 J0.415
N4310 G1 Z-1.3 F60
N4320 G3 X150.29 Y145.67 I-0.624 J-0.415 F200
N4330 X151.539 Y146.5 I0.624 J0.415
N4340 G1 Z-1.4 F60
N4350 G3 X150.29 Y145.67 I-0.624 J-0.415 F200
N4360 X151.539 Y146.5 I0.624 J0.415
N4370 G1 Z-1.5 F60
N4380 G3 X150.29 Y145.67 I-0.624 J-0.415 F200
N4390 X151.539 Y146.5 I0.624 J0.415
N4400 G0 Z2
N4410 X139.699 Y148.315
N4420 G1 Z1.1 F60
N4430 Z-0.1
N4440 G3 X138.301 Y147.773 I-0.699 J-0.271 F200
N4450 X139.699 Y148.315 I0.699 J0.271
N4460 G1 Z-0.2 F60
N4470 G3 X138.301 Y147.773 I-0.699 J-0.271 F200
N4480 X139.699 Y148.315 I0.699 J0.271
N4490 G1 Z-0.3 F60
N4500 G3 X138.301 Y147.773 I-0.699 J-0.271 F200
N4510 X139.699 Y148.315 I0.699 J0.271
N4520 G1 Z-0.4 F60
N4530 G3 X138.301 Y147.773 I-0.699 J-0.271 F200
N4540 X139.699 Y148.315 I0.699 J0.271
N4550 G1 Z-0.5 F60
N4560 G3 X138.301 Y147.773 I-0.699 J-0.271 F200
N4570 X139.699 Y148.315 I0.699 J0.271
N4580 G1 Z-0.6 F60
N4590 G3 X138.301 Y147.773 I-0.699 J-0.271 F200
N4600 X139.699 Y148.315 I0.699 J0.271
N4610 G1 Z-0.7 F60
N4620 G3 X138.301 Y147.773 I-0.699 J-0.271 F200
N4630 X139.699 Y148.315 I0.699 J0.271
N4640 G1 Z-0.8 F60
N4650 G3 X138.301 Y147.773 I-0.699 J-0.271 F200
N4660 X139.699 Y148.315 I0.699 J0.271
N4670 G1 Z-0.9 F60
N4680 G3 X138.301 Y147.773 I-0.699 J-0.271 F200
N4690 X139.699 Y148.315 I0.699 J0.271
N4700 G1 Z-1 F60
N4710 G3 X138.301 Y147.773 I-0.699 J-0.271 F200
N4720 X139.699 Y148.315 I0.699 J0.271
N4730 G1 Z-1.1 F60
N4740 G3 X138.301 Y147.773 I-0.699 J-0.271 F200
N4750 X139.699 Y148.315 I0.699 J0.271
N4760 G1 Z-1.2 F60
N4770 G3 X138.301 Y147.773 I-0.699 J-0.271 F200
N4780 X139.699 Y148.315 I0.699 J0.271
N4790 G1 Z-1.3 F60
N4800 G3 X138.301 Y147.773 I-0.699 J-0.271 F200
N4810 X139.699 Y148.315 I0.699 J0.271
N4820 G1 Z-1.4 F60
N4830 G3 X138.301 Y147.773 I-0.699 J-0.271 F200
N4840 X139.699 Y148.315 I0.699 J0.271
N4850 G1 Z-1.5 F60
N4860 G3 X138.301 Y147.773 I-0.699 J-0.271 F200
N4870 X139.699 Y148.315 I0.699 J0.271
N4880 G0 Z2
N4890 X122.189 Y152.015
N4900 G1 Z1.1 F60
N4910 Z-0.1
N4920 G3 X120.791 Y151.473 I-0.699 J-0.271 F200
N4930 X122.189 Y152.015 I0.699 J0.271
N4940 G1 Z-0.2 F60
N4950 G3 X120.791 Y151.473 I-0.699 J-0.271 F200
N4960 X122.189 Y152.015 I0.699 J0.271
N4970 G1 Z-0.3 F60
N4980 G3 X120.791 Y151.473 I-0.699 J-0.271 F200
N4990 X122.189 Y152.015 I0.699 J0.271
N5000 G1 Z-0.4 F60
N5010 G3 X120.791 Y151.473 I-0.699 J-0.271 F200
N5020 X122.189 Y152.015 I0.699 J0.271
N5030 G1 Z-0.5 F60
N5040 G3 X120.791 Y151.473 I-0.699 J-0.271 F200
N5050 X122.189 Y152.015 I0.699 J0.271
N5060 G1 Z-0.6 F60
N5070 G3 X120.791 Y151.473 I-0.699 J-0.271 F200
N5080 X122.189 Y152.015 I0.699 J0.271
N5090 G1 Z-0.7 F60
N5100 G3 X120.791 Y151.473 I-0.699 J-0.271 F200
N5110 X122.189 Y152.015 I0.699 J0.271
N5120 G1 Z-0.8 F60
N5130 G3 X120.791 Y151.473 I-0.699 J-0.271 F200
N5140 X122.189 Y152.015 I0.699 J0.271
N5150 G1 Z-0.9 F60
N5160 G3 X120.791 Y151.473 I-0.699 J-0.271 F200
N5170 X122.189 Y152.015 I0.699 J0.271
N5180 G1 Z-1 F60
N5190 G3 X120.791 Y151.473 I-0.699 J-0.271 F200
N5200 X122.189 Y152.015 I0.699 J0.271
N5210 G1 Z-1.1 F60
N5220 G3 X120.791 Y151.473 I-0.699 J-0.271 F200
N5230 X122.189 Y152.015 I0.699 J0.271
N5240 G1 Z-1.2 F60
N5250 G3 X120.791 Y151.473 I-0.699 J-0.271 F200
N5260 X122.189 Y152.015 I0.699 J0.271
N5270 G1 Z-1.3 F60
N5280 G3 X120.791 Y151.473 I-0.699 J-0.271 F200
N5290 X122.189 Y152.015 I0.699 J0.271
N5300 G1 Z-1.4 F60
N5310 G3 X120.791 Y151.473 I-0.699 J-0.271 F200
N5320 X122.189 Y152.015 I0.699 J0.271
N5330 G1 Z-1.5 F60
N5340 G3 X120.791 Y151.473 I-0.699 J-0.271 F200
N5350 X122.189 Y152.015 I0.699 J0.271
N5360 G0 Z2
N5370 X122.24 Y130.194
N5380 G1 Z1.1 F60
N5390 Z-0.1
N5400 G3 X120.74 I-0.75 J0 F200
N5410 X122.24 I0.75 J0
N5420 G1 Z-0.2 F60
N5430 G3 X120.74 I-0.75 J0 F200
N5440 X122.24 I0.75 J0
N5450 G1 Z-0.3 F60
N5460 G3 X120.74 I-0.75 J0 F200
N5470 X122.24 I0.75 J0
N5480 G1 Z-0.4 F60
N5490 G3 X120.74 I-0.75 J0 F200
N5500 X122.24 I0.75 J0
N5510 G1 Z-0.5 F60
N5520 G3 X120.74 I-0.75 J0 F200
N5530 X122.24 I0.75 J0
N5540 G1 Z-0.6 F60
N5550 G3 X120.74 I-0.75 J0 F200
N5560 X122.24 I0.75 J0
N5570 G1 Z-0.7 F60
N5580 G3 X120.74 I-0.75 J0 F200
N5590 X122.24 I0.75 J0
N5600 G1 Z-0.8 F60
N5610 G3 X120.74 I-0.75 J0 F200
N5620 X122.24 I0.75 J0
N5630 G1 Z-0.9 F60
N5640 G3 X120.74 I-0.75 J0 F200
N5650 X122.24 I0.75 J0
N5660 G1 Z-1 F60
N5670 G3 X120.74 I-0.75 J0 F200
N5680 X122.24 I0.75 J0
N5690 G1 Z-1.1 F60
N5700 G3 X120.74 I-0.75 J0 F200
N5710 X122.24 I0.75 J0
N5720 G1 Z-1.2 F60
N5730 G3 X120.74 I-0.75 J0 F200
N5740 X122.24 I0.75 J0
N5750 G1 Z-1.3 F60
N5760 G3 X120.74 I-0.75 J0 F200
N5770 X122.24 I0.75 J0
N5780 G1 Z-1.4 F60
N5790 G3 X120.74 I-0.75 J0 F200
N5800 X122.24 I0.75 J0
N5810 G1 Z-1.5 F60
N5820 G3 X120.74 I-0.75 J0 F200
N5830 X122.24 I0.75 J0
N5840 G0 Z2
N5850 X87.26
N5860 G1 Z1.1 F60
N5870 Z-0.1
N5880 G3 X85.76 I-0.75 J0 F200
N5890 X87.26 I0.75 J0
N5900 G1 Z-0.2 F60
N5910 G3 X85.76 I-0.75 J0 F200
N5920 X87.26 I0.75 J0
N5930 G1 Z-0.3 F60
N5940 G3 X85.76 I-0.75 J0 F200
N5950 X87.26 I0.75 J0
N5960 G1 Z-0.4 F60
N5970 G3 X85.76 I-0.75 J0 F200
N5980 X87.26 I0.75 J0
N5990 G1 Z-0.5 F60
N6000 G3 X85.76 I-0.75 J0 F200
N6010 X87.26 I0.75 J0
N6020 G1 Z-0.6 F60
N6030 G3 X85.76 I-0.75 J0 F200
N6040 X87.26 I0.75 J0
N6050 G1 Z-0.7 F60
N6060 G3 X85.76 I-0.75 J0 F200
N6070 X87.26 I0.75 J0
N6080 G1 Z-0.8 F60
N6090 G3 X85.76 I-0.75 J0 F200
N6100 X87.26 I0.75 J0
N6110 G1 Z-0.9 F60
N6120 G3 X85.76 I-0.75 J0 F200
N6130 X87.26 I0.75 J0
N6140 G1 Z-1 F60
N6150 G3 X85.76 I-0.75 J0 F200
N6160 X87.26 I0.75 J0
N6170 G1 Z-1.1 F60
N6180 G3 X85.76 I-0.75 J0 F200
N6190 X87.26 I0.75 J0
N6200 G1 Z-1.2 F60
N6210 G3 X85.76 I-0.75 J0 F200
N6220 X87.26 I0.75 J0
N6230 G1 Z-1.3 F60
N6240 G3 X85.76 I-0.75 J0 F200
N6250 X87.26 I0.75 J0
N6260 G1 Z-1.4 F60
N6270 G3 X85.76 I-0.75 J0 F200
N6280 X87.26 I0.75 J0
N6290 G1 Z-1.5 F60
N6300 G3 X85.76 I-0.75 J0 F200
N6310 X87.26 I0.75 J0
N6320 G0 Z2
N6330 Y151.744
N6340 G1 Z1.1 F60
N6350 Z-0.1
N6360 G3 X85.76 I-0.75 J0 F200
N6370 X87.26 I0.75 J0
N6380 G1 Z-0.2 F60
N6390 G3 X85.76 I-0.75 J0 F200
N6400 X87.26 I0.75 J0
N6410 G1 Z-0.3 F60
N6420 G3 X85.76 I-0.75 J0 F200
N6430 X87.26 I0.75 J0
N6440 G1 Z-0.4 F60
N6450 G3 X85.76 I-0.75 J0 F200
N6460 X87.26 I0.75 J0
N6470 G1 Z-0.5 F60
N6480 G3 X85.76 I-0.75 J0 F200
N6490 X87.26 I0.75 J0
N6500 G1 Z-0.6 F60
N6510 G3 X85.76 I-0.75 J0 F200
N6520 X87.26 I0.75 J0
N6530 G1 Z-0.7 F60
N6540 G3 X85.76 I-0.75 J0 F200
N6550 X87.26 I0.75 J0
N6560 G1 Z-0.8 F60
N6570 G3 X85.76 I-0.75 J0 F200
N6580 X87.26 I0.75 J0
N6590 G1 Z-0.9 F60
N6600 G3 X85.76 I-0.75 J0 F200
N6610 X87.26 I0.75 J0
N6620 G1 Z-1 F60
N6630 G3 X85.76 I-0.75 J0 F200
N6640 X87.26 I0.75 J0
N6650 G1 Z-1.1 F60
N6660 G3 X85.76 I-0.75 J0 F200
N6670 X87.26 I0.75 J0
N6680 G1 Z-1.2 F60
N6690 G3 X85.76 I-0.75 J0 F200
N6700 X87.26 I0.75 J0
N6710 G1 Z-1.3 F60
N6720 G3 X85.76 I-0.75 J0 F200
N6730 X87.26 I0.75 J0
N6740 G1 Z-1.4 F60
N6750 G3 X85.76 I-0.75 J0 F200
N6760 X87.26 I0.75 J0
N6770 G1 Z-1.5 F60
N6780 G3 X85.76 I-0.75 J0 F200
N6790 X87.26 I0.75 J0
N6800 G0 Z2
N6810 X69.699 Y148.315
N6820 G1 Z1.1 F60
N6830 Z-0.1
N6840 G3 X68.301 Y147.773 I-0.699 J-0.271 F200
N6850 X69.699 Y148.315 I0.699 J0.271
N6860 G1 Z-0.2 F60
N6870 G3 X68.301 Y147.773 I-0.699 J-0.271 F200
N6880 X69.699 Y148.315 I0.699 J0.271
N6890 G1 Z-0.3 F60
N6900 G3 X68.301 Y147.773 I-0.699 J-0.271 F200
N6910 X69.699 Y148.315 I0.699 J0.271
N6920 G1 Z-0.4 F60
N6930 G3 X68.301 Y147.773 I-0.699 J-0.271 F200
N6940 X69.699 Y148.315 I0.699 J0.271
N6950 G1 Z-0.5 F60
N6960 G3 X68.301 Y147.773 I-0.699 J-0.271 F200
N6970 X69.699 Y148.315 I0.699 J0.271
N6980 G1 Z-0.6 F60
N6990 G3 X68.301 Y147.773 I-0.699 J-0.271 F200
N7000 X69.699 Y148.315 I0.699 J0.271
N7010 G1 Z-0.7 F60
N7020 G3 X68.301 Y147.773 I-0.699 J-0.271 F200
N7030 X69.699 Y148.315 I0.699 J0.271
N7040 G1 Z-0.8 F60
N7050 G3 X68.301 Y147.773 I-0.699 J-0.271 F200
N7060 X69.699 Y148.315 I0.699 J0.271
N7070 G1 Z-0.9 F60
N7080 G3 X68.301 Y147.773 I-0.699 J-0.271 F200
N7090 X69.699 Y148.315 I0.699 J0.271
N7100 G1 Z-1 F60
N7110 G3 X68.301 Y147.773 I-0.699 J-0.271 F200
N7120 X69.699 Y148.315 I0.699 J0.271
N7130 G1 Z-1.1 F60
N7140 G3 X68.301 Y147.773 I-0.699 J-0.271 F200
N7150 X69.699 Y148.315 I0.699 J0.271
N7160 G1 Z-1.2 F60
N7170 G3 X68.301 Y147.773 I-0.699 J-0.271 F200
N7180 X69.699 Y148.315 I0.699 J0.271
N7190 G1 Z-1.3 F60
N7200 G3 X68.301 Y147.773 I-0.699 J-0.271 F200
N7210 X69.699 Y148.315 I0.699 J0.271
N7220 G1 Z-1.4 F60
N7230 G3 X68.301 Y147.773 I-0.699 J-0.271 F200
N7240 X69.699 Y148.315 I0.699 J0.271
N7250 G1 Z-1.5 F60
N7260 G3 X68.301 Y147.773 I-0.699 J-0.271 F200
N7270 X69.699 Y148.315 I0.699 J0.271
N7280 G0 Z2
N7290 X57.835 Y146.085
N7300 G1 Z1.1 F60
N7310 Z-0.1
N7320 G3 X56.335 I-0.75 J0 F200
N7330 X57.835 I0.75 J0
N7340 G1 Z-0.2 F60
N7350 G3 X56.335 I-0.75 J0 F200
N7360 X57.835 I0.75 J0
N7370 G1 Z-0.3 F60
N7380 G3 X56.335 I-0.75 J0 F200
N7390 X57.835 I0.75 J0
N7400 G1 Z-0.4 F60
N7410 G3 X56.335 I-0.75 J0 F200
N7420 X57.835 I0.75 J0
N7430 G1 Z-0.5 F60
N7440 G3 X56.335 I-0.75 J0 F200
N7450 X57.835 I0.75 J0
N7460 G1 Z-0.6 F60
N7470 G3 X56.335 I-0.75 J0 F200
N7480 X57.835 I0.75 J0
N7490 G1 Z-0.7 F60
N7500 G3 X56.335 I-0.75 J0 F200
N7510 X57.835 I0.75 J0
N7520 G1 Z-0.8 F60
N7530 G3 X56.335 I-0.75 J0 F200
N7540 X57.835 I0.75 J0
N7550 G1 Z-0.9 F60
N7560 G3 X56.335 I-0.75 J0 F200
N7570 X57.835 I0.75 J0
N7580 G1 Z-1 F60
N7590 G3 X56.335 I-0.75 J0 F200
N7600 X57.835 I0.75 J0
N7610 G1 Z-1.1 F60
N7620 G3 X56.335 I-0.75 J0 F200
N7630 X57.835 I0.75 J0
N7640 G1 Z-1.2 F60
N7650 G3 X56.335 I-0.75 J0 F200
N7660 X57.835 I0.75 J0
N7670 G1 Z-1.3 F60
N7680 G3 X56.335 I-0.75 J0 F200
N7690 X57.835 I0.75 J0
N7700 G1 Z-1.4 F60
N7710 G3 X56.335 I-0.75 J0 F200
N7720 X57.835 I0.75 J0
N7730 G1 Z-1.5 F60
N7740 G3 X56.335 I-0.75 J0 F200
N7750 X57.835 I0.75 J0
N7760 G0 Z2
N7770 X59.75 Y171.044
N7780 G1 Z1.1 F60
N7790 Z-0.1
N7800 G3 X58.25 I-0.75 J0 F200
N7810 X59.75 I0.75 J0
N7820 G1 Z-0.2 F60
N7830 G3 X58.25 I-0.75 J0 F200
N7840 X59.75 I0.75 J0
N7850 G1 Z-0.3 F60
N7860 G3 X58.25 I-0.75 J0 F200
N7870 X59.75 I0.75 J0
N7880 G1 Z-0.4 F60
N7890 G3 X58.25 I-0.75 J0 F200
N7900 X59.75 I0.75 J0
N7910 G1 Z-0.5 F60
N7920 G3 X58.25 I-0.75 J0 F200
N7930 X59.75 I0.75 J0
N7940 G1 Z-0.6 F60
N7950 G3 X58.25 I-0.75 J0 F200
N7960 X59.75 I0.75 J0
N7970 G1 Z-0.7 F60
N7980 G3 X58.25 I-0.75 J0 F200
N7990 X59.75 I0.75 J0
N8000 G1 Z-0.8 F60
N8010 G3 X58.25 I-0.75 J0 F200
N8020 X59.75 I0.75 J0
N8030 G1 Z-0.9 F60
N8040 G3 X58.25 I-0.75 J0 F200
N8050 X59.75 I0.75 J0
N8060 G1 Z-1 F60
N8070 G3 X58.25 I-0.75 J0 F200
N8080 X59.75 I0.75 J0
N8090 G1 Z-1.1 F60
N8100 G3 X58.25 I-0.75 J0 F200
N8110 X59.75 I0.75 J0
N8120 G1 Z-1.2 F60
N8130 G3 X58.25 I-0.75 J0 F200
N8140 X59.75 I0.75 J0
N8150 G1 Z-1.3 F60
N8160 G3 X58.25 I-0.75 J0 F200
N8170 X59.75 I0.75 J0
N8180 G1 Z-1.4 F60
N8190 G3 X58.25 I-0.75 J0 F200
N8200 X59.75 I0.75 J0
N8210 G1 Z-1.5 F60
N8220 G3 X58.25 I-0.75 J0 F200
N8230 X59.75 I0.75 J0
N8240 G0 Z2
N8250 Y181.044
N8260 G1 Z1.1 F60
N8270 Z-0.1
N8280 G3 X58.25 I-0.75 J0 F200
N8290 X59.75 I0.75 J0
N8300 G1 Z-0.2 F60
N8310 G3 X58.25 I-0.75 J0 F200
N8320 X59.75 I0.75 J0
N8330 G1 Z-0.3 F60
N8340 G3 X58.25 I-0.75 J0 F200
N8350 X59.75 I0.75 J0
N8360 G1 Z-0.4 F60
N8370 G3 X58.25 I-0.75 J0 F200
N8380 X59.75 I0.75 J0
N8390 G1 Z-0.5 F60
N8400 G3 X58.25 I-0.75 J0 F200
N8410 X59.75 I0.75 J0
N8420 G1 Z-0.6 F60
N8430 G3 X58.25 I-0.75 J0 F200
N8440 X59.75 I0.75 J0
N8450 G1 Z-0.7 F60
N8460 G3 X58.25 I-0.75 J0 F200
N8470 X59.75 I0.75 J0
N8480 G1 Z-0.8 F60
N8490 G3 X58.25 I-0.75 J0 F200
N8500 X59.75 I0.75 J0
N8510 G1 Z-0.9 F60
N8520 G3 X58.25 I-0.75 J0 F200
N8530 X59.75 I0.75 J0
N8540 G1 Z-1 F60
N8550 G3 X58.25 I-0.75 J0 F200
N8560 X59.75 I0.75 J0
N8570 G1 Z-1.1 F60
N8580 G3 X58.25 I-0.75 J0 F200
N8590 X59.75 I0.75 J0
N8600 G1 Z-1.2 F60
N8610 G3 X58.25 I-0.75 J0 F200
N8620 X59.75 I0.75 J0
N8630 G1 Z-1.3 F60
N8640 G3 X58.25 I-0.75 J0 F200
N8650 X59.75 I0.75 J0
N8660 G1 Z-1.4 F60
N8670 G3 X58.25 I-0.75 J0 F200
N8680 X59.75 I0.75 J0
N8690 G1 Z-1.5 F60
N8700 G3 X58.25 I-0.75 J0 F200
N8710 X59.75 I0.75 J0
N8720 G0 Z2
N8730 X38.582 Y178.852
N8740 G1 Z1.1 F60
N8750 Z-0.1
N8760 G3 X37.082 I-0.75 J0 F200
N8770 X38.582 I0.75 J0
N8780 G1 Z-0.2 F60
N8790 G3 X37.082 I-0.75 J0 F200
N8800 X38.582 I0.75 J0
N8810 G1 Z-0.3 F60
N8820 G3 X37.082 I-0.75 J0 F200
N8830 X38.582 I0.75 J0
N8840 G1 Z-0.4 F60
N8850 G3 X37.082 I-0.75 J0 F200
N8860 X38.582 I0.75 J0
N8870 G1 Z-0.5 F60
N8880 G3 X37.082 I-0.75 J0 F200
N8890 X38.582 I0.75 J0
N8900 G1 Z-0.6 F60
N8910 G3 X37.082 I-0.75 J0 F200
N8920 X38.582 I0.75 J0
N8930 G1 Z-0.7 F60
N8940 G3 X37.082 I-0.75 J0 F200
N8950 X38.582 I0.75 J0
N8960 G1 Z-0.8 F60
N8970 G3 X37.082 I-0.75 J0 F200
N8980 X38.582 I0.75 J0
N8990 G1 Z-0.9 F60
N9000 G3 X37.082 I-0.75 J0 F200
N9010 X38.582 I0.75 J0
N9020 G1 Z-1 F60
N9030 G3 X37.082 I-0.75 J0 F200
N9040 X38.582 I0.75 J0
N9050 G1 Z-1.1 F60
N9060 G3 X37.082 I-0.75 J0 F200
N9070 X38.582 I0.75 J0
N9080 G1 Z-1.2 F60
N9090 G3 X37.082 I-0.75 J0 F200
N9100 X38.582 I0.75 J0
N9110 G1 Z-1.3 F60
N9120 G3 X37.082 I-0.75 J0 F200
N9130 X38.582 I0.75 J0
N9140 G1 Z-1.4 F60
N9150 G3 X37.082 I-0.75 J0 F200
N9160 X38.582 I0.75 J0
N9170 G1 Z-1.5 F60
N9180 G3 X37.082 I-0.75 J0 F200
N9190 X38.582 I0.75 J0
N9200 G0 Z2
N9210 X43.585 Y121.404
N9220 G1 Z1.1 F60
N9230 Z-0.1
N9240 G3 X42.085 I-0.75 J0 F200
N9250 X43.585 I0.75 J0
N9260 G1 Z-0.2 F60
N9270 G3 X42.085 I-0.75 J0 F200
N9280 X43.585 I0.75 J0
N9290 G1 Z-0.3 F60
N9300 G3 X42.085 I-0.75 J0 F200
N9310 X43.585 I0.75 J0
N9320 G1 Z-0.4 F60
N9330 G3 X42.085 I-0.75 J0 F200
N9340 X43.585 I0.75 J0
N9350 G1 Z-0.5 F60
N9360 G3 X42.085 I-0.75 J0 F200
N9370 X43.585 I0.75 J0
N9380 G1 Z-0.6 F60
N9390 G3 X42.085 I-0.75 J0 F200
N9400 X43.585 I0.75 J0
N9410 G1 Z-0.7 F60
N9420 G3 X42.085 I-0.75 J0 F200
N9430 X43.585 I0.75 J0
N9440 G1 Z-0.8 F60
N9450 G3 X42.085 I-0.75 J0 F200
N9460 X43.585 I0.75 J0
N9470 G1 Z-0.9 F60
N9480 G3 X42.085 I-0.75 J0 F200
N9490 X43.585 I0.75 J0
N9500 G1 Z-1 F60
N9510 G3 X42.085 I-0.75 J0 F200
N9520 X43.585 I0.75 J0
N9530 G1 Z-1.1 F60
N9540 G3 X42.085 I-0.75 J0 F200
N9550 X43.585 I0.75 J0
N9560 G1 Z-1.2 F60
N9570 G3 X42.085 I-0.75 J0 F200
N9580 X43.585 I0.75 J0
N9590 G1 Z-1.3 F60
N9600 G3 X42.085 I-0.75 J0 F200
N9610 X43.585 I0.75 J0
N9620 G1 Z-1.4 F60
N9630 G3 X42.085 I-0.75 J0 F200
N9640 X43.585 I0.75 J0
N9650 G1 Z-1.5 F60
N9660 G3 X42.085 I-0.75 J0 F200
N9670 X43.585 I0.75 J0
N9680 G0 Z2
N9690 X5.582 Y121.694
N9700 G1 Z1.1 F60
N9710 Z-0.1
N9720 G3 X4.082 I-0.75 J0 F200
N9730 X5.582 I0.75 J0
N9740 G1 Z-0.2 F60
N9750 G3 X4.082 I-0.75 J0 F200
N9760 X5.582 I0.75 J0
N9770 G1 Z-0.3 F60
N9780 G3 X4.082 I-0.75 J0 F200
N9790 X5.582 I0.75 J0
N9800 G1 Z-0.4 F60
N9810 G3 X4.082 I-0.75 J0 F200
N9820 X5.582 I0.75 J0
N9830 G1 Z-0.5 F60
N9840 G3 X4.082 I-0.75 J0 F200
N9850 X5.582 I0.75 J0
N9860 G1 Z-0.6 F60
N9870 G3 X4.082 I-0.75 J0 F200
N9880 X5.582 I0.75 J0
N9890 G1 Z-0.7 F60
N9900 G3 X4.082 I-0.75 J0 F200
N9910 X5.582 I0.75 J0
N9920 G1 Z-0.8 F60
N9930 G3 X4.082 I-0.75 J0 F200
N9940 X5.582 I0.75 J0
N9950 G1 Z-0.9 F60
N9960 G3 X4.082 I-0.75 J0 F200
N9970 X5.582 I0.75 J0
N9980 G1 Z-1 F60
N9990 G3 X4.082 I-0.75 J0 F200
N10000 X5.582 I0.75 J0
N10010 G1 Z-1.1 F60
N10020 G3 X4.082 I-0.75 J0 F200
N10030 X5.582 I0.75 J0
N10040 G1 Z-1.2 F60
N10050 G3 X4.082 I-0.75 J0 F200
N10060 X5.582 I0.75 J0
N10070 G1 Z-1.3 F60
N10080 G3 X4.082 I-0.75 J0 F200
N10090 X5.582 I0.75 J0
N10100 G1 Z-1.4 F60
N10110 G3 X4.082 I-0.75 J0 F200
N10120 X5.582 I0.75 J0
N10130 G1 Z-1.5 F60
N10140 G3 X4.082 I-0.75 J0 F200
N10150 X5.582 I0.75 J0
N10160 G0 Z2
N10170 X13.917 Y58.381
N10180 G1 Z1.1 F60
N10190 Z-0.1
N10200 G3 X12.417 I-0.75 J0 F200
N10210 X13.917 I0.75 J0
N10220 G1 Z-0.2 F60
N10230 G3 X12.417 I-0.75 J0 F200
N10240 X13.917 I0.75 J0
N10250 G1 Z-0.3 F60
N10260 G3 X12.417 I-0.75 J0 F200
N10270 X13.917 I0.75 J0
N10280 G1 Z-0.4 F60
N10290 G3 X12.417 I-0.75 J0 F200
N10300 X13.917 I0.75 J0
N10310 G1 Z-0.5 F60
N10320 G3 X12.417 I-0.75 J0 F200
N10330 X13.917 I0.75 J0
N10340 G1 Z-0.6 F60
N10350 G3 X12.417 I-0.75 J0 F200
N10360 X13.917 I0.75 J0
N10370 G1 Z-0.7 F60
N10380 G3 X12.417 I-0.75 J0 F200
N10390 X13.917 I0.75 J0
N10400 G1 Z-0.8 F60
N10410 G3 X12.417 I-0.75 J0 F200
N10420 X13.917 I0.75 J0
N10430 G1 Z-0.9 F60
N10440 G3 X12.417 I-0.75 J0 F200
N10450 X13.917 I0.75 J0
N10460 G1 Z-1 F60
N10470 G3 X12.417 I-0.75 J0 F200
N10480 X13.917 I0.75 J0
N10490 G1 Z-1.1 F60
N10500 G3 X12.417 I-0.75 J0 F200
N10510 X13.917 I0.75 J0
N10520 G1 Z-1.2 F60
N10530 G3 X12.417 I-0.75 J0 F200
N10540 X13.917 I0.75 J0
N10550 G1 Z-1.3 F60
N10560 G3 X12.417 I-0.75 J0 F200
N10570 X13.917 I0.75 J0
N10580 G1 Z-1.4 F60
N10590 G3 X12.417 I-0.75 J0 F200
N10600 X13.917 I0.75 J0
N10610 G1 Z-1.5 F60
N10620 G3 X12.417 I-0.75 J0 F200
N10630 X13.917 I0.75 J0
N10640 G0 Z2
N10650 X50.55 Y68.497
N10660 G1 Z1.1 F60
N10670 Z-0.1
N10680 G3 X49.05 I-0.75 J0 F200
N10690 X50.55 I0.75 J0
N10700 G1 Z-0.2 F60
N10710 G3 X49.05 I-0.75 J0 F200
N10720 X50.55 I0.75 J0
N10730 G1 Z-0.3 F60
N10740 G3 X49.05 I-0.75 J0 F200
N10750 X50.55 I0.75 J0
N10760 G1 Z-0.4 F60
N10770 G3 X49.05 I-0.75 J0 F200
N10780 X50.55 I0.75 J0
N10790 G1 Z-0.5 F60
N10800 G3 X49.05 I-0.75 J0 F200
N10810 X50.55 I0.75 J0
N10820 G1 Z-0.6 F60
N10830 G3 X49.05 I-0.75 J0 F200
N10840 X50.55 I0.75 J0
N10850 G1 Z-0.7 F60
N10860 G3 X49.05 I-0.75 J0 F200
N10870 X50.55 I0.75 J0
N10880 G1 Z-0.8 F60
N10890 G3 X49.05 I-0.75 J0 F200
N10900 X50.55 I0.75 J0
N10910 G1 Z-0.9 F60
N10920 G3 X49.05 I-0.75 J0 F200
N10930 X50.55 I0.75 J0
N10940 G1 Z-1 F60
N10950 G3 X49.05 I-0.75 J0 F200
N10960 X50.55 I0.75 J0
N10970 G1 Z-1.1 F60
N10980 G3 X49.05 I-0.75 J0 F200
N10990 X50.55 I0.75 J0
N11000 G1 Z-1.2 F60
N11010 G3 X49.05 I-0.75 J0 F200
N11020 X50.55 I0.75 J0
N11030 G1 Z-1.3 F60
N11040 G3 X49.05 I-0.75 J0 F200
N11050 X50.55 I0.75 J0
N11060 G1 Z-1.4 F60
N11070 G3 X49.05 I-0.75 J0 F200
N11080 X50.55 I0.75 J0
N11090 G1 Z-1.5 F60
N11100 G3 X49.05 I-0.75 J0 F200
N11110 X50.55 I0.75 J0
N11120 G0 Z2
N11130 X69.75 Y57.544
N11140 G1 Z1.1 F60
N11150 Z-0.1
N11160 G3 X68.25 I-0.75 J0 F200
N11170 X69.75 I0.75 J0
N11180 G1 Z-0.2 F60
N11190 G3 X68.25 I-0.75 J0 F200
N11200 X69.75 I0.75 J0
N11210 G1 Z-0.3 F60
N11220 G3 X68.25 I-0.75 J0 F200
N11230 X69.75 I0.75 J0
N11240 G1 Z-0.4 F60
N11250 G3 X68.25 I-0.75 J0 F200
N11260 X69.75 I0.75 J0
N11270 G1 Z-0.5 F60
N11280 G3 X68.25 I-0.75 J0 F200
N11290 X69.75 I0.75 J0
N11300 G1 Z-0.6 F60
N11310 G3 X68.25 I-0.75 J0 F200
N11320 X69.75 I0.75 J0
N11330 G1 Z-0.7 F60
N11340 G3 X68.25 I-0.75 J0 F200
N11350 X69.75 I0.75 J0
N11360 G1 Z-0.8 F60
N11370 G3 X68.25 I-0.75 J0 F200
N11380 X69.75 I0.75 J0
N11390 G1 Z-0.9 F60
N11400 G3 X68.25 I-0.75 J0 F200
N11410 X69.75 I0.75 J0
N11420 G1 Z-1 F60
N11430 G3 X68.25 I-0.75 J0 F200
N11440 X69.75 I0.75 J0
N11450 G1 Z-1.1 F60
N11460 G3 X68.25 I-0.75 J0 F200
N11470 X69.75 I0.75 J0
N11480 G1 Z-1.2 F60
N11490 G3 X68.25 I-0.75 J0 F200
N11500 X69.75 I0.75 J0
N11510 G1 Z-1.3 F60
N11520 G3 X68.25 I-0.75 J0 F200
N11530 X69.75 I0.75 J0
N11540 G1 Z-1.4 F60
N11550 G3 X68.25 I-0.75 J0 F200
N11560 X69.75 I0.75 J0
N11570 G1 Z-1.5 F60
N11580 G3 X68.25 I-0.75 J0 F200
N11590 X69.75 I0.75 J0
N11600 G0 Z2
N11610 X70.518 Y48.91
N11620 G1 Z1.1 F60
N11630 Z-0.1
N11640 G3 X69.458 Y47.85 I-0.53 J-0.53 F200
N11650 X70.518 Y48.91 I0.53 J0.53
N11660 G1 Z-0.2 F60
N11670 G3 X69.458 Y47.85 I-0.53 J-0.53 F200
N11680 X70.518 Y48.91 I0.53 J0.53
N11690 G1 Z-0.3 F60
N11700 G3 X69.458 Y47.85 I-0.53 J-0.53 F200
N11710 X70.518 Y48.91 I0.53 J0.53
N11720 G1 Z-0.4 F60
N11730 G3 X69.458 Y47.85 I-0.53 J-0.53 F200
N11740 X70.518 Y48.91 I0.53 J0.53
N11750 G1 Z-0.5 F60
N11760 G3 X69.458 Y47.85 I-0.53 J-0.53 F200
N11770 X70.518 Y48.91 I0.53 J0.53
N11780 G1 Z-0.6 F60
N11790 G3 X69.458 Y47.85 I-0.53 J-0.53 F200
N11800 X70.518 Y48.91 I0.53 J0.53
N11810 G1 Z-0.7 F60
N11820 G3 X69.458 Y47.85 I-0.53 J-0.53 F200
N11830 X70.518 Y48.91 I0.53 J0.53
N11840 G1 Z-0.8 F60
N11850 G3 X69.458 Y47.85 I-0.53 J-0.53 F200
N11860 X70.518 Y48.91 I0.53 J0.53
N11870 G1 Z-0.9 F60
N11880 G3 X69.458 Y47.85 I-0.53 J-0.53 F200
N11890 X70.518 Y48.91 I0.53 J0.53
N11900 G1 Z-1 F60
N11910 G3 X69.458 Y47.85 I-0.53 J-0.53 F200
N11920 X70.518 Y48.91 I0.53 J0.53
N11930 G1 Z-1.1 F60
N11940 G3 X69.458 Y47.85 I-0.53 J-0.53 F200
N11950 X70.518 Y48.91 I0.53 J0.53
N11960 G1 Z-1.2 F60
N11970 G3 X69.458 Y47.85 I-0.53 J-0.53 F200
N11980 X70.518 Y48.91 I0.53 J0.53
N11990 G1 Z-1.3 F60
N12000 G3 X69.458 Y47.85 I-0.53 J-0.53 F200
N12010 X70.518 Y48.91 I0.53 J0.53
N12020 G1 Z-1.4 F60
N12030 G3 X69.458 Y47.85 I-0.53 J-0.53 F200
N12040 X70.518 Y48.91 I0.53 J0.53
N12050 G1 Z-1.5 F60
N12060 G3 X69.458 Y47.85 I-0.53 J-0.53 F200
N12070 X70.518 Y48.91 I0.53 J0.53
N12080 G0 Z2
N12090 X88.303 Y70.589
N12100 G1 Z1.1 F60
N12110 Z-0.1
N12120 G3 X87.803 I-0.25 J0 F200
N12130 X88.303 I0.25 J0
N12140 G1 Z-0.2 F60
N12150 G3 X87.803 I-0.25 J0 F200
N12160 X88.303 I0.25 J0
N12170 G1 Z-0.3 F60
N12180 G3 X87.803 I-0.25 J0 F200
N12190 X88.303 I0.25 J0
N12200 G1 Z-0.4 F60
N12210 G3 X87.803 I-0.25 J0 F200
N12220 X88.303 I0.25 J0
N12230 G1 Z-0.5 F60
N12240 G3 X87.803 I-0.25 J0 F200
N12250 X88.303 I0.25 J0
N12260 G1 Z-0.6 F60
N12270 G3 X87.803 I-0.25 J0 F200
N12280 X88.303 I0.25 J0
N12290 G1 Z-0.7 F60
N12300 G3 X87.803 I-0.25 J0 F200
N12310 X88.303 I0.25 J0
N12320 G1 Z-0.8 F60
N12330 G3 X87.803 I-0.25 J0 F200
N12340 X88.303 I0.25 J0
N12350 G1 Z-0.9 F60
N12360 G3 X87.803 I-0.25 J0 F200
N12370 X88.303 I0.25 J0
N12380 G1 Z-1 F60
N12390 G3 X87.803 I-0.25 J0 F200
N12400 X88.303 I0.25 J0
N12410 G1 Z-1.1 F60
N12420 G3 X87.803 I-0.25 J0 F200
N12430 X88.303 I0.25 J0
N12440 G1 Z-1.2 F60
N12450 G3 X87.803 I-0.25 J0 F200
N12460 X88.303 I0.25 J0
N12470 G1 Z-1.3 F60
N12480 G3 X87.803 I-0.25 J0 F200
N12490 X88.303 I0.25 J0
N12500 G1 Z-1.4 F60
N12510 G3 X87.803 I-0.25 J0 F200
N12520 X88.303 I0.25 J0
N12530 G1 Z-1.5 F60
N12540 G3 X87.803 I-0.25 J0 F200
N12550 X88.303 I0.25 J0
N12560 G0 Z2
N12570 X64.224 Y16.898
N12580 G1 Z1.1 F60
N12590 Z-0.1
N12600 G3 X63.974 Y16.465 I-0.125 J-0.217 F200
N12610 X64.224 Y16.898 I0.125 J0.217
N12620 G1 Z-0.2 F60
N12630 G3 X63.974 Y16.465 I-0.125 J-0.217 F200
N12640 X64.224 Y16.898 I0.125 J0.217
N12650 G1 Z-0.3 F60
N12660 G3 X63.974 Y16.465 I-0.125 J-0.217 F200
N12670 X64.224 Y16.898 I0.125 J0.217
N12680 G1 Z-0.4 F60
N12690 G3 X63.974 Y16.465 I-0.125 J-0.217 F200
N12700 X64.224 Y16.898 I0.125 J0.217
N12710 G1 Z-0.5 F60
N12720 G3 X63.974 Y16.465 I-0.125 J-0.217 F200
N12730 X64.224 Y16.898 I0.125 J0.217
N12740 G1 Z-0.6 F60
N12750 G3 X63.974 Y16.465 I-0.125 J-0.217 F200
N12760 X64.224 Y16.898 I0.125 J0.217
N12770 G1 Z-0.7 F60
N12780 G3 X63.974 Y16.465 I-0.125 J-0.217 F200
N12790 X64.224 Y16.898 I0.125 J0.217
N12800 G1 Z-0.8 F60
N12810 G3 X63.974 Y16.465 I-0.125 J-0.217 F200
N12820 X64.224 Y16.898 I0.125 J0.217
N12830 G1 Z-0.9 F60
N12840 G3 X63.974 Y16.465 I-0.125 J-0.217 F200
N12850 X64.224 Y16.898 I0.125 J0.217
N12860 G1 Z-1 F60
N12870 G3 X63.974 Y16.465 I-0.125 J-0.217 F200
N12880 X64.224 Y16.898 I0.125 J0.217
N12890 G1 Z-1.1 F60
N12900 G3 X63.974 Y16.465 I-0.125 J-0.217 F200
N12910 X64.224 Y16.898 I0.125 J0.217
N12920 G1 Z-1.2 F60
N12930 G3 X63.974 Y16.465 I-0.125 J-0.217 F200
N12940 X64.224 Y16.898 I0.125 J0.217
N12950 G1 Z-1.3 F60
N12960 G3 X63.974 Y16.465 I-0.125 J-0.217 F200
N12970 X64.224 Y16.898 I0.125 J0.217
N12980 G1 Z-1.4 F60
N12990 G3 X63.974 Y16.465 I-0.125 J-0.217 F200
N13000 X64.224 Y16.898 I0.125 J0.217
N13010 G1 Z-1.5 F60
N13020 G3 X63.974 Y16.465 I-0.125 J-0.217 F200
N13030 X64.224 Y16.898 I0.125 J0.217
N13040 G0 Z2
N13050 X60.586 Y11.712
N13060 G1 Z1.1 F60
N13070 Z-0.1
N13080 G3 X59.086 I-0.75 J0 F200
N13090 X60.586 I0.75 J0
N13100 G1 Z-0.2 F60
N13110 G3 X59.086 I-0.75 J0 F200
N13120 X60.586 I0.75 J0
N13130 G1 Z-0.3 F60
N13140 G3 X59.086 I-0.75 J0 F200
N13150 X60.586 I0.75 J0
N13160 G1 Z-0.4 F60
N13170 G3 X59.086 I-0.75 J0 F200
N13180 X60.586 I0.75 J0
N13190 G1 Z-0.5 F60
N13200 G3 X59.086 I-0.75 J0 F200
N13210 X60.586 I0.75 J0
N13220 G1 Z-0.6 F60
N13230 G3 X59.086 I-0.75 J0 F200
N13240 X60.586 I0.75 J0
N13250 G1 Z-0.7 F60
N13260 G3 X59.086 I-0.75 J0 F200
N13270 X60.586 I0.75 J0
N13280 G1 Z-0.8 F60
N13290 G3 X59.086 I-0.75 J0 F200
N13300 X60.586 I0.75 J0
N13310 G1 Z-0.9 F60
N13320 G3 X59.086 I-0.75 J0 F200
N13330 X60.586 I0.75 J0
N13340 G1 Z-1 F60
N13350 G3 X59.086 I-0.75 J0 F200
N13360 X60.586 I0.75 J0
N13370 G1 Z-1.1 F60
N13380 G3 X59.086 I-0.75 J0 F200
N13390 X60.586 I0.75 J0
N13400 G1 Z-1.2 F60
N13410 G3 X59.086 I-0.75 J0 F200
N13420 X60.586 I0.75 J0
N13430 G1 Z-1.3 F60
N13440 G3 X59.086 I-0.75 J0 F200
N13450 X60.586 I0.75 J0
N13460 G1 Z-1.4 F60
N13470 G3 X59.086 I-0.75 J0 F200
N13480 X60.586 I0.75 J0
N13490 G1 Z-1.5 F60
N13500 G3 X59.086 I-0.75 J0 F200
N13510 X60.586 I0.75 J0
N13520 G0 Z2
N13530 X144.151 Y16.682
N13540 G1 Z1.1 F60
N13550 Z-0.1
N13560 G3 X143.651 I-0.25 J0 F200
N13570 X144.151 I0.25 J0
N13580 G1 Z-0.2 F60
N13590 G3 X143.651 I-0.25 J0 F200
N13600 X144.151 I0.25 J0
N13610 G1 Z-0.3 F60
N13620 G3 X143.651 I-0.25 J0 F200
N13630 X144.151 I0.25 J0
N13640 G1 Z-0.4 F60
N13650 G3 X143.651 I-0.25 J0 F200
N13660 X144.151 I0.25 J0
N13670 G1 Z-0.5 F60
N13680 G3 X143.651 I-0.25 J0 F200
N13690 X144.151 I0.25 J0
N13700 G1 Z-0.6 F60
N13710 G3 X143.651 I-0.25 J0 F200
N13720 X144.151 I0.25 J0
N13730 G1 Z-0.7 F60
N13740 G3 X143.651 I-0.25 J0 F200
N13750 X144.151 I0.25 J0
N13760 G1 Z-0.8 F60
N13770 G3 X143.651 I-0.25 J0 F200
N13780 X144.151 I0.25 J0
N13790 G1 Z-0.9 F60
N13800 G3 X143.651 I-0.25 J0 F200
N13810 X144.151 I0.25 J0
N13820 G1 Z-1 F60
N13830 G3 X143.651 I-0.25 J0 F200
N13840 X144.151 I0.25 J0
N13850 G1 Z-1.1 F60
N13860 G3 X143.651 I-0.25 J0 F200
N13870 X144.151 I0.25 J0
N13880 G1 Z-1.2 F60
N13890 G3 X143.651 I-0.25 J0 F200
N13900 X144.151 I0.25 J0
N13910 G1 Z-1.3 F60
N13920 G3 X143.651 I-0.25 J0 F200
N13930 X144.151 I0.25 J0
N13940 G1 Z-1.4 F60
N13950 G3 X143.651 I-0.25 J0 F200
N13960 X144.151 I0.25 J0
N13970 G1 Z-1.5 F60
N13980 G3 X143.651 I-0.25 J0 F200
N13990 X144.151 I0.25 J0
N14000 G0 Z2
N14010 X148.863 Y11.983
N14020 G1 Z1.1 F60
N14030 Z-0.1
N14040 G3 X147.465 Y11.441 I-0.699 J-0.271 F200
N14050 X148.863 Y11.983 I0.699 J0.271
N14060 G1 Z-0.2 F60
N14070 G3 X147.465 Y11.441 I-0.699 J-0.271 F200
N14080 X148.863 Y11.983 I0.699 J0.271
N14090 G1 Z-0.3 F60
N14100 G3 X147.465 Y11.441 I-0.699 J-0.271 F200
N14110 X148.863 Y11.983 I0.699 J0.271
N14120 G1 Z-0.4 F60
N14130 G3 X147.465 Y11.441 I-0.699 J-0.271 F200
N14140 X148.863 Y11.983 I0.699 J0.271
N14150 G1 Z-0.5 F60
N14160 G3 X147.465 Y11.441 I-0.699 J-0.271 F200
N14170 X148.863 Y11.983 I0.699 J0.271
N14180 G1 Z-0.6 F60
N14190 G3 X147.465 Y11.441 I-0.699 J-0.271 F200
N14200 X148.863 Y11.983 I0.699 J0.271
N14210 G1 Z-0.7 F60
N14220 G3 X147.465 Y11.441 I-0.699 J-0.271 F200
N14230 X148.863 Y11.983 I0.699 J0.271
N14240 G1 Z-0.8 F60
N14250 G3 X147.465 Y11.441 I-0.699 J-0.271 F200
N14260 X148.863 Y11.983 I0.699 J0.271
N14270 G1 Z-0.9 F60
N14280 G3 X147.465 Y11.441 I-0.699 J-0.271 F200
N14290 X148.863 Y11.983 I0.699 J0.271
N14300 G1 Z-1 F60
N14310 G3 X147.465 Y11.441 I-0.699 J-0.271 F200
N14320 X148.863 Y11.983 I0.699 J0.271
N14330 G1 Z-1.1 F60
N14340 G3 X147.465 Y11.441 I-0.699 J-0.271 F200
N14350 X148.863 Y11.983 I0.699 J0.271
N14360 G1 Z-1.2 F60
N14370 G3 X147.465 Y11.441 I-0.699 J-0.271 F200
N14380 X148.863 Y11.983 I0.699 J0.271
N14390 G1 Z-1.3 F60
N14400 G3 X147.465 Y11.441 I-0.699 J-0.271 F200
N14410 X148.863 Y11.983 I0.699 J0.271
N14420 G1 Z-1.4 F60
N14430 G3 X147.465 Y11.441 I-0.699 J-0.271 F200
N14440 X148.863 Y11.983 I0.699 J0.271
N14450 G1 Z-1.5 F60
N14460 G3 X147.465 Y11.441 I-0.699 J-0.271 F200
N14470 X148.863 Y11.983 I0.699 J0.271
N14480 G0 Z2
N14490 X149.75 Y171.044
N14500 G1 Z1.1 F60
N14510 Z-0.1
N14520 G3 X148.25 I-0.75 J0 F200
N14530 X149.75 I0.75 J0
N14540 G1 Z-0.2 F60
N14550 G3 X148.25 I-0.75 J0 F200
N14560 X149.75 I0.75 J0
N14570 G1 Z-0.3 F60
N14580 G3 X148.25 I-0.75 J0 F200
N14590 X149.75 I0.75 J0
N14600 G1 Z-0.4 F60
N14610 G3 X148.25 I-0.75 J0 F200
N14620 X149.75 I0.75 J0
N14630 G1 Z-0.5 F60
N14640 G3 X148.25 I-0.75 J0 F200
N14650 X149.75 I0.75 J0
N14660 G1 Z-0.6 F60
N14670 G3 X148.25 I-0.75 J0 F200
N14680 X149.75 I0.75 J0
N14690 G1 Z-0.7 F60
N14700 G3 X148.25 I-0.75 J0 F200
N14710 X149.75 I0.75 J0
N14720 G1 Z-0.8 F60
N14730 G3 X148.25 I-0.75 J0 F200
N14740 X149.75 I0.75 J0
N14750 G1 Z-0.9 F60
N14760 G3 X148.25 I-0.75 J0 F200
N14770 X149.75 I0.75 J0
N14780 G1 Z-1 F60
N14790 G3 X148.25 I-0.75 J0 F200
N14800 X149.75 I0.75 J0
N14810 G1 Z-1.1 F60
N14820 G3 X148.25 I-0.75 J0 F200
N14830 X149.75 I0.75 J0
N14840 G1 Z-1.2 F60
N14850 G3 X148.25 I-0.75 J0 F200
N14860 X149.75 I0.75 J0
N14870 G1 Z-1.3 F60
N14880 G3 X148.25 I-0.75 J0 F200
N14890 X149.75 I0.75 J0
N14900 G1 Z-1.4 F60
N14910 G3 X148.25 I-0.75 J0 F200
N14920 X149.75 I0.75 J0
N14930 G1 Z-1.5 F60
N14940 G3 X148.25 I-0.75 J0 F200
N14950 X149.75 I0.75 J0
N14960 G0 Z2
N14970 Y181.044
N14980 G1 Z1.1 F60
N14990 Z-0.1
N15000 G3 X148.25 I-0.75 J0 F200
N15010 X149.75 I0.75 J0
N15020 G1 Z-0.2 F60
N15030 G3 X148.25 I-0.75 J0 F200
N15040 X149.75 I0.75 J0
N15050 G1 Z-0.3 F60
N15060 G3 X148.25 I-0.75 J0 F200
N15070 X149.75 I0.75 J0
N15080 G1 Z-0.4 F60
N15090 G3 X148.25 I-0.75 J0 F200
N15100 X149.75 I0.75 J0
N15110 G1 Z-0.5 F60
N15120 G3 X148.25 I-0.75 J0 F200
N15130 X149.75 I0.75 J0
N15140 G1 Z-0.6 F60
N15150 G3 X148.25 I-0.75 J0 F200
N15160 X149.75 I0.75 J0
N15170 G1 Z-0.7 F60
N15180 G3 X148.25 I-0.75 J0 F200
N15190 X149.75 I0.75 J0
N15200 G1 Z-0.8 F60
N15210 G3 X148.25 I-0.75 J0 F200
N15220 X149.75 I0.75 J0
N15230 G1 Z-0.9 F60
N15240 G3 X148.25 I-0.75 J0 F200
N15250 X149.75 I0.75 J0
N15260 G1 Z-1 F60
N15270 G3 X148.25 I-0.75 J0 F200
N15280 X149.75 I0.75 J0
N15290 G1 Z-1.1 F60
N15300 G3 X148.25 I-0.75 J0 F200
N15310 X149.75 I0.75 J0
N15320 G1 Z-1.2 F60
N15330 G3 X148.25 I-0.75 J0 F200
N15340 X149.75 I0.75 J0
N15350 G1 Z-1.3 F60
N15360 G3 X148.25 I-0.75 J0 F200
N15370 X149.75 I0.75 J0
N15380 G1 Z-1.4 F60
N15390 G3 X148.25 I-0.75 J0 F200
N15400 X149.75 I0.75 J0
N15410 G1 Z-1.5 F60
N15420 G3 X148.25 I-0.75 J0 F200
N15430 X149.75 I0.75 J0
N15440 G0 Z2
N15450 X170.867 Y179.123
N15460 G1 Z1.1 F60
N15470 Z-0.1
N15480 G3 X169.469 Y178.581 I-0.699 J-0.271 F200
N15490 X170.867 Y179.123 I0.699 J0.271
N15500 G1 Z-0.2 F60
N15510 G3 X169.469 Y178.581 I-0.699 J-0.271 F200
N15520 X170.867 Y179.123 I0.699 J0.271
N15530 G1 Z-0.3 F60
N15540 G3 X169.469 Y178.581 I-0.699 J-0.271 F200
N15550 X170.867 Y179.123 I0.699 J0.271
N15560 G1 Z-0.4 F60
N15570 G3 X169.469 Y178.581 I-0.699 J-0.271 F200
N15580 X170.867 Y179.123 I0.699 J0.271
N15590 G1 Z-0.5 F60
N15600 G3 X169.469 Y178.581 I-0.699 J-0.271 F200
N15610 X170.867 Y179.123 I0.699 J0.271
N15620 G1 Z-0.6 F60
N15630 G3 X169.469 Y178.581 I-0.699 J-0.271 F200
N15640 X170.867 Y179.123 I0.699 J0.271
N15650 G1 Z-0.7 F60
N15660 G3 X169.469 Y178.581 I-0.699 J-0.271 F200
N15670 X170.867 Y179.123 I0.699 J0.271
N15680 G1 Z-0.8 F60
N15690 G3 X169.469 Y178.581 I-0.699 J-0.271 F200
N15700 X170.867 Y179.123 I0.699 J0.271
N15710 G1 Z-0.9 F60
N15720 G3 X169.469 Y178.581 I-0.699 J-0.271 F200
N15730 X170.867 Y179.123 I0.699 J0.271
N15740 G1 Z-1 F60
N15750 G3 X169.469 Y178.581 I-0.699 J-0.271 F200
N15760 X170.867 Y179.123 I0.699 J0.271
N15770 G1 Z-1.1 F60
N15780 G3 X169.469 Y178.581 I-0.699 J-0.271 F200
N15790 X170.867 Y179.123 I0.699 J0.271
N15800 G1 Z-1.2 F60
N15810 G3 X169.469 Y178.581 I-0.699 J-0.271 F200
N15820 X170.867 Y179.123 I0.699 J0.271
N15830 G1 Z-1.3 F60
N15840 G3 X169.469 Y178.581 I-0.699 J-0.271 F200
N15850 X170.867 Y179.123 I0.699 J0.271
N15860 G1 Z-1.4 F60
N15870 G3 X169.469 Y178.581 I-0.699 J-0.271 F200
N15880 X170.867 Y179.123 I0.699 J0.271
N15890 G1 Z-1.5 F60
N15900 G3 X169.469 Y178.581 I-0.699 J-0.271 F200
N15910 X170.867 Y179.123 I0.699 J0.271
N15920 G0 Z2

(2D ??1 2)
N15930 X115.4 Y106.344
N15940 G1 Z2 F60
N15950 Z1.1
N15960 Z0.1
N15970 G18 G2 X115.6 Z-0.1 I0.2 K0
N15980 G1 X115.8
N15990 G17 G3 X116 Y106.544 I0 J0.2
N16000 G1 Y153.544 F300
N16010 G3 X114 Y155.544 I-2 J0
N16020 G1 X94
N16030 G3 X92 Y153.544 I0 J-2
N16040 G1 Y92.544
N16050 G3 X93 Y91.544 I1 J0
N16060 G1 X98.804
N16070 G3 X99.67 Y92.044 I0 J1
N16080 G2 X108.33 I4.33 J-2.5
N16090 G3 X109.196 Y91.544 I0.866 J0.5
N16100 G1 X115
N16110 G3 X116 Y92.544 I0 J1
N16120 G1 Y106.544
N16130 G3 X115.8 Y106.744 I-0.2 J0 F1000
N16140 G1 X115.6
N16150 G18 G3 X115.4 Z0.1 I0 K0.2
N16160 G0 Z2
N16170 Y106.344
N16180 G1 Z1 F60
N16190 Z0
N16200 G2 X115.6 Z-0.2 I0.2 K0
N16210 G1 X115.8
N16220 G17 G3 X116 Y106.544 I0 J0.2
N16230 G1 Y153.544 F300
N16240 G3 X114 Y155.544 I-2 J0
N16250 G1 X94
N16260 G3 X92 Y153.544 I0 J-2
N16270 G1 Y92.544
N16280 G3 X93 Y91.544 I1 J0
N16290 G1 X98.804
N16300 G3 X99.67 Y92.044 I0 J1
N16310 G2 X108.33 I4.33 J-2.5
N16320 G3 X109.196 Y91.544 I0.866 J0.5
N16330 G1 X115
N16340 G3 X116 Y92.544 I0 J1
N16350 G1 Y106.544
N16360 G3 X115.8 Y106.744 I-0.2 J0 F1000
N16370 G1 X115.6
N16380 G18 G3 X115.4 Z0 I0 K0.2
N16390 G0 Z2
N16400 Y106.344
N16410 G1 Z0.9 F60
N16420 Z-0.1
N16430 G2 X115.6 Z-0.3 I0.2 K0
N16440 G1 X115.8
N16450 G17 G3 X116 Y106.544 I0 J0.2
N16460 G1 Y153.544 F300
N16470 G3 X114 Y155.544 I-2 J0
N16480 G1 X94
N16490 G3 X92 Y153.544 I0 J-2
N16500 G1 Y92.544
N16510 G3 X93 Y91.544 I1 J0
N16520 G1 X98.804
N16530 G3 X99.67 Y92.044 I0 J1
N16540 G2 X108.33 I4.33 J-2.5
N16550 G3 X109.196 Y91.544 I0.866 J0.5
N16560 G1 X115
N16570 G3 X116 Y92.544 I0 J1
N16580 G1 Y106.544
N16590 G3 X115.8 Y106.744 I-0.2 J0 F1000
N16600 G1 X115.6
N16610 G18 G3 X115.4 Z-0.1 I0 K0.2
N16620 G0 Z2
N16630 Y106.344
N16640 G1 Z0.8 F60
N16650 Z-0.2
N16660 G2 X115.6 Z-0.4 I0.2 K0
N16670 G1 X115.8
N16680 G17 G3 X116 Y106.544 I0 J0.2
N16690 G1 Y153.544 F300
N16700 G3 X114 Y155.544 I-2 J0
N16710 G1 X94
N16720 G3 X92 Y153.544 I0 J-2
N16730 G1 Y92.544
N16740 G3 X93 Y91.544 I1 J0
N16750 G1 X98.804
N16760 G3 X99.67 Y92.044 I0 J1
N16770 G2 X108.33 I4.33 J-2.5
N16780 G3 X109.196 Y91.544 I0.866 J0.5
N16790 G1 X115
N16800 G3 X116 Y92.544 I0 J1
N16810 G1 Y106.544
N16820 G3 X115.8 Y106.744 I-0.2 J0 F1000
N16830 G1 X115.6
N16840 G18 G3 X115.4 Z-0.2 I0 K0.2
N16850 G0 Z2
N16860 Y106.344
N16870 G1 Z0.7 F60
N16880 Z-0.3
N16890 G2 X115.6 Z-0.5 I0.2 K0
N16900 G1 X115.8
N16910 G17 G3 X116 Y106.544 I0 J0.2
N16920 G1 Y153.544 F300
N16930 G3 X114 Y155.544 I-2 J0
N16940 G1 X94
N16950 G3 X92 Y153.544 I0 J-2
N16960 G1 Y92.544
N16970 G3 X93 Y91.544 I1 J0
N16980 G1 X98.804
N16990 G3 X99.67 Y92.044 I0 J1
N17000 G2 X108.33 I4.33 J-2.5
N17010 G3 X109.196 Y91.544 I0.866 J0.5
N17020 G1 X115
N17030 G3 X116 Y92.544 I0 J1
N17040 G1 Y106.544
N17050 G3 X115.8 Y106.744 I-0.2 J0 F1000
N17060 G1 X115.6
N17070 G18 G3 X115.4 Z-0.3 I0 K0.2
N17080 G0 Z2
N17090 Y106.344
N17100 G1 Z0.6 F60
N17110 Z-0.4
N17120 G2 X115.6 Z-0.6 I0.2 K0
N17130 G1 X115.8
N17140 G17 G3 X116 Y106.544 I0 J0.2
N17150 G1 Y153.544 F300
N17160 G3 X114 Y155.544 I-2 J0
N17170 G1 X94
N17180 G3 X92 Y153.544 I0 J-2
N17190 G1 Y92.544
N17200 G3 X93 Y91.544 I1 J0
N17210 G1 X98.804
N17220 G3 X99.67 Y92.044 I0 J1
N17230 G2 X108.33 I4.33 J-2.5
N17240 G3 X109.196 Y91.544 I0.866 J0.5
N17250 G1 X115
N17260 G3 X116 Y92.544 I0 J1
N17270 G1 Y106.544
N17280 G3 X115.8 Y106.744 I-0.2 J0 F1000
N17290 G1 X115.6
N17300 G18 G3 X115.4 Z-0.4 I0 K0.2
N17310 G0 Z2
N17320 Y106.344
N17330 G1 Z0.5 F60
N17340 Z-0.5
N17350 G2 X115.6 Z-0.7 I0.2 K0
N17360 G1 X115.8
N17370 G17 G3 X116 Y106.544 I0 J0.2
N17380 G1 Y153.544 F300
N17390 G3 X114 Y155.544 I-2 J0
N17400 G1 X94
N17410 G3 X92 Y153.544 I0 J-2
N17420 G1 Y92.544
N17430 G3 X93 Y91.544 I1 J0
N17440 G1 X98.804
N17450 G3 X99.67 Y92.044 I0 J1
N17460 G2 X108.33 I4.33 J-2.5
N17470 G3 X109.196 Y91.544 I0.866 J0.5
N17480 G1 X115
N17490 G3 X116 Y92.544 I0 J1
N17500 G1 Y106.544
N17510 G3 X115.8 Y106.744 I-0.2 J0 F1000
N17520 G1 X115.6
N17530 G18 G3 X115.4 Z-0.5 I0 K0.2
N17540 G0 Z2
N17550 Y106.344
N17560 G1 Z0.4 F60
N17570 Z-0.6
N17580 G2 X115.6 Z-0.8 I0.2 K0
N17590 G1 X115.8
N17600 G17 G3 X116 Y106.544 I0 J0.2
N17610 G1 Y153.544 F300
N17620 G3 X114 Y155.544 I-2 J0
N17630 G1 X94
N17640 G3 X92 Y153.544 I0 J-2
N17650 G1 Y92.544
N17660 G3 X93 Y91.544 I1 J0
N17670 G1 X98.804
N17680 G3 X99.67 Y92.044 I0 J1
N17690 G2 X108.33 I4.33 J-2.5
N17700 G3 X109.196 Y91.544 I0.866 J0.5
N17710 G1 X115
N17720 G3 X116 Y92.544 I0 J1
N17730 G1 Y106.544
N17740 G3 X115.8 Y106.744 I-0.2 J0 F1000
N17750 G1 X115.6
N17760 G18 G3 X115.4 Z-0.6 I0 K0.2
N17770 G0 Z2
N17780 Y106.344
N17790 G1 Z0.3 F60
N17800 Z-0.7
N17810 G2 X115.6 Z-0.9 I0.2 K0
N17820 G1 X115.8
N17830 G17 G3 X116 Y106.544 I0 J0.2
N17840 G1 Y153.544 F300
N17850 G3 X114 Y155.544 I-2 J0
N17860 G1 X94
N17870 G3 X92 Y153.544 I0 J-2
N17880 G1 Y92.544
N17890 G3 X93 Y91.544 I1 J0
N17900 G1 X98.804
N17910 G3 X99.67 Y92.044 I0 J1
N17920 G2 X108.33 I4.33 J-2.5
N17930 G3 X109.196 Y91.544 I0.866 J0.5
N17940 G1 X115
N17950 G3 X116 Y92.544 I0 J1
N17960 G1 Y106.544
N17970 G3 X115.8 Y106.744 I-0.2 J0 F1000
N17980 G1 X115.6
N17990 G18 G3 X115.4 Z-0.7 I0 K0.2
N18000 G0 Z2
N18010 Y106.344
N18020 G1 Z0.2 F60
N18030 Z-0.8
N18040 G2 X115.6 Z-1 I0.2 K0
N18050 G1 X115.8
N18060 G17 G3 X116 Y106.544 I0 J0.2
N18070 G1 Y153.544 F300
N18080 G3 X114 Y155.544 I-2 J0
N18090 G1 X94
N18100 G3 X92 Y153.544 I0 J-2
N18110 G1 Y92.544
N18120 G3 X93 Y91.544 I1 J0
N18130 G1 X98.804
N18140 G3 X99.67 Y92.044 I0 J1
N18150 G2 X108.33 I4.33 J-2.5
N18160 G3 X109.196 Y91.544 I0.866 J0.5
N18170 G1 X115
N18180 G3 X116 Y92.544 I0 J1
N18190 G1 Y106.544
N18200 G3 X115.8 Y106.744 I-0.2 J0 F1000
N18210 G1 X115.6
N18220 G18 G3 X115.4 Z-0.8 I0 K0.2
N18230 G0 Z2
N18240 Y106.344
N18250 G1 Z0.1 F60
N18260 Z-0.9
N18270 G2 X115.6 Z-1.1 I0.2 K0
N18280 G1 X115.8
N18290 G17 G3 X116 Y106.544 I0 J0.2
N18300 G1 Y123.009 F300
N18310 Y123.209 Z-1
N18320 Y125.209
N18330 Y125.409 Z-1.1 F60
N18340 Y153.544 F300
N18350 G3 X114 Y155.544 I-2 J0
N18360 G1 X94
N18370 G3 X92 Y153.544 I0 J-2
N18380 G1 Y125.72
N18390 Y125.52 Z-1
N18400 Y123.52
N18410 Y123.32 Z-1.1 F60
N18420 Y92.544 F300
N18430 G3 X93 Y91.544 I1 J0
N18440 G1 X98.804
N18450 G3 X99.67 Y92.044 I0 J1
N18460 G2 X108.33 I4.33 J-2.5
N18470 G3 X109.196 Y91.544 I0.866 J0.5
N18480 G1 X115
N18490 G3 X116 Y92.544 I0 J1
N18500 G1 Y106.544
N18510 G3 X115.8 Y106.744 I-0.2 J0 F1000
N18520 G1 X115.6
N18530 G18 G3 X115.4 Z-0.9 I0 K0.2
N18540 G0 Z2
N18550 Y106.344
N18560 G1 Z0 F60
N18570 Z-1
N18580 G2 X115.6 Z-1.2 I0.2 K0
N18590 G1 X115.8
N18600 G17 G3 X116 Y106.544 I0 J0.2
N18610 G1 Y122.809 F300
N18620 Y123.209 Z-1
N18630 Y125.209
N18640 Y125.609 Z-1.2 F60
N18650 Y153.544 F300
N18660 G3 X114 Y155.544 I-2 J0
N18670 G1 X94
N18680 G3 X92 Y153.544 I0 J-2
N18690 G1 Y125.92
N18700 Y125.52 Z-1
N18710 Y123.52
N18720 Y123.12 Z-1.2 F60
N18730 Y92.544 F300
N18740 G3 X93 Y91.544 I1 J0
N18750 G1 X98.804
N18760 G3 X99.67 Y92.044 I0 J1
N18770 G2 X108.33 I4.33 J-2.5
N18780 G3 X109.196 Y91.544 I0.866 J0.5
N18790 G1 X115
N18800 G3 X116 Y92.544 I0 J1
N18810 G1 Y106.544
N18820 G3 X115.8 Y106.744 I-0.2 J0 F1000
N18830 G1 X115.6
N18840 G18 G3 X115.4 Z-1 I0 K0.2
N18850 G0 Z2
N18860 Y106.344
N18870 G1 Z-0.1 F60
N18880 Z-1.1
N18890 G2 X115.6 Z-1.3 I0.2 K0
N18900 G1 X115.8
N18910 G17 G3 X116 Y106.544 I0 J0.2
N18920 G1 Y122.609 F300
N18930 Y123.209 Z-1
N18940 Y125.209
N18950 Y125.809 Z-1.3 F60
N18960 Y153.544 F300
N18970 G3 X114 Y155.544 I-2 J0
N18980 G1 X94
N18990 G3 X92 Y153.544 I0 J-2
N19000 G1 Y126.12
N19010 Y125.52 Z-1
N19020 Y123.52
N19030 Y122.92 Z-1.3 F60
N19040 Y92.544 F300
N19050 G3 X93 Y91.544 I1 J0
N19060 G1 X98.804
N19070 G3 X99.67 Y92.044 I0 J1
N19080 G2 X108.33 I4.33 J-2.5
N19090 G3 X109.196 Y91.544 I0.866 J0.5
N19100 G1 X115
N19110 G3 X116 Y92.544 I0 J1
N19120 G1 Y106.544
N19130 G3 X115.8 Y106.744 I-0.2 J0 F1000
N19140 G1 X115.6
N19150 G18 G3 X115.4 Z-1.1 I0 K0.2
N19160 G0 Z2
N19170 Y106.344
N19180 G1 Z-0.2 F60
N19190 Z-1.2
N19200 G2 X115.6 Z-1.4 I0.2 K0
N19210 G1 X115.8
N19220 G17 G3 X116 Y106.544 I0 J0.2
N19230 G1 Y122.409 F300
N19240 Y123.209 Z-1
N19250 Y125.209
N19260 Y126.009 Z-1.4 F60
N19270 Y153.544 F300
N19280 G3 X114 Y155.544 I-2 J0
N19290 G1 X94
N19300 G3 X92 Y153.544 I0 J-2
N19310 G1 Y126.32
N19320 Y125.52 Z-1
N19330 Y123.52
N19340 Y122.72 Z-1.4 F60
N19350 Y92.544 F300
N19360 G3 X93 Y91.544 I1 J0
N19370 G1 X98.804
N19380 G3 X99.67 Y92.044 I0 J1
N19390 G2 X108.33 I4.33 J-2.5
N19400 G3 X109.196 Y91.544 I0.866 J0.5
N19410 G1 X115
N19420 G3 X116 Y92.544 I0 J1
N19430 G1 Y106.544
N19440 G3 X115.8 Y106.744 I-0.2 J0 F1000
N19450 G1 X115.6
N19460 G18 G3 X115.4 Z-1.2 I0 K0.2
N19470 G0 Z2
N19480 Y106.344
N19490 G1 Z-0.3 F60
N19500 Z-1.3
N19510 G2 X115.6 Z-1.5 I0.2 K0
N19520 G1 X115.8
N19530 G17 G3 X116 Y106.544 I0 J0.2
N19540 G1 Y122.209 F300
N19550 Y123.209 Z-1
N19560 Y125.209
N19570 Y126.209 Z-1.5 F60
N19580 Y153.544 F300
N19590 G3 X114 Y155.544 I-2 J0
N19600 G1 X94
N19610 G3 X92 Y153.544 I0 J-2
N19620 G1 Y126.52
N19630 Y125.52 Z-1
N19640 Y123.52
N19650 Y122.52 Z-1.5 F60
N19660 Y92.544 F300
N19670 G3 X93 Y91.544 I1 J0
N19680 G1 X98.804
N19690 G3 X99.67 Y92.044 I0 J1
N19700 G2 X108.33 I4.33 J-2.5
N19710 G3 X109.196 Y91.544 I0.866 J0.5
N19720 G1 X115
N19730 G3 X116 Y92.544 I0 J1
N19740 G1 Y106.544
N19750 G3 X115.8 Y106.744 I-0.2 J0 F1000
N19760 G1 X115.6
N19770 G18 G3 X115.4 Z-1.3 I0 K0.2
N19780 G0 Z2
N19790 X179.603 Y73.354
N19800 G1 Z1.1 F60
N19810 Z0.1
N19820 X179.606 Y73.348 Z0.048
N19830 X179.614 Y73.33 Z0
N19840 X179.627 Y73.301 Z-0.041
N19850 X179.644 Y73.263 Z-0.073
N19860 X179.663 Y73.219 Z-0.093
N19870 X179.684 Y73.172 Z-0.1
N19880 X179.766 Y72.989
N19890 G17 G3 X180.03 Y72.888 I0.183 J0.081
N19900 G2 X185.6 Y71.856 I2.035 J-4.567 F300
N19910 G1 X192.859 Y64.597
N19920 G3 X194.49 Y64.92 I0.707 J0.707
N19930 X201.367 Y91.431 I-90.49 J37.624
N19940 X201.979 Y100.524 I-97.367 J11.118
N19950 Y104.565 I-97.979 J2.021
N19960 X201.365 Y113.676 I-97.979 J-2.024
N19970 X201.145 Y115.466 I-97.369 J-11.101
N19980 X199.653 Y116.201 I-0.992 J-0.132
N19990 G1 X190.762 Y111.068
N20000 G2 X183.932 Y112.898 I-2.5 J4.33
N20010 G1 X178.432 Y122.424
N20020 G3 X177.066 Y122.79 I-0.866 J-0.5
N20030 G1 X161.934 Y114.053
N20040 G2 X160.434 Y113.651 I-1.5 J2.598
N20050 G1 X145.969
N20060 X145.891 Y113.654
N20070 X128.752 Y113.656
N20080 G3 X125.101 Y111.292 I-0.001 J-4
N20090 G1 X123.005 Y90.66
N20100 X123 Y90.56
N20110 Y90.559
N20120 Y80.222
N20130 G3 X123.293 Y79.515 I1 J0
N20140 G1 X139.184 Y63.624
N20150 G3 X144.841 I2.828 J2.828
N20160 G1 X155.195 Y73.977
N20170 G2 X159.437 I2.121 J-2.121
N20180 G1 X169.337 Y64.078
N20190 G3 X170.751 I0.707 J0.707
N20200 G1 X178.529 Y71.856
N20210 G2 X180.03 Y72.888 I3.536 J-3.536
N20220 G3 X180.131 Y73.152 I-0.081 J0.183 F1000
N20230 G1 X180.05 Y73.335
N20240 X180.029 Y73.382 Z-0.093
N20250 X180.009 Y73.426 Z-0.073
N20260 X179.992 Y73.464 Z-0.041
N20270 X179.979 Y73.493 Z0
N20280 X179.971 Y73.511 Z0.048
N20290 X179.968 Y73.517 Z0.1
N20300 G0 Z2
N20310 X179.603 Y73.354
N20320 G1 Z1 F60
N20330 Z0
N20340 X179.606 Y73.348 Z-0.052
N20350 X179.614 Y73.33 Z-0.1
N20360 X179.627 Y73.301 Z-0.141
N20370 X179.644 Y73.263 Z-0.173
N20380 X179.663 Y73.219 Z-0.193
N20390 X179.684 Y73.172 Z-0.2
N20400 X179.766 Y72.989
N20410 G3 X180.03 Y72.888 I0.183 J0.081
N20420 G2 X185.6 Y71.856 I2.035 J-4.567 F300
N20430 G1 X192.859 Y64.597
N20440 G3 X194.49 Y64.92 I0.707 J0.707
N20450 X201.367 Y91.431 I-90.49 J37.624
N20460 X201.979 Y100.524 I-97.367 J11.118
N20470 Y104.565 I-97.979 J2.021
N20480 X201.365 Y113.676 I-97.979 J-2.024
N20490 X201.145 Y115.466 I-97.369 J-11.101
N20500 X199.653 Y116.201 I-0.992 J-0.132
N20510 G1 X190.762 Y111.068
N20520 G2 X183.932 Y112.898 I-2.5 J4.33
N20530 G1 X178.432 Y122.424
N20540 G3 X177.066 Y122.79 I-0.866 J-0.5
N20550 G1 X161.934 Y114.053
N20560 G2 X160.434 Y113.651 I-1.5 J2.598
N20570 G1 X145.969
N20580 X145.891 Y113.654
N20590 X128.752 Y113.656
N20600 G3 X125.101 Y111.292 I-0.001 J-4
N20610 G1 X123.005 Y90.66
N20620 X123 Y90.56
N20630 Y90.559
N20640 Y80.222
N20650 G3 X123.293 Y79.515 I1 J0
N20660 G1 X139.184 Y63.624
N20670 G3 X144.841 I2.828 J2.828
N20680 G1 X155.195 Y73.977
N20690 G2 X159.437 I2.121 J-2.121
N20700 G1 X169.337 Y64.078
N20710 G3 X170.751 I0.707 J0.707
N20720 G1 X178.529 Y71.856
N20730 G2 X180.03 Y72.888 I3.536 J-3.536
N20740 G3 X180.131 Y73.152 I-0.081 J0.183 F1000
N20750 G1 X180.05 Y73.335
N20760 X180.029 Y73.382 Z-0.193
N20770 X180.009 Y73.426 Z-0.173
N20780 X179.992 Y73.464 Z-0.141
N20790 X179.979 Y73.493 Z-0.1
N20800 X179.971 Y73.511 Z-0.052
N20810 X179.968 Y73.517 Z0
N20820 G0 Z2
N20830 X179.603 Y73.354
N20840 G1 Z0.9 F60
N20850 Z-0.1
N20860 X179.606 Y73.348 Z-0.152
N20870 X179.614 Y73.33 Z-0.2
N20880 X179.627 Y73.301 Z-0.241
N20890 X179.644 Y73.263 Z-0.273
N20900 X179.663 Y73.219 Z-0.293
N20910 X179.684 Y73.172 Z-0.3
N20920 X179.766 Y72.989
N20930 G3 X180.03 Y72.888 I0.183 J0.081
N20940 G2 X185.6 Y71.856 I2.035 J-4.567 F300
N20950 G1 X192.859 Y64.597
N20960 G3 X194.49 Y64.92 I0.707 J0.707
N20970 X201.367 Y91.431 I-90.49 J37.624
N20980 X201.979 Y100.524 I-97.367 J11.118
N20990 Y104.565 I-97.979 J2.021
N21000 X201.365 Y113.676 I-97.979 J-2.024
N21010 X201.145 Y115.466 I-97.369 J-11.101
N21020 X199.653 Y116.201 I-0.992 J-0.132
N21030 G1 X190.762 Y111.068
N21040 G2 X183.932 Y112.898 I-2.5 J4.33
N21050 G1 X178.432 Y122.424
N21060 G3 X177.066 Y122.79 I-0.866 J-0.5
N21070 G1 X161.934 Y114.053
N21080 G2 X160.434 Y113.651 I-1.5 J2.598
N21090 G1 X145.969
N21100 X145.891 Y113.654
N21110 X128.752 Y113.656
N21120 G3 X125.101 Y111.292 I-0.001 J-4
N21130 G1 X123.005 Y90.66
N21140 X123 Y90.56
N21150 Y90.559
N21160 Y80.222
N21170 G3 X123.293 Y79.515 I1 J0
N21180 G1 X139.184 Y63.624
N21190 G3 X144.841 I2.828 J2.828
N21200 G1 X155.195 Y73.977
N21210 G2 X159.437 I2.121 J-2.121
N21220 G1 X169.337 Y64.078
N21230 G3 X170.751 I0.707 J0.707
N21240 G1 X178.529 Y71.856
N21250 G2 X180.03 Y72.888 I3.536 J-3.536
N21260 G3 X180.131 Y73.152 I-0.081 J0.183 F1000
N21270 G1 X180.05 Y73.335
N21280 X180.029 Y73.382 Z-0.293
N21290 X180.009 Y73.426 Z-0.273
N21300 X179.992 Y73.464 Z-0.241
N21310 X179.979 Y73.493 Z-0.2
N21320 X179.971 Y73.511 Z-0.152
N21330 X179.968 Y73.517 Z-0.1
N21340 G0 Z2
N21350 X179.603 Y73.354
N21360 G1 Z0.8 F60
N21370 Z-0.2
N21380 X179.606 Y73.348 Z-0.252
N21390 X179.614 Y73.33 Z-0.3
N21400 X179.627 Y73.301 Z-0.341
N21410 X179.644 Y73.263 Z-0.373
N21420 X179.663 Y73.219 Z-0.393
N21430 X179.684 Y73.172 Z-0.4
N21440 X179.766 Y72.989
N21450 G3 X180.03 Y72.888 I0.183 J0.081
N21460 G2 X185.6 Y71.856 I2.035 J-4.567 F300
N21470 G1 X192.859 Y64.597
N21480 G3 X194.49 Y64.92 I0.707 J0.707
N21490 X201.367 Y91.431 I-90.49 J37.624
N21500 X201.979 Y100.524 I-97.367 J11.118
N21510 Y104.565 I-97.979 J2.021
N21520 X201.365 Y113.676 I-97.979 J-2.024
N21530 X201.145 Y115.466 I-97.369 J-11.101
N21540 X199.653 Y116.201 I-0.992 J-0.132
N21550 G1 X190.762 Y111.068
N21560 G2 X183.932 Y112.898 I-2.5 J4.33
N21570 G1 X178.432 Y122.424
N21580 G3 X177.066 Y122.79 I-0.866 J-0.5
N21590 G1 X161.934 Y114.053
N21600 G2 X160.434 Y113.651 I-1.5 J2.598
N21610 G1 X145.969
N21620 X145.891 Y113.654
N21630 X128.752 Y113.656
N21640 G3 X125.101 Y111.292 I-0.001 J-4
N21650 G1 X123.005 Y90.66
N21660 X123 Y90.56
N21670 Y90.559
N21680 Y80.222
N21690 G3 X123.293 Y79.515 I1 J0
N21700 G1 X139.184 Y63.624
N21710 G3 X144.841 I2.828 J2.828
N21720 G1 X155.195 Y73.977
N21730 G2 X159.437 I2.121 J-2.121
N21740 G1 X169.337 Y64.078
N21750 G3 X170.751 I0.707 J0.707
N21760 G1 X178.529 Y71.856
N21770 G2 X180.03 Y72.888 I3.536 J-3.536
N21780 G3 X180.131 Y73.152 I-0.081 J0.183 F1000
N21790 G1 X180.05 Y73.335
N21800 X180.029 Y73.382 Z-0.393
N21810 X180.009 Y73.426 Z-0.373
N21820 X179.992 Y73.464 Z-0.341
N21830 X179.979 Y73.493 Z-0.3
N21840 X179.971 Y73.511 Z-0.252
N21850 X179.968 Y73.517 Z-0.2
N21860 G0 Z2
N21870 X179.603 Y73.354
N21880 G1 Z0.7 F60
N21890 Z-0.3
N21900 X179.606 Y73.348 Z-0.352
N21910 X179.614 Y73.33 Z-0.4
N21920 X179.627 Y73.301 Z-0.441
N21930 X179.644 Y73.263 Z-0.473
N21940 X179.663 Y73.219 Z-0.493
N21950 X179.684 Y73.172 Z-0.5
N21960 X179.766 Y72.989
N21970 G3 X180.03 Y72.888 I0.183 J0.081
N21980 G2 X185.6 Y71.856 I2.035 J-4.567 F300
N21990 G1 X192.859 Y64.597
N22000 G3 X194.49 Y64.92 I0.707 J0.707
N22010 X201.367 Y91.431 I-90.49 J37.624
N22020 X201.979 Y100.524 I-97.367 J11.118
N22030 Y104.565 I-97.979 J2.021
N22040 X201.365 Y113.676 I-97.979 J-2.024
N22050 X201.145 Y115.466 I-97.369 J-11.101
N22060 X199.653 Y116.201 I-0.992 J-0.132
N22070 G1 X190.762 Y111.068
N22080 G2 X183.932 Y112.898 I-2.5 J4.33
N22090 G1 X178.432 Y122.424
N22100 G3 X177.066 Y122.79 I-0.866 J-0.5
N22110 G1 X161.934 Y114.053
N22120 G2 X160.434 Y113.651 I-1.5 J2.598
N22130 G1 X145.969
N22140 X145.891 Y113.654
N22150 X128.752 Y113.656
N22160 G3 X125.101 Y111.292 I-0.001 J-4
N22170 G1 X123.005 Y90.66
N22180 X123 Y90.56
N22190 Y90.559
N22200 Y80.222
N22210 G3 X123.293 Y79.515 I1 J0
N22220 G1 X139.184 Y63.624
N22230 G3 X144.841 I2.828 J2.828
N22240 G1 X155.195 Y73.977
N22250 G2 X159.437 I2.121 J-2.121
N22260 G1 X169.337 Y64.078
N22270 G3 X170.751 I0.707 J0.707
N22280 G1 X178.529 Y71.856
N22290 G2 X180.03 Y72.888 I3.536 J-3.536
N22300 G3 X180.131 Y73.152 I-0.081 J0.183 F1000
N22310 G1 X180.05 Y73.335
N22320 X180.029 Y73.382 Z-0.493
N22330 X180.009 Y73.426 Z-0.473
N22340 X179.992 Y73.464 Z-0.441
N22350 X179.979 Y73.493 Z-0.4
N22360 X179.971 Y73.511 Z-0.352
N22370 X179.968 Y73.517 Z-0.3
N22380 G0 Z2
N22390 X179.603 Y73.354
N22400 G1 Z0.6 F60
N22410 Z-0.4
N22420 X179.606 Y73.348 Z-0.452
N22430 X179.614 Y73.33 Z-0.5
N22440 X179.627 Y73.301 Z-0.541
N22450 X179.644 Y73.263 Z-0.573
N22460 X179.663 Y73.219 Z-0.593
N22470 X179.684 Y73.172 Z-0.6
N22480 X179.766 Y72.989
N22490 G3 X180.03 Y72.888 I0.183 J0.081
N22500 G2 X185.6 Y71.856 I2.035 J-4.567 F300
N22510 G1 X192.859 Y64.597
N22520 G3 X194.49 Y64.92 I0.707 J0.707
N22530 X201.367 Y91.431 I-90.49 J37.624
N22540 X201.979 Y100.524 I-97.367 J11.118
N22550 Y104.565 I-97.979 J2.021
N22560 X201.365 Y113.676 I-97.979 J-2.024
N22570 X201.145 Y115.466 I-97.369 J-11.101
N22580 X199.653 Y116.201 I-0.992 J-0.132
N22590 G1 X190.762 Y111.068
N22600 G2 X183.932 Y112.898 I-2.5 J4.33
N22610 G1 X178.432 Y122.424
N22620 G3 X177.066 Y122.79 I-0.866 J-0.5
N22630 G1 X161.934 Y114.053
N22640 G2 X160.434 Y113.651 I-1.5 J2.598
N22650 G1 X145.969
N22660 X145.891 Y113.654
N22670 X128.752 Y113.656
N22680 G3 X125.101 Y111.292 I-0.001 J-4
N22690 G1 X123.005 Y90.66
N22700 X123 Y90.56
N22710 Y90.559
N22720 Y80.222
N22730 G3 X123.293 Y79.515 I1 J0
N22740 G1 X139.184 Y63.624
N22750 G3 X144.841 I2.828 J2.828
N22760 G1 X155.195 Y73.977
N22770 G2 X159.437 I2.121 J-2.121
N22780 G1 X169.337 Y64.078
N22790 G3 X170.751 I0.707 J0.707
N22800 G1 X178.529 Y71.856
N22810 G2 X180.03 Y72.888 I3.536 J-3.536
N22820 G3 X180.131 Y73.152 I-0.081 J0.183 F1000
N22830 G1 X180.05 Y73.335
N22840 X180.029 Y73.382 Z-0.593
N22850 X180.009 Y73.426 Z-0.573
N22860 X179.992 Y73.464 Z-0.541
N22870 X179.979 Y73.493 Z-0.5
N22880 X179.971 Y73.511 Z-0.452
N22890 X179.968 Y73.517 Z-0.4
N22900 G0 Z2
N22910 X179.603 Y73.354
N22920 G1 Z0.5 F60
N22930 Z-0.5
N22940 X179.606 Y73.348 Z-0.552
N22950 X179.614 Y73.33 Z-0.6
N22960 X179.627 Y73.301 Z-0.641
N22970 X179.644 Y73.263 Z-0.673
N22980 X179.663 Y73.219 Z-0.693
N22990 X179.684 Y73.172 Z-0.7
N23000 X179.766 Y72.989
N23010 G3 X180.03 Y72.888 I0.183 J0.081
N23020 G2 X185.6 Y71.856 I2.035 J-4.567 F300
N23030 G1 X192.859 Y64.597
N23040 G3 X194.49 Y64.92 I0.707 J0.707
N23050 X201.367 Y91.431 I-90.49 J37.624
N23060 X201.979 Y100.524 I-97.367 J11.118
N23070 Y104.565 I-97.979 J2.021
N23080 X201.365 Y113.676 I-97.979 J-2.024
N23090 X201.145 Y115.466 I-97.369 J-11.101
N23100 X199.653 Y116.201 I-0.992 J-0.132
N23110 G1 X190.762 Y111.068
N23120 G2 X183.932 Y112.898 I-2.5 J4.33
N23130 G1 X178.432 Y122.424
N23140 G3 X177.066 Y122.79 I-0.866 J-0.5
N23150 G1 X161.934 Y114.053
N23160 G2 X160.434 Y113.651 I-1.5 J2.598
N23170 G1 X145.969
N23180 X145.891 Y113.654
N23190 X128.752 Y113.656
N23200 G3 X125.101 Y111.292 I-0.001 J-4
N23210 G1 X123.005 Y90.66
N23220 X123 Y90.56
N23230 Y90.559
N23240 Y80.222
N23250 G3 X123.293 Y79.515 I1 J0
N23260 G1 X139.184 Y63.624
N23270 G3 X144.841 I2.828 J2.828
N23280 G1 X155.195 Y73.977
N23290 G2 X159.437 I2.121 J-2.121
N23300 G1 X169.337 Y64.078
N23310 G3 X170.751 I0.707 J0.707
N23320 G1 X178.529 Y71.856
N23330 G2 X180.03 Y72.888 I3.536 J-3.536
N23340 G3 X180.131 Y73.152 I-0.081 J0.183 F1000
N23350 G1 X180.05 Y73.335
N23360 X180.029 Y73.382 Z-0.693
N23370 X180.009 Y73.426 Z-0.673
N23380 X179.992 Y73.464 Z-0.641
N23390 X179.979 Y73.493 Z-0.6
N23400 X179.971 Y73.511 Z-0.552
N23410 X179.968 Y73.517 Z-0.5
N23420 G0 Z2
N23430 X179.603 Y73.354
N23440 G1 Z0.4 F60
N23450 Z-0.6
N23460 X179.606 Y73.348 Z-0.652
N23470 X179.614 Y73.33 Z-0.7
N23480 X179.627 Y73.301 Z-0.741
N23490 X179.644 Y73.263 Z-0.773
N23500 X179.663 Y73.219 Z-0.793
N23510 X179.684 Y73.172 Z-0.8
N23520 X179.766 Y72.989
N23530 G3 X180.03 Y72.888 I0.183 J0.081
N23540 G2 X185.6 Y71.856 I2.035 J-4.567 F300
N23550 G1 X192.859 Y64.597
N23560 G3 X194.49 Y64.92 I0.707 J0.707
N23570 X201.367 Y91.431 I-90.49 J37.624
N23580 X201.979 Y100.524 I-97.367 J11.118
N23590 Y104.565 I-97.979 J2.021
N23600 X201.365 Y113.676 I-97.979 J-2.024
N23610 X201.145 Y115.466 I-97.369 J-11.101
N23620 X199.653 Y116.201 I-0.992 J-0.132
N23630 G1 X190.762 Y111.068
N23640 G2 X183.932 Y112.898 I-2.5 J4.33
N23650 G1 X178.432 Y122.424
N23660 G3 X177.066 Y122.79 I-0.866 J-0.5
N23670 G1 X161.934 Y114.053
N23680 G2 X160.434 Y113.651 I-1.5 J2.598
N23690 G1 X145.969
N23700 X145.891 Y113.654
N23710 X128.752 Y113.656
N23720 G3 X125.101 Y111.292 I-0.001 J-4
N23730 G1 X123.005 Y90.66
N23740 X123 Y90.56
N23750 Y90.559
N23760 Y80.222
N23770 G3 X123.293 Y79.515 I1 J0
N23780 G1 X139.184 Y63.624
N23790 G3 X144.841 I2.828 J2.828
N23800 G1 X155.195 Y73.977
N23810 G2 X159.437 I2.121 J-2.121
N23820 G1 X169.337 Y64.078
N23830 G3 X170.751 I0.707 J0.707
N23840 G1 X178.529 Y71.856
N23850 G2 X180.03 Y72.888 I3.536 J-3.536
N23860 G3 X180.131 Y73.152 I-0.081 J0.183 F1000
N23870 G1 X180.05 Y73.335
N23880 X180.029 Y73.382 Z-0.793
N23890 X180.009 Y73.426 Z-0.773
N23900 X179.992 Y73.464 Z-0.741
N23910 X179.979 Y73.493 Z-0.7
N23920 X179.971 Y73.511 Z-0.652
N23930 X179.968 Y73.517 Z-0.6
N23940 G0 Z2
N23950 X179.603 Y73.354
N23960 G1 Z0.3 F60
N23970 Z-0.7
N23980 X179.606 Y73.348 Z-0.752
N23990 X179.614 Y73.33 Z-0.8
N24000 X179.627 Y73.301 Z-0.841
N24010 X179.644 Y73.263 Z-0.873
N24020 X179.663 Y73.219 Z-0.893
N24030 X179.684 Y73.172 Z-0.9
N24040 X179.766 Y72.989
N24050 G3 X180.03 Y72.888 I0.183 J0.081
N24060 G2 X185.6 Y71.856 I2.035 J-4.567 F300
N24070 G1 X192.859 Y64.597
N24080 G3 X194.49 Y64.92 I0.707 J0.707
N24090 X201.367 Y91.431 I-90.49 J37.624
N24100 X201.979 Y100.524 I-97.367 J11.118
N24110 Y104.565 I-97.979 J2.021
N24120 X201.365 Y113.676 I-97.979 J-2.024
N24130 X201.145 Y115.466 I-97.369 J-11.101
N24140 X199.653 Y116.201 I-0.992 J-0.132
N24150 G1 X190.762 Y111.068
N24160 G2 X183.932 Y112.898 I-2.5 J4.33
N24170 G1 X178.432 Y122.424
N24180 G3 X177.066 Y122.79 I-0.866 J-0.5
N24190 G1 X161.934 Y114.053
N24200 G2 X160.434 Y113.651 I-1.5 J2.598
N24210 G1 X145.969
N24220 X145.891 Y113.654
N24230 X128.752 Y113.656
N24240 G3 X125.101 Y111.292 I-0.001 J-4
N24250 G1 X123.005 Y90.66
N24260 X123 Y90.56
N24270 Y90.559
N24280 Y80.222
N24290 G3 X123.293 Y79.515 I1 J0
N24300 G1 X139.184 Y63.624
N24310 G3 X144.841 I2.828 J2.828
N24320 G1 X155.195 Y73.977
N24330 G2 X159.437 I2.121 J-2.121
N24340 G1 X169.337 Y64.078
N24350 G3 X170.751 I0.707 J0.707
N24360 G1 X178.529 Y71.856
N24370 G2 X180.03 Y72.888 I3.536 J-3.536
N24380 G3 X180.131 Y73.152 I-0.081 J0.183 F1000
N24390 G1 X180.05 Y73.335
N24400 X180.029 Y73.382 Z-0.893
N24410 X180.009 Y73.426 Z-0.873
N24420 X179.992 Y73.464 Z-0.841
N24430 X179.979 Y73.493 Z-0.8
N24440 X179.971 Y73.511 Z-0.752
N24450 X179.968 Y73.517 Z-0.7
N24460 G0 Z2
N24470 X179.603 Y73.354
N24480 G1 Z0.2 F60
N24490 Z-0.8
N24500 X179.606 Y73.348 Z-0.852
N24510 X179.614 Y73.33 Z-0.9
N24520 X179.627 Y73.301 Z-0.941
N24530 X179.644 Y73.263 Z-0.973
N24540 X179.663 Y73.219 Z-0.993
N24550 X179.684 Y73.172 Z-1
N24560 X179.766 Y72.989
N24570 G3 X180.03 Y72.888 I0.183 J0.081
N24580 G2 X185.6 Y71.856 I2.035 J-4.567 F300
N24590 G1 X192.859 Y64.597
N24600 G3 X194.49 Y64.92 I0.707 J0.707
N24610 X201.367 Y91.431 I-90.49 J37.624
N24620 X201.979 Y100.524 I-97.367 J11.118
N24630 Y104.565 I-97.979 J2.021
N24640 X201.365 Y113.676 I-97.979 J-2.024
N24650 X201.145 Y115.466 I-97.369 J-11.101
N24660 X199.653 Y116.201 I-0.992 J-0.132
N24670 G1 X190.762 Y111.068
N24680 G2 X183.932 Y112.898 I-2.5 J4.33
N24690 G1 X178.432 Y122.424
N24700 G3 X177.066 Y122.79 I-0.866 J-0.5
N24710 G1 X161.934 Y114.053
N24720 G2 X160.434 Y113.651 I-1.5 J2.598
N24730 G1 X145.969
N24740 X145.891 Y113.654
N24750 X128.752 Y113.656
N24760 G3 X125.101 Y111.292 I-0.001 J-4
N24770 G1 X123.005 Y90.66
N24780 X123 Y90.56
N24790 Y90.559
N24800 Y80.222
N24810 G3 X123.293 Y79.515 I1 J0
N24820 G1 X139.184 Y63.624
N24830 G3 X144.841 I2.828 J2.828
N24840 G1 X155.195 Y73.977
N24850 G2 X159.437 I2.121 J-2.121
N24860 G1 X169.337 Y64.078
N24870 G3 X170.751 I0.707 J0.707
N24880 G1 X178.529 Y71.856
N24890 G2 X180.03 Y72.888 I3.536 J-3.536
N24900 G3 X180.131 Y73.152 I-0.081 J0.183 F1000
N24910 G1 X180.05 Y73.335
N24920 X180.029 Y73.382 Z-0.993
N24930 X180.009 Y73.426 Z-0.973
N24940 X179.992 Y73.464 Z-0.941
N24950 X179.979 Y73.493 Z-0.9
N24960 X179.971 Y73.511 Z-0.852
N24970 X179.968 Y73.517 Z-0.8
N24980 G0 Z2
N24990 X179.603 Y73.354
N25000 G1 Z0.1 F60
N25010 Z-0.9
N25020 X179.606 Y73.348 Z-0.952
N25030 X179.614 Y73.33 Z-1
N25040 X179.627 Y73.301 Z-1.041
N25050 X179.644 Y73.263 Z-1.073
N25060 X179.663 Y73.219 Z-1.093
N25070 X179.684 Y73.172 Z-1.1
N25080 X179.766 Y72.989
N25090 G3 X180.03 Y72.888 I0.183 J0.081
N25100 G2 X185.6 Y71.856 I2.035 J-4.567 F300
N25110 G1 X192.859 Y64.597
N25120 G3 X194.49 Y64.92 I0.707 J0.707
N25130 X201.224 Y90.24 I-90.49 J37.624
N25140 G1 X201.249 Y90.438 Z-1
N25150 G3 X201.367 Y91.431 I-97.249 J12.106
N25160 X201.476 Y92.425 I-97.367 J11.118
N25170 G1 X201.496 Y92.624 Z-1.1 F60
N25180 G3 X201.979 Y100.524 I-97.496 J9.925 F300
N25190 Y104.565 I-97.979 J2.021
N25200 X201.365 Y113.676 I-97.979 J-2.024
N25210 X201.145 Y115.466 I-97.369 J-11.101
N25220 X199.653 Y116.201 I-0.992 J-0.132
N25230 G1 X190.762 Y111.068
N25240 G2 X183.932 Y112.898 I-2.5 J4.33
N25250 G1 X178.432 Y122.424
N25260 G3 X177.066 Y122.79 I-0.866 J-0.5
N25270 G1 X161.934 Y114.053
N25280 G2 X160.434 Y113.651 I-1.5 J2.598
N25290 G1 X155.039
N25300 X154.839 Z-1
N25310 X152.839
N25320 X152.639 Z-1.1 F60
N25330 X145.969 F300
N25340 X145.891 Y113.654
N25350 X128.752 Y113.656
N25360 G3 X125.101 Y111.292 I-0.001 J-4
N25370 G1 X123.005 Y90.66
N25380 X123 Y90.56
N25390 Y90.559
N25400 Y86.797
N25410 Y86.596 Z-1
N25420 Y84.596
N25430 Y84.396 Z-1.1 F60
N25440 Y80.222 F300
N25450 G3 X123.293 Y79.515 I1 J0
N25460 G1 X139.184 Y63.624
N25470 G3 X144.841 I2.828 J2.828
N25480 G1 X155.195 Y73.977
N25490 G2 X159.437 I2.121 J-2.121
N25500 G1 X169.337 Y64.078
N25510 G3 X170.751 I0.707 J0.707
N25520 G1 X178.529 Y71.856
N25530 G2 X180.03 Y72.888 I3.536 J-3.536
N25540 G3 X180.131 Y73.152 I-0.081 J0.183 F1000
N25550 G1 X180.05 Y73.335
N25560 X180.029 Y73.382 Z-1.093
N25570 X180.009 Y73.426 Z-1.073
N25580 X179.992 Y73.464 Z-1.041
N25590 X179.979 Y73.493 Z-1
N25600 X179.971 Y73.511 Z-0.952
N25610 X179.968 Y73.517 Z-0.9
N25620 G0 Z2
N25630 X179.603 Y73.354
N25640 G1 Z0 F60
N25650 Z-1
N25660 X179.606 Y73.348 Z-1.052
N25670 X179.614 Y73.33 Z-1.1
N25680 X179.627 Y73.301 Z-1.141
N25690 X179.644 Y73.263 Z-1.173
N25700 X179.663 Y73.219 Z-1.193
N25710 X179.684 Y73.172 Z-1.2
N25720 X179.766 Y72.989
N25730 G3 X180.03 Y72.888 I0.183 J0.081
N25740 G2 X185.6 Y71.856 I2.035 J-4.567 F300
N25750 G1 X192.859 Y64.597
N25760 G3 X194.49 Y64.92 I0.707 J0.707
N25770 X201.199 Y90.041 I-90.49 J37.624
N25780 X201.249 Y90.438 Z-1 I-97.199 J12.502
N25790 X201.367 Y91.431 I-97.249 J12.106
N25800 X201.476 Y92.425 I-97.367 J11.118
N25810 X201.516 Y92.823 Z-1.2 I-97.476 J10.124 F60
N25820 X201.979 Y100.524 I-97.516 J9.726 F300
N25830 Y104.565 I-97.979 J2.021
N25840 X201.365 Y113.676 I-97.979 J-2.024
N25850 X201.145 Y115.466 I-97.369 J-11.101
N25860 X199.653 Y116.201 I-0.992 J-0.132
N25870 G1 X190.762 Y111.068
N25880 G2 X183.932 Y112.898 I-2.5 J4.33
N25890 G1 X178.432 Y122.424
N25900 G3 X177.066 Y122.79 I-0.866 J-0.5
N25910 G1 X161.934 Y114.053
N25920 G2 X160.434 Y113.651 I-1.5 J2.598
N25930 G1 X155.239
N25940 X154.839 Z-1
N25950 X152.839
N25960 X152.439 Z-1.2 F60
N25970 X145.969 F300
N25980 X145.891 Y113.654
N25990 X128.752 Y113.656
N26000 G3 X125.101 Y111.292 I-0.001 J-4
N26010 G1 X123.005 Y90.66
N26020 X123 Y90.56
N26030 Y90.559
N26040 Y86.996
N26050 Y86.596 Z-1
N26060 Y84.596
N26070 Y84.197 Z-1.2 F60
N26080 Y80.222 F300
N26090 G3 X123.293 Y79.515 I1 J0
N26100 G1 X139.184 Y63.624
N26110 G3 X144.841 I2.828 J2.828
N26120 G1 X155.195 Y73.977
N26130 G2 X159.437 I2.121 J-2.121
N26140 G1 X169.337 Y64.078
N26150 G3 X170.751 I0.707 J0.707
N26160 G1 X178.529 Y71.856
N26170 G2 X180.03 Y72.888 I3.536 J-3.536
N26180 G3 X180.131 Y73.152 I-0.081 J0.183 F1000
N26190 G1 X180.05 Y73.335
N26200 X180.029 Y73.382 Z-1.193
N26210 X180.009 Y73.426 Z-1.173
N26220 X179.992 Y73.464 Z-1.141
N26230 X179.979 Y73.493 Z-1.1
N26240 X179.971 Y73.511 Z-1.052
N26250 X179.968 Y73.517 Z-1
N26260 G0 Z2
N26270 X179.603 Y73.354
N26280 G1 Z-0.1 F60
N26290 Z-1.1
N26300 X179.606 Y73.348 Z-1.152
N26310 X179.614 Y73.33 Z-1.2
N26320 X179.627 Y73.301 Z-1.241
N26330 X179.644 Y73.263 Z-1.273
N26340 X179.663 Y73.219 Z-1.293
N26350 X179.684 Y73.172 Z-1.3
N26360 X179.766 Y72.989
N26370 G3 X180.03 Y72.888 I0.183 J0.081
N26380 G2 X185.6 Y71.856 I2.035 J-4.567 F300
N26390 G1 X192.859 Y64.597
N26400 G3 X194.49 Y64.92 I0.707 J0.707
N26410 X201.173 Y89.843 I-90.49 J37.624
N26420 X201.249 Y90.438 Z-1 I-97.173 J12.701
N26430 X201.367 Y91.431 I-97.249 J12.106
N26440 X201.476 Y92.425 I-97.367 J11.118
N26450 X201.536 Y93.022 Z-1.3 I-97.476 J10.124 F60
N26460 X201.979 Y100.524 I-97.536 J9.527 F300
N26470 Y104.565 I-97.979 J2.021
N26480 X201.365 Y113.676 I-97.979 J-2.024
N26490 X201.145 Y115.466 I-97.369 J-11.101
N26500 X199.653 Y116.201 I-0.992 J-0.132
N26510 G1 X190.762 Y111.068
N26520 G2 X183.932 Y112.898 I-2.5 J4.33
N26530 G1 X178.432 Y122.424
N26540 G3 X177.066 Y122.79 I-0.866 J-0.5
N26550 G1 X161.934 Y114.053
N26560 G2 X160.434 Y113.651 I-1.5 J2.598
N26570 G1 X155.439
N26580 X154.839 Z-1
N26590 X152.839
N26600 X152.239 Z-1.3 F60
N26610 X145.969 F300
N26620 X145.891 Y113.654
N26630 X128.752 Y113.656
N26640 G3 X125.101 Y111.292 I-0.001 J-4
N26650 G1 X123.005 Y90.66
N26660 X123 Y90.56
N26670 Y90.559
N26680 Y87.197
N26690 Y86.596 Z-1
N26700 Y84.596
N26710 Y83.996 Z-1.3 F60
N26720 Y80.222 F300
N26730 G3 X123.293 Y79.515 I1 J0
N26740 G1 X139.184 Y63.624
N26750 G3 X144.841 I2.828 J2.828
N26760 G1 X155.195 Y73.977
N26770 G2 X159.437 I2.121 J-2.121
N26780 G1 X169.337 Y64.078
N26790 G3 X170.751 I0.707 J0.707
N26800 G1 X178.529 Y71.856
N26810 G2 X180.03 Y72.888 I3.536 J-3.536
N26820 G3 X180.131 Y73.152 I-0.081 J0.183 F1000
N26830 G1 X180.05 Y73.335
N26840 X180.029 Y73.382 Z-1.293
N26850 X180.009 Y73.426 Z-1.273
N26860 X179.992 Y73.464 Z-1.241
N26870 X179.979 Y73.493 Z-1.2
N26880 X179.971 Y73.511 Z-1.152
N26890 X179.968 Y73.517 Z-1.1
N26900 G0 Z2
N26910 X179.603 Y73.354
N26920 G1 Z-0.2 F60
N26930 Z-1.2
N26940 X179.606 Y73.348 Z-1.252
N26950 X179.614 Y73.33 Z-1.3
N26960 X179.627 Y73.301 Z-1.341
N26970 X179.644 Y73.263 Z-1.373
N26980 X179.663 Y73.219 Z-1.393
N26990 X179.684 Y73.172 Z-1.4
N27000 X179.766 Y72.989
N27010 G3 X180.03 Y72.888 I0.183 J0.081
N27020 G2 X185.6 Y71.856 I2.035 J-4.567 F300
N27030 G1 X192.859 Y64.597
N27040 G3 X194.49 Y64.92 I0.707 J0.707
N27050 X201.147 Y89.644 I-90.49 J37.624
N27060 X201.249 Y90.438 Z-1 I-97.147 J12.899
N27070 X201.367 Y91.431 I-97.249 J12.106
N27080 X201.476 Y92.425 I-97.367 J11.118
N27090 X201.555 Y93.221 Z-1.4 I-97.476 J10.124 F60
N27100 X201.979 Y100.524 I-97.555 J9.328 F300
N27110 Y104.565 I-97.979 J2.021
N27120 X201.365 Y113.676 I-97.979 J-2.024
N27130 X201.145 Y115.466 I-97.369 J-11.101
N27140 X199.653 Y116.201 I-0.992 J-0.132
N27150 G1 X190.762 Y111.068
N27160 G2 X183.932 Y112.898 I-2.5 J4.33
N27170 G1 X178.432 Y122.424
N27180 G3 X177.066 Y122.79 I-0.866 J-0.5
N27190 G1 X161.934 Y114.053
N27200 G2 X160.434 Y113.651 I-1.5 J2.598
N27210 G1 X155.639
N27220 X154.839 Z-1
N27230 X152.839
N27240 X152.039 Z-1.4 F60
N27250 X145.969 F300
N27260 X145.891 Y113.654
N27270 X128.752 Y113.656
N27280 G3 X125.101 Y111.292 I-0.001 J-4
N27290 G1 X123.005 Y90.66
N27300 X123 Y90.56
N27310 Y90.559
N27320 Y87.396
N27330 Y86.596 Z-1
N27340 Y84.596
N27350 Y83.797 Z-1.4 F60
N27360 Y80.222 F300
N27370 G3 X123.293 Y79.515 I1 J0
N27380 G1 X139.184 Y63.624
N27390 G3 X144.841 I2.828 J2.828
N27400 G1 X155.195 Y73.977
N27410 G2 X159.437 I2.121 J-2.121
N27420 G1 X169.337 Y64.078
N27430 G3 X170.751 I0.707 J0.707
N27440 G1 X178.529 Y71.856
N27450 G2 X180.03 Y72.888 I3.536 J-3.536
N27460 G3 X180.131 Y73.152 I-0.081 J0.183 F1000
N27470 G1 X180.05 Y73.335
N27480 X180.029 Y73.382 Z-1.393
N27490 X180.009 Y73.426 Z-1.373
N27500 X179.992 Y73.464 Z-1.341
N27510 X179.979 Y73.493 Z-1.3
N27520 X179.971 Y73.511 Z-1.252
N27530 X179.968 Y73.517 Z-1.2
N27540 G0 Z2
N27550 X179.603 Y73.354
N27560 G1 Z-0.3 F60
N27570 Z-1.3
N27580 X179.606 Y73.348 Z-1.352
N27590 X179.614 Y73.33 Z-1.4
N27600 X179.627 Y73.301 Z-1.441
N27610 X179.644 Y73.263 Z-1.473
N27620 X179.663 Y73.219 Z-1.493
N27630 X179.684 Y73.172 Z-1.5
N27640 X179.766 Y72.989
N27650 G3 X180.03 Y72.888 I0.183 J0.081
N27660 G2 X185.6 Y71.856 I2.035 J-4.567 F300
N27670 G1 X192.859 Y64.597
N27680 G3 X194.49 Y64.92 I0.707 J0.707
N27690 X201.12 Y89.446 I-90.49 J37.624
N27700 X201.249 Y90.438 Z-1 I-97.121 J13.097
N27710 X201.367 Y91.431 I-97.249 J12.106
N27720 X201.476 Y92.425 I-97.367 J11.118
N27730 X201.574 Y93.42 Z-1.5 I-97.476 J10.124 F60
N27740 X201.979 Y100.524 I-97.574 J9.128 F300
N27750 Y104.565 I-97.979 J2.021
N27760 X201.365 Y113.676 I-97.979 J-2.024
N27770 X201.145 Y115.466 I-97.369 J-11.101
N27780 X199.653 Y116.201 I-0.992 J-0.132
N27790 G1 X190.762 Y111.068
N27800 G2 X183.932 Y112.898 I-2.5 J4.33
N27810 G1 X178.432 Y122.424
N27820 G3 X177.066 Y122.79 I-0.866 J-0.5
N27830 G1 X161.934 Y114.053
N27840 G2 X160.434 Y113.651 I-1.5 J2.598
N27850 G1 X155.839
N27860 X154.839 Z-1
N27870 X152.839
N27880 X151.839 Z-1.5 F60
N27890 X145.969 F300
N27900 X145.891 Y113.654
N27910 X128.752 Y113.656
N27920 G3 X125.101 Y111.292 I-0.001 J-4
N27930 G1 X123.005 Y90.66
N27940 X123 Y90.56
N27950 Y90.559
N27960 Y87.596
N27970 Y86.596 Z-1
N27980 Y84.596
N27990 Y83.596 Z-1.5 F60
N28000 Y80.222 F300
N28010 G3 X123.293 Y79.515 I1 J0
N28020 G1 X139.184 Y63.624
N28030 G3 X144.841 I2.828 J2.828
N28040 G1 X155.195 Y73.977
N28050 G2 X159.437 I2.121 J-2.121
N28060 G1 X169.337 Y64.078
N28070 G3 X170.751 I0.707 J0.707
N28080 G1 X178.529 Y71.856
N28090 G2 X180.03 Y72.888 I3.536 J-3.536
N28100 G3 X180.131 Y73.152 I-0.081 J0.183 F1000
N28110 G1 X180.05 Y73.335
N28120 X180.029 Y73.382 Z-1.493
N28130 X180.009 Y73.426 Z-1.473
N28140 X179.992 Y73.464 Z-1.441
N28150 X179.979 Y73.493 Z-1.4
N28160 X179.971 Y73.511 Z-1.352
N28170 X179.968 Y73.517 Z-1.3
N28180 G0 Z2
N28190 X158.871 Y53.047
N28200 G1 Z1.1 F60
N28210 Z0.1
N28220 X158.876 Y53.042 Z0.048
N28230 X158.89 Y53.028 Z0
N28240 X158.913 Y53.006 Z-0.041
N28250 X158.942 Y52.976 Z-0.073
N28260 X158.976 Y52.942 Z-0.093
N28270 X159.013 Y52.906 Z-0.1
N28280 X159.154 Y52.764
N28290 G3 X159.437 I0.141 J0.141
N28300 G1 X162.619 Y55.946 F300
N28310 G3 Y57.36 I-0.707 J0.707
N28320 G1 X156.255 Y63.724
N28330 G3 X154.841 I-0.707 J-0.707
N28340 G1 X142.82 Y51.703
N28350 G3 Y50.289 I0.707 J-0.707
N28360 G1 X149.184 Y43.925
N28370 G3 X150.598 I0.707 J0.707
N28380 G1 X159.437 Y52.764
N28390 G3 Y53.047 I-0.141 J0.141 F1000
N28400 G1 X159.296 Y53.188
N28410 X159.259 Y53.225 Z-0.093
N28420 X159.225 Y53.259 Z-0.073
N28430 X159.196 Y53.288 Z-0.041
N28440 X159.173 Y53.311 Z0
N28450 X159.159 Y53.325 Z0.048
N28460 X159.154 Y53.33 Z0.1
N28470 G0 Z2
N28480 X158.871 Y53.047
N28490 G1 Z1 F60
N28500 Z0
N28510 X158.876 Y53.042 Z-0.052
N28520 X158.89 Y53.028 Z-0.1
N28530 X158.913 Y53.006 Z-0.141
N28540 X158.942 Y52.976 Z-0.173
N28550 X158.976 Y52.942 Z-0.193
N28560 X159.013 Y52.906 Z-0.2
N28570 X159.154 Y52.764
N28580 G3 X159.437 I0.141 J0.141
N28590 G1 X162.619 Y55.946 F300
N28600 G3 Y57.36 I-0.707 J0.707
N28610 G1 X156.255 Y63.724
N28620 G3 X154.841 I-0.707 J-0.707
N28630 G1 X142.82 Y51.703
N28640 G3 Y50.289 I0.707 J-0.707
N28650 G1 X149.184 Y43.925
N28660 G3 X150.598 I0.707 J0.707
N28670 G1 X159.437 Y52.764
N28680 G3 Y53.047 I-0.141 J0.141 F1000
N28690 G1 X159.296 Y53.188
N28700 X159.259 Y53.225 Z-0.193
N28710 X159.225 Y53.259 Z-0.173
N28720 X159.196 Y53.288 Z-0.141
N28730 X159.173 Y53.311 Z-0.1
N28740 X159.159 Y53.325 Z-0.052
N28750 X159.154 Y53.33 Z0
N28760 G0 Z2
N28770 X158.871 Y53.047
N28780 G1 Z0.9 F60
N28790 Z-0.1
N28800 X158.876 Y53.042 Z-0.152
N28810 X158.89 Y53.028 Z-0.2
N28820 X158.913 Y53.006 Z-0.241
N28830 X158.942 Y52.976 Z-0.273
N28840 X158.976 Y52.942 Z-0.293
N28850 X159.013 Y52.906 Z-0.3
N28860 X159.154 Y52.764
N28870 G3 X159.437 I0.141 J0.141
N28880 G1 X162.619 Y55.946 F300
N28890 G3 Y57.36 I-0.707 J0.707
N28900 G1 X156.255 Y63.724
N28910 G3 X154.841 I-0.707 J-0.707
N28920 G1 X142.82 Y51.703
N28930 G3 Y50.289 I0.707 J-0.707
N28940 G1 X149.184 Y43.925
N28950 G3 X150.598 I0.707 J0.707
N28960 G1 X159.437 Y52.764
N28970 G3 Y53.047 I-0.141 J0.141 F1000
N28980 G1 X159.296 Y53.188
N28990 X159.259 Y53.225 Z-0.293
N29000 X159.225 Y53.259 Z-0.273
N29010 X159.196 Y53.288 Z-0.241
N29020 X159.173 Y53.311 Z-0.2
N29030 X159.159 Y53.325 Z-0.152
N29040 X159.154 Y53.33 Z-0.1
N29050 G0 Z2
N29060 X158.871 Y53.047
N29070 G1 Z0.8 F60
N29080 Z-0.2
N29090 X158.876 Y53.042 Z-0.252
N29100 X158.89 Y53.028 Z-0.3
N29110 X158.913 Y53.006 Z-0.341
N29120 X158.942 Y52.976 Z-0.373
N29130 X158.976 Y52.942 Z-0.393
N29140 X159.013 Y52.906 Z-0.4
N29150 X159.154 Y52.764
N29160 G3 X159.437 I0.141 J0.141
N29170 G1 X162.619 Y55.946 F300
N29180 G3 Y57.36 I-0.707 J0.707
N29190 G1 X156.255 Y63.724
N29200 G3 X154.841 I-0.707 J-0.707
N29210 G1 X142.82 Y51.703
N29220 G3 Y50.289 I0.707 J-0.707
N29230 G1 X149.184 Y43.925
N29240 G3 X150.598 I0.707 J0.707
N29250 G1 X159.437 Y52.764
N29260 G3 Y53.047 I-0.141 J0.141 F1000
N29270 G1 X159.296 Y53.188
N29280 X159.259 Y53.225 Z-0.393
N29290 X159.225 Y53.259 Z-0.373
N29300 X159.196 Y53.288 Z-0.341
N29310 X159.173 Y53.311 Z-0.3
N29320 X159.159 Y53.325 Z-0.252
N29330 X159.154 Y53.33 Z-0.2
N29340 G0 Z2
N29350 X158.871 Y53.047
N29360 G1 Z0.7 F60
N29370 Z-0.3
N29380 X158.876 Y53.042 Z-0.352
N29390 X158.89 Y53.028 Z-0.4
N29400 X158.913 Y53.006 Z-0.441
N29410 X158.942 Y52.976 Z-0.473
N29420 X158.976 Y52.942 Z-0.493
N29430 X159.013 Y52.906 Z-0.5
N29440 X159.154 Y52.764
N29450 G3 X159.437 I0.141 J0.141
N29460 G1 X162.619 Y55.946 F300
N29470 G3 Y57.36 I-0.707 J0.707
N29480 G1 X156.255 Y63.724
N29490 G3 X154.841 I-0.707 J-0.707
N29500 G1 X142.82 Y51.703
N29510 G3 Y50.289 I0.707 J-0.707
N29520 G1 X149.184 Y43.925
N29530 G3 X150.598 I0.707 J0.707
N29540 G1 X159.437 Y52.764
N29550 G3 Y53.047 I-0.141 J0.141 F1000
N29560 G1 X159.296 Y53.188
N29570 X159.259 Y53.225 Z-0.493
N29580 X159.225 Y53.259 Z-0.473
N29590 X159.196 Y53.288 Z-0.441
N29600 X159.173 Y53.311 Z-0.4
N29610 X159.159 Y53.325 Z-0.352
N29620 X159.154 Y53.33 Z-0.3
N29630 G0 Z2
N29640 X158.871 Y53.047
N29650 G1 Z0.6 F60
N29660 Z-0.4
N29670 X158.876 Y53.042 Z-0.452
N29680 X158.89 Y53.028 Z-0.5
N29690 X158.913 Y53.006 Z-0.541
N29700 X158.942 Y52.976 Z-0.573
N29710 X158.976 Y52.942 Z-0.593
N29720 X159.013 Y52.906 Z-0.6
N29730 X159.154 Y52.764
N29740 G3 X159.437 I0.141 J0.141
N29750 G1 X162.619 Y55.946 F300
N29760 G3 Y57.36 I-0.707 J0.707
N29770 G1 X156.255 Y63.724
N29780 G3 X154.841 I-0.707 J-0.707
N29790 G1 X142.82 Y51.703
N29800 G3 Y50.289 I0.707 J-0.707
N29810 G1 X149.184 Y43.925
N29820 G3 X150.598 I0.707 J0.707
N29830 G1 X159.437 Y52.764
N29840 G3 Y53.047 I-0.141 J0.141 F1000
N29850 G1 X159.296 Y53.188
N29860 X159.259 Y53.225 Z-0.593
N29870 X159.225 Y53.259 Z-0.573
N29880 X159.196 Y53.288 Z-0.541
N29890 X159.173 Y53.311 Z-0.5
N29900 X159.159 Y53.325 Z-0.452
N29910 X159.154 Y53.33 Z-0.4
N29920 G0 Z2
N29930 X158.871 Y53.047
N29940 G1 Z0.5 F60
N29950 Z-0.5
N29960 X158.876 Y53.042 Z-0.552
N29970 X158.89 Y53.028 Z-0.6
N29980 X158.913 Y53.006 Z-0.641
N29990 X158.942 Y52.976 Z-0.673
N30000 X158.976 Y52.942 Z-0.693
N30010 X159.013 Y52.906 Z-0.7
N30020 X159.154 Y52.764
N30030 G3 X159.437 I0.141 J0.141
N30040 G1 X162.619 Y55.946 F300
N30050 G3 Y57.36 I-0.707 J0.707
N30060 G1 X156.255 Y63.724
N30070 G3 X154.841 I-0.707 J-0.707
N30080 G1 X142.82 Y51.703
N30090 G3 Y50.289 I0.707 J-0.707
N30100 G1 X149.184 Y43.925
N30110 G3 X150.598 I0.707 J0.707
N30120 G1 X159.437 Y52.764
N30130 G3 Y53.047 I-0.141 J0.141 F1000
N30140 G1 X159.296 Y53.188
N30150 X159.259 Y53.225 Z-0.693
N30160 X159.225 Y53.259 Z-0.673
N30170 X159.196 Y53.288 Z-0.641
N30180 X159.173 Y53.311 Z-0.6
N30190 X159.159 Y53.325 Z-0.552
N30200 X159.154 Y53.33 Z-0.5
N30210 G0 Z2
N30220 X158.871 Y53.047
N30230 G1 Z0.4 F60
N30240 Z-0.6
N30250 X158.876 Y53.042 Z-0.652
N30260 X158.89 Y53.028 Z-0.7
N30270 X158.913 Y53.006 Z-0.741
N30280 X158.942 Y52.976 Z-0.773
N30290 X158.976 Y52.942 Z-0.793
N30300 X159.013 Y52.906 Z-0.8
N30310 X159.154 Y52.764
N30320 G3 X159.437 I0.141 J0.141
N30330 G1 X162.619 Y55.946 F300
N30340 G3 Y57.36 I-0.707 J0.707
N30350 G1 X156.255 Y63.724
N30360 G3 X154.841 I-0.707 J-0.707
N30370 G1 X142.82 Y51.703
N30380 G3 Y50.289 I0.707 J-0.707
N30390 G1 X149.184 Y43.925
N30400 G3 X150.598 I0.707 J0.707
N30410 G1 X159.437 Y52.764
N30420 G3 Y53.047 I-0.141 J0.141 F1000
N30430 G1 X159.296 Y53.188
N30440 X159.259 Y53.225 Z-0.793
N30450 X159.225 Y53.259 Z-0.773
N30460 X159.196 Y53.288 Z-0.741
N30470 X159.173 Y53.311 Z-0.7
N30480 X159.159 Y53.325 Z-0.652
N30490 X159.154 Y53.33 Z-0.6
N30500 G0 Z2
N30510 X158.871 Y53.047
N30520 G1 Z0.3 F60
N30530 Z-0.7
N30540 X158.876 Y53.042 Z-0.752
N30550 X158.89 Y53.028 Z-0.8
N30560 X158.913 Y53.006 Z-0.841
N30570 X158.942 Y52.976 Z-0.873
N30580 X158.976 Y52.942 Z-0.893
N30590 X159.013 Y52.906 Z-0.9
N30600 X159.154 Y52.764
N30610 G3 X159.437 I0.141 J0.141
N30620 G1 X162.619 Y55.946 F300
N30630 G3 Y57.36 I-0.707 J0.707
N30640 G1 X156.255 Y63.724
N30650 G3 X154.841 I-0.707 J-0.707
N30660 G1 X142.82 Y51.703
N30670 G3 Y50.289 I0.707 J-0.707
N30680 G1 X149.184 Y43.925
N30690 G3 X150.598 I0.707 J0.707
N30700 G1 X159.437 Y52.764
N30710 G3 Y53.047 I-0.141 J0.141 F1000
N30720 G1 X159.296 Y53.188
N30730 X159.259 Y53.225 Z-0.893
N30740 X159.225 Y53.259 Z-0.873
N30750 X159.196 Y53.288 Z-0.841
N30760 X159.173 Y53.311 Z-0.8
N30770 X159.159 Y53.325 Z-0.752
N30780 X159.154 Y53.33 Z-0.7
N30790 G0 Z2
N30800 X158.871 Y53.047
N30810 G1 Z0.2 F60
N30820 Z-0.8
N30830 X158.876 Y53.042 Z-0.852
N30840 X158.89 Y53.028 Z-0.9
N30850 X158.913 Y53.006 Z-0.941
N30860 X158.942 Y52.976 Z-0.973
N30870 X158.976 Y52.942 Z-0.993
N30880 X159.013 Y52.906 Z-1
N30890 X159.154 Y52.764
N30900 G3 X159.437 I0.141 J0.141
N30910 G1 X162.619 Y55.946 F300
N30920 G3 Y57.36 I-0.707 J0.707
N30930 G1 X156.255 Y63.724
N30940 G3 X154.841 I-0.707 J-0.707
N30950 G1 X142.82 Y51.703
N30960 G3 Y50.289 I0.707 J-0.707
N30970 G1 X149.184 Y43.925
N30980 G3 X150.598 I0.707 J0.707
N30990 G1 X159.437 Y52.764
N31000 G3 Y53.047 I-0.141 J0.141 F1000
N31010 G1 X159.296 Y53.188
N31020 X159.259 Y53.225 Z-0.993
N31030 X159.225 Y53.259 Z-0.973
N31040 X159.196 Y53.288 Z-0.941
N31050 X159.173 Y53.311 Z-0.9
N31060 X159.159 Y53.325 Z-0.852
N31070 X159.154 Y53.33 Z-0.8
N31080 G0 Z2
N31090 X158.871 Y53.047
N31100 G1 Z0.1 F60
N31110 Z-0.9
N31120 X158.876 Y53.042 Z-0.952
N31130 X158.89 Y53.028 Z-1
N31140 X158.913 Y53.006 Z-1.041
N31150 X158.942 Y52.976 Z-1.073
N31160 X158.976 Y52.942 Z-1.093
N31170 X159.013 Y52.906 Z-1.1
N31180 X159.154 Y52.764
N31190 G3 X159.437 I0.141 J0.141
N31200 G1 X162.619 Y55.946 F300
N31210 G3 Y57.36 I-0.707 J0.707
N31220 G1 X156.255 Y63.724
N31230 G3 X154.841 I-0.707 J-0.707
N31240 G1 X149.832 Y58.715
N31250 X149.69 Y58.574 Z-1
N31260 X148.276 Y57.159
N31270 X148.135 Y57.018 Z-1.1 F60
N31280 X142.82 Y51.703 F300
N31290 G3 Y50.289 I0.707 J-0.707
N31300 G1 X149.184 Y43.925
N31310 G3 X150.598 I0.707 J0.707
N31320 G1 X159.437 Y52.764
N31330 G3 Y53.047 I-0.141 J0.141 F1000
N31340 G1 X159.296 Y53.188
N31350 X159.259 Y53.225 Z-1.093
N31360 X159.225 Y53.259 Z-1.073
N31370 X159.196 Y53.288 Z-1.041
N31380 X159.173 Y53.311 Z-1
N31390 X159.159 Y53.325 Z-0.952
N31400 X159.154 Y53.33 Z-0.9
N31410 G0 Z2
N31420 X158.871 Y53.047
N31430 G1 Z0 F60
N31440 Z-1
N31450 X158.876 Y53.042 Z-1.052
N31460 X158.89 Y53.028 Z-1.1
N31470 X158.913 Y53.006 Z-1.141
N31480 X158.942 Y52.976 Z-1.173
N31490 X158.976 Y52.942 Z-1.193
N31500 X159.013 Y52.906 Z-1.2
N31510 X159.154 Y52.764
N31520 G3 X159.437 I0.141 J0.141
N31530 G1 X162.619 Y55.946 F300
N31540 G3 Y57.36 I-0.707 J0.707
N31550 G1 X156.255 Y63.724
N31560 G3 X154.841 I-0.707 J-0.707
N31570 G1 X149.973 Y58.856
N31580 X149.69 Y58.574 Z-1
N31590 X148.276 Y57.159
N31600 X147.993 Y56.877 Z-1.2 F60
N31610 X142.82 Y51.703 F300
N31620 G3 Y50.289 I0.707 J-0.707
N31630 G1 X149.184 Y43.925
N31640 G3 X150.598 I0.707 J0.707
N31650 G1 X159.437 Y52.764
N31660 G3 Y53.047 I-0.141 J0.141 F1000
N31670 G1 X159.296 Y53.188
N31680 X159.259 Y53.225 Z-1.193
N31690 X159.225 Y53.259 Z-1.173
N31700 X159.196 Y53.288 Z-1.141
N31710 X159.173 Y53.311 Z-1.1
N31720 X159.159 Y53.325 Z-1.052
N31730 X159.154 Y53.33 Z-1
N31740 G0 Z2
N31750 X158.871 Y53.047
N31760 G1 Z-0.1 F60
N31770 Z-1.1
N31780 X158.876 Y53.042 Z-1.152
N31790 X158.89 Y53.028 Z-1.2
N31800 X158.913 Y53.006 Z-1.241
N31810 X158.942 Y52.976 Z-1.273
N31820 X158.976 Y52.942 Z-1.293
N31830 X159.013 Y52.906 Z-1.3
N31840 X159.154 Y52.764
N31850 G3 X159.437 I0.141 J0.141
N31860 G1 X162.619 Y55.946 F300
N31870 G3 Y57.36 I-0.707 J0.707
N31880 G1 X156.255 Y63.724
N31890 G3 X154.841 I-0.707 J-0.707
N31900 G1 X150.115 Y58.998
N31910 X149.69 Y58.574 Z-1
N31920 X148.276 Y57.159
N31930 X147.852 Y56.735 Z-1.3 F60
N31940 X142.82 Y51.703 F300
N31950 G3 Y50.289 I0.707 J-0.707
N31960 G1 X149.184 Y43.925
N31970 G3 X150.598 I0.707 J0.707
N31980 G1 X159.437 Y52.764
N31990 G3 Y53.047 I-0.141 J0.141 F1000
N32000 G1 X159.296 Y53.188
N32010 X159.259 Y53.225 Z-1.293
N32020 X159.225 Y53.259 Z-1.273
N32030 X159.196 Y53.288 Z-1.241
N32040 X159.173 Y53.311 Z-1.2
N32050 X159.159 Y53.325 Z-1.152
N32060 X159.154 Y53.33 Z-1.1
N32070 G0 Z2
N32080 X158.871 Y53.047
N32090 G1 Z-0.2 F60
N32100 Z-1.2
N32110 X158.876 Y53.042 Z-1.252
N32120 X158.89 Y53.028 Z-1.3
N32130 X158.913 Y53.006 Z-1.341
N32140 X158.942 Y52.976 Z-1.373
N32150 X158.976 Y52.942 Z-1.393
N32160 X159.013 Y52.906 Z-1.4
N32170 X159.154 Y52.764
N32180 G3 X159.437 I0.141 J0.141
N32190 G1 X162.619 Y55.946 F300
N32200 G3 Y57.36 I-0.707 J0.707
N32210 G1 X156.255 Y63.724
N32220 G3 X154.841 I-0.707 J-0.707
N32230 G1 X150.256 Y59.139
N32240 X149.69 Y58.574 Z-1
N32250 X148.276 Y57.159
N32260 X147.71 Y56.594 Z-1.4 F60
N32270 X142.82 Y51.703 F300
N32280 G3 Y50.289 I0.707 J-0.707
N32290 G1 X149.184 Y43.925
N32300 G3 X150.598 I0.707 J0.707
N32310 G1 X159.437 Y52.764
N32320 G3 Y53.047 I-0.141 J0.141 F1000
N32330 G1 X159.296 Y53.188
N32340 X159.259 Y53.225 Z-1.393
N32350 X159.225 Y53.259 Z-1.373
N32360 X159.196 Y53.288 Z-1.341
N32370 X159.173 Y53.311 Z-1.3
N32380 X159.159 Y53.325 Z-1.252
N32390 X159.154 Y53.33 Z-1.2
N32400 G0 Z2
N32410 X158.871 Y53.047
N32420 G1 Z-0.3 F60
N32430 Z-1.3
N32440 X158.876 Y53.042 Z-1.352
N32450 X158.89 Y53.028 Z-1.4
N32460 X158.913 Y53.006 Z-1.441
N32470 X158.942 Y52.976 Z-1.473
N32480 X158.976 Y52.942 Z-1.493
N32490 X159.013 Y52.906 Z-1.5
N32500 X159.154 Y52.764
N32510 G3 X159.437 I0.141 J0.141
N32520 G1 X162.619 Y55.946 F300
N32530 G3 Y57.36 I-0.707 J0.707
N32540 G1 X156.255 Y63.724
N32550 G3 X154.841 I-0.707 J-0.707
N32560 G1 X150.398 Y59.281
N32570 X149.69 Y58.574 Z-1
N32580 X148.276 Y57.159
N32590 X147.569 Y56.452 Z-1.5 F60
N32600 X142.82 Y51.703 F300
N32610 G3 Y50.289 I0.707 J-0.707
N32620 G1 X149.184 Y43.925
N32630 G3 X150.598 I0.707 J0.707
N32640 G1 X159.437 Y52.764
N32650 G3 Y53.047 I-0.141 J0.141 F1000
N32660 G1 X159.296 Y53.188
N32670 X159.259 Y53.225 Z-1.493
N32680 X159.225 Y53.259 Z-1.473
N32690 X159.196 Y53.288 Z-1.441
N32700 X159.173 Y53.311 Z-1.4
N32710 X159.159 Y53.325 Z-1.352
N32720 X159.154 Y53.33 Z-1.3
N32730 G0 Z2
N32740 X136.7 Y30.875
N32750 G1 Z1.1 F60
N32760 Z0.1
N32770 X136.704 Y30.87 Z0.048
N32780 X136.718 Y30.856 Z0
N32790 X136.741 Y30.833 Z-0.041
N32800 X136.77 Y30.804 Z-0.073
N32810 X136.804 Y30.77 Z-0.093
N32820 X136.841 Y30.733 Z-0.1
N32830 X136.982 Y30.592
N32840 G3 X137.265 I0.141 J0.141
N32850 G1 X142.467 Y35.793 F300
N32860 G3 Y37.208 I-0.707 J0.707
N32870 G1 X132.567 Y47.107
N32880 G2 Y51.35 I2.121 J2.121
N32890 G1 X132.921 Y51.704
N32900 G3 Y57.36 I-2.829 J2.828
N32910 G1 X124.707 Y65.574
N32920 G3 X123 Y64.867 I-0.707 J-0.707
N32930 G1 Y7.629
N32940 G3 X124.206 Y6.65 I1 J0
N32950 X141.624 Y12.055 I-20.206 J95.894
N32960 X141.948 Y13.685 I-0.383 J0.923
N32970 G1 X134.689 Y20.944
N32980 G2 Y28.015 I3.535 J3.536
N32990 G1 X137.265 Y30.592
N33000 G3 Y30.875 I-0.141 J0.141 F1000
N33010 G1 X137.124 Y31.016
N33020 X137.087 Y31.053 Z-0.093
N33030 X137.053 Y31.087 Z-0.073
N33040 X137.024 Y31.116 Z-0.041
N33050 X137.001 Y31.138 Z0
N33060 X136.987 Y31.153 Z0.048
N33070 X136.982 Y31.157 Z0.1
N33080 G0 Z2
N33090 X136.7 Y30.875
N33100 G1 Z1 F60
N33110 Z0
N33120 X136.704 Y30.87 Z-0.052
N33130 X136.718 Y30.856 Z-0.1
N33140 X136.741 Y30.833 Z-0.141
N33150 X136.77 Y30.804 Z-0.173
N33160 X136.804 Y30.77 Z-0.193
N33170 X136.841 Y30.733 Z-0.2
N33180 X136.982 Y30.592
N33190 G3 X137.265 I0.141 J0.141
N33200 G1 X142.467 Y35.793 F300
N33210 G3 Y37.208 I-0.707 J0.707
N33220 G1 X132.567 Y47.107
N33230 G2 Y51.35 I2.121 J2.121
N33240 G1 X132.921 Y51.704
N33250 G3 Y57.36 I-2.829 J2.828
N33260 G1 X124.707 Y65.574
N33270 G3 X123 Y64.867 I-0.707 J-0.707
N33280 G1 Y7.629
N33290 G3 X124.206 Y6.65 I1 J0
N33300 X141.624 Y12.055 I-20.206 J95.894
N33310 X141.948 Y13.685 I-0.383 J0.923
N33320 G1 X134.689 Y20.944
N33330 G2 Y28.015 I3.535 J3.536
N33340 G1 X137.265 Y30.592
N33350 G3 Y30.875 I-0.141 J0.141 F1000
N33360 G1 X137.124 Y31.016
N33370 X137.087 Y31.053 Z-0.193
N33380 X137.053 Y31.087 Z-0.173
N33390 X137.024 Y31.116 Z-0.141
N33400 X137.001 Y31.138 Z-0.1
N33410 X136.987 Y31.153 Z-0.052
N33420 X136.982 Y31.157 Z0
N33430 G0 Z2
N33440 X136.7 Y30.875
N33450 G1 Z0.9 F60
N33460 Z-0.1
N33470 X136.704 Y30.87 Z-0.152
N33480 X136.718 Y30.856 Z-0.2
N33490 X136.741 Y30.833 Z-0.241
N33500 X136.77 Y30.804 Z-0.273
N33510 X136.804 Y30.77 Z-0.293
N33520 X136.841 Y30.733 Z-0.3
N33530 X136.982 Y30.592
N33540 G3 X137.265 I0.141 J0.141
N33550 G1 X142.467 Y35.793 F300
N33560 G3 Y37.208 I-0.707 J0.707
N33570 G1 X132.567 Y47.107
N33580 G2 Y51.35 I2.121 J2.121
N33590 G1 X132.921 Y51.704
N33600 G3 Y57.36 I-2.829 J2.828
N33610 G1 X124.707 Y65.574
N33620 G3 X123 Y64.867 I-0.707 J-0.707
N33630 G1 Y7.629
N33640 G3 X124.206 Y6.65 I1 J0
N33650 X141.624 Y12.055 I-20.206 J95.894
N33660 X141.948 Y13.685 I-0.383 J0.923
N33670 G1 X134.689 Y20.944
N33680 G2 Y28.015 I3.535 J3.536
N33690 G1 X137.265 Y30.592
N33700 G3 Y30.875 I-0.141 J0.141 F1000
N33710 G1 X137.124 Y31.016
N33720 X137.087 Y31.053 Z-0.293
N33730 X137.053 Y31.087 Z-0.273
N33740 X137.024 Y31.116 Z-0.241
N33750 X137.001 Y31.138 Z-0.2
N33760 X136.987 Y31.153 Z-0.152
N33770 X136.982 Y31.157 Z-0.1
N33780 G0 Z2
N33790 X136.7 Y30.875
N33800 G1 Z0.8 F60
N33810 Z-0.2
N33820 X136.704 Y30.87 Z-0.252
N33830 X136.718 Y30.856 Z-0.3
N33840 X136.741 Y30.833 Z-0.341
N33850 X136.77 Y30.804 Z-0.373
N33860 X136.804 Y30.77 Z-0.393
N33870 X136.841 Y30.733 Z-0.4
N33880 X136.982 Y30.592
N33890 G3 X137.265 I0.141 J0.141
N33900 G1 X142.467 Y35.793 F300
N33910 G3 Y37.208 I-0.707 J0.707
N33920 G1 X132.567 Y47.107
N33930 G2 Y51.35 I2.121 J2.121
N33940 G1 X132.921 Y51.704
N33950 G3 Y57.36 I-2.829 J2.828
N33960 G1 X124.707 Y65.574
N33970 G3 X123 Y64.867 I-0.707 J-0.707
N33980 G1 Y7.629
N33990 G3 X124.206 Y6.65 I1 J0
N34000 X141.624 Y12.055 I-20.206 J95.894
N34010 X141.948 Y13.685 I-0.383 J0.923
N34020 G1 X134.689 Y20.944
N34030 G2 Y28.015 I3.535 J3.536
N34040 G1 X137.265 Y30.592
N34050 G3 Y30.875 I-0.141 J0.141 F1000
N34060 G1 X137.124 Y31.016
N34070 X137.087 Y31.053 Z-0.393
N34080 X137.053 Y31.087 Z-0.373
N34090 X137.024 Y31.116 Z-0.341
N34100 X137.001 Y31.138 Z-0.3
N34110 X136.987 Y31.153 Z-0.252
N34120 X136.982 Y31.157 Z-0.2
N34130 G0 Z2
N34140 X136.7 Y30.875
N34150 G1 Z0.7 F60
N34160 Z-0.3
N34170 X136.704 Y30.87 Z-0.352
N34180 X136.718 Y30.856 Z-0.4
N34190 X136.741 Y30.833 Z-0.441
N34200 X136.77 Y30.804 Z-0.473
N34210 X136.804 Y30.77 Z-0.493
N34220 X136.841 Y30.733 Z-0.5
N34230 X136.982 Y30.592
N34240 G3 X137.265 I0.141 J0.141
N34250 G1 X142.467 Y35.793 F300
N34260 G3 Y37.208 I-0.707 J0.707
N34270 G1 X132.567 Y47.107
N34280 G2 Y51.35 I2.121 J2.121
N34290 G1 X132.921 Y51.704
N34300 G3 Y57.36 I-2.829 J2.828
N34310 G1 X124.707 Y65.574
N34320 G3 X123 Y64.867 I-0.707 J-0.707
N34330 G1 Y7.629
N34340 G3 X124.206 Y6.65 I1 J0
N34350 X141.624 Y12.055 I-20.206 J95.894
N34360 X141.948 Y13.685 I-0.383 J0.923
N34370 G1 X134.689 Y20.944
N34380 G2 Y28.015 I3.535 J3.536
N34390 G1 X137.265 Y30.592
N34400 G3 Y30.875 I-0.141 J0.141 F1000
N34410 G1 X137.124 Y31.016
N34420 X137.087 Y31.053 Z-0.493
N34430 X137.053 Y31.087 Z-0.473
N34440 X137.024 Y31.116 Z-0.441
N34450 X137.001 Y31.138 Z-0.4
N34460 X136.987 Y31.153 Z-0.352
N34470 X136.982 Y31.157 Z-0.3
N34480 G0 Z2
N34490 X136.7 Y30.875
N34500 G1 Z0.6 F60
N34510 Z-0.4
N34520 X136.704 Y30.87 Z-0.452
N34530 X136.718 Y30.856 Z-0.5
N34540 X136.741 Y30.833 Z-0.541
N34550 X136.77 Y30.804 Z-0.573
N34560 X136.804 Y30.77 Z-0.593
N34570 X136.841 Y30.733 Z-0.6
N34580 X136.982 Y30.592
N34590 G3 X137.265 I0.141 J0.141
N34600 G1 X142.467 Y35.793 F300
N34610 G3 Y37.208 I-0.707 J0.707
N34620 G1 X132.567 Y47.107
N34630 G2 Y51.35 I2.121 J2.121
N34640 G1 X132.921 Y51.704
N34650 G3 Y57.36 I-2.829 J2.828
N34660 G1 X124.707 Y65.574
N34670 G3 X123 Y64.867 I-0.707 J-0.707
N34680 G1 Y7.629
N34690 G3 X124.206 Y6.65 I1 J0
N34700 X141.624 Y12.055 I-20.206 J95.894
N34710 X141.948 Y13.685 I-0.383 J0.923
N34720 G1 X134.689 Y20.944
N34730 G2 Y28.015 I3.535 J3.536
N34740 G1 X137.265 Y30.592
N34750 G3 Y30.875 I-0.141 J0.141 F1000
N34760 G1 X137.124 Y31.016
N34770 X137.087 Y31.053 Z-0.593
N34780 X137.053 Y31.087 Z-0.573
N34790 X137.024 Y31.116 Z-0.541
N34800 X137.001 Y31.138 Z-0.5
N34810 X136.987 Y31.153 Z-0.452
N34820 X136.982 Y31.157 Z-0.4
N34830 G0 Z2
N34840 X136.7 Y30.875
N34850 G1 Z0.5 F60
N34860 Z-0.5
N34870 X136.704 Y30.87 Z-0.552
N34880 X136.718 Y30.856 Z-0.6
N34890 X136.741 Y30.833 Z-0.641
N34900 X136.77 Y30.804 Z-0.673
N34910 X136.804 Y30.77 Z-0.693
N34920 X136.841 Y30.733 Z-0.7
N34930 X136.982 Y30.592
N34940 G3 X137.265 I0.141 J0.141
N34950 G1 X142.467 Y35.793 F300
N34960 G3 Y37.208 I-0.707 J0.707
N34970 G1 X132.567 Y47.107
N34980 G2 Y51.35 I2.121 J2.121
N34990 G1 X132.921 Y51.704
N35000 G3 Y57.36 I-2.829 J2.828
N35010 G1 X124.707 Y65.574
N35020 G3 X123 Y64.867 I-0.707 J-0.707
N35030 G1 Y7.629
N35040 G3 X124.206 Y6.65 I1 J0
N35050 X141.624 Y12.055 I-20.206 J95.894
N35060 X141.948 Y13.685 I-0.383 J0.923
N35070 G1 X134.689 Y20.944
N35080 G2 Y28.015 I3.535 J3.536
N35090 G1 X137.265 Y30.592
N35100 G3 Y30.875 I-0.141 J0.141 F1000
N35110 G1 X137.124 Y31.016
N35120 X137.087 Y31.053 Z-0.693
N35130 X137.053 Y31.087 Z-0.673
N35140 X137.024 Y31.116 Z-0.641
N35150 X137.001 Y31.138 Z-0.6
N35160 X136.987 Y31.153 Z-0.552
N35170 X136.982 Y31.157 Z-0.5
N35180 G0 Z2
N35190 X136.7 Y30.875
N35200 G1 Z0.4 F60
N35210 Z-0.6
N35220 X136.704 Y30.87 Z-0.652
N35230 X136.718 Y30.856 Z-0.7
N35240 X136.741 Y30.833 Z-0.741
N35250 X136.77 Y30.804 Z-0.773
N35260 X136.804 Y30.77 Z-0.793
N35270 X136.841 Y30.733 Z-0.8
N35280 X136.982 Y30.592
N35290 G3 X137.265 I0.141 J0.141
N35300 G1 X142.467 Y35.793 F300
N35310 G3 Y37.208 I-0.707 J0.707
N35320 G1 X132.567 Y47.107
N35330 G2 Y51.35 I2.121 J2.121
N35340 G1 X132.921 Y51.704
N35350 G3 Y57.36 I-2.829 J2.828
N35360 G1 X124.707 Y65.574
N35370 G3 X123 Y64.867 I-0.707 J-0.707
N35380 G1 Y7.629
N35390 G3 X124.206 Y6.65 I1 J0
N35400 X141.624 Y12.055 I-20.206 J95.894
N35410 X141.948 Y13.685 I-0.383 J0.923
N35420 G1 X134.689 Y20.944
N35430 G2 Y28.015 I3.535 J3.536
N35440 G1 X137.265 Y30.592
N35450 G3 Y30.875 I-0.141 J0.141 F1000
N35460 G1 X137.124 Y31.016
N35470 X137.087 Y31.053 Z-0.793
N35480 X137.053 Y31.087 Z-0.773
N35490 X137.024 Y31.116 Z-0.741
N35500 X137.001 Y31.138 Z-0.7
N35510 X136.987 Y31.153 Z-0.652
N35520 X136.982 Y31.157 Z-0.6
N35530 G0 Z2
N35540 X136.7 Y30.875
N35550 G1 Z0.3 F60
N35560 Z-0.7
N35570 X136.704 Y30.87 Z-0.752
N35580 X136.718 Y30.856 Z-0.8
N35590 X136.741 Y30.833 Z-0.841
N35600 X136.77 Y30.804 Z-0.873
N35610 X136.804 Y30.77 Z-0.893
N35620 X136.841 Y30.733 Z-0.9
N35630 X136.982 Y30.592
N35640 G3 X137.265 I0.141 J0.141
N35650 G1 X142.467 Y35.793 F300
N35660 G3 Y37.208 I-0.707 J0.707
