%
(2022 late frame 2)
(T1 D=2 CR=0 - ZMIN=-1.5 - flat end mill)
N10 G90 G94
N20 G17
N30 G21

(2D ??1)
N40 T1 M6
N50 S5000 M3
N60 G54
N70 M8
N80 G0 X104.699 Y89.815
N90 G43 Z2
N100 G1 Z1.1 F60
N110 Z-0.1
N120 G3 X103.301 Y89.273 I-0.699 J-0.271 F200
N130 X104.699 Y89.815 I0.699 J0.271
N140 G1 Z-0.2 F60
N150 G3 X103.301 Y89.273 I-0.699 J-0.271 F200
N160 X104.699 Y89.815 I0.699 J0.271
N170 G1 Z-0.3 F60
N180 G3 X103.301 Y89.273 I-0.699 J-0.271 F200
N190 X104.699 Y89.815 I0.699 J0.271
N200 G1 Z-0.4 F60
N210 G3 X103.301 Y89.273 I-0.699 J-0.271 F200
N220 X104.699 Y89.815 I0.699 J0.271
N230 G1 Z-0.5 F60
N240 G3 X103.301 Y89.273 I-0.699 J-0.271 F200
N250 X104.699 Y89.815 I0.699 J0.271
N260 G1 Z-0.6 F60
N270 G3 X103.301 Y89.273 I-0.699 J-0.271 F200
N280 X104.699 Y89.815 I0.699 J0.271
N290 G1 Z-0.7 F60
N300 G3 X103.301 Y89.273 I-0.699 J-0.271 F200
N310 X104.699 Y89.815 I0.699 J0.271
N320 G1 Z-0.8 F60
N330 G3 X103.301 Y89.273 I-0.699 J-0.271 F200
N340 X104.699 Y89.815 I0.699 J0.271
N350 G1 Z-0.9 F60
N360 G3 X103.301 Y89.273 I-0.699 J-0.271 F200
N370 X104.699 Y89.815 I0.699 J0.271
N380 G1 Z-1 F60
N390 G3 X103.301 Y89.273 I-0.699 J-0.271 F200
N400 X104.699 Y89.815 I0.699 J0.271
N410 G1 Z-1.1 F60
N420 G3 X103.301 Y89.273 I-0.699 J-0.271 F200
N430 X104.699 Y89.815 I0.699 J0.271
N440 G1 Z-1.2 F60
N450 G3 X103.301 Y89.273 I-0.699 J-0.271 F200
N460 X104.699 Y89.815 I0.699 J0.271
N470 G1 Z-1.3 F60
N480 G3 X103.301 Y89.273 I-0.699 J-0.271 F200
N490 X104.699 Y89.815 I0.699 J0.271
N500 G1 Z-1.4 F60
N510 G3 X103.301 Y89.273 I-0.699 J-0.271 F200
N520 X104.699 Y89.815 I0.699 J0.271
N530 G1 Z-1.5 F60
N540 G3 X103.301 Y89.273 I-0.699 J-0.271 F200
N550 X104.699 Y89.815 I0.699 J0.271
N560 G0 Z2
N570 X120.25 Y70.544
N580 G1 Z1.1 F60
N590 Z-0.1
N600 G3 X119.75 I-0.25 J0 F200
N610 X120.25 I0.25 J0
N620 G1 Z-0.2 F60
N630 G3 X119.75 I-0.25 J0 F200
N640 X120.25 I0.25 J0
N650 G1 Z-0.3 F60
N660 G3 X119.75 I-0.25 J0 F200
N670 X120.25 I0.25 J0
N680 G1 Z-0.4 F60
N690 G3 X119.75 I-0.25 J0 F200
N700 X120.25 I0.25 J0
N710 G1 Z-0.5 F60
N720 G3 X119.75 I-0.25 J0 F200
N730 X120.25 I0.25 J0
N740 G1 Z-0.6 F60
N750 G3 X119.75 I-0.25 J0 F200
N760 X120.25 I0.25 J0
N770 G1 Z-0.7 F60
N780 G3 X119.75 I-0.25 J0 F200
N790 X120.25 I0.25 J0
N800 G1 Z-0.8 F60
N810 G3 X119.75 I-0.25 J0 F200
N820 X120.25 I0.25 J0
N830 G1 Z-0.9 F60
N840 G3 X119.75 I-0.25 J0 F200
N850 X120.25 I0.25 J0
N860 G1 Z-1 F60
N870 G3 X119.75 I-0.25 J0 F200
N880 X120.25 I0.25 J0
N890 G1 Z-1.1 F60
N900 G3 X119.75 I-0.25 J0 F200
N910 X120.25 I0.25 J0
N920 G1 Z-1.2 F60
N930 G3 X119.75 I-0.25 J0 F200
N940 X120.25 I0.25 J0
N950 G1 Z-1.3 F60
N960 G3 X119.75 I-0.25 J0 F200
N970 X120.25 I0.25 J0
N980 G1 Z-1.4 F60
N990 G3 X119.75 I-0.25 J0 F200
N1000 X120.25 I0.25 J0
N1010 G1 Z-1.5 F60
N1020 G3 X119.75 I-0.25 J0 F200
N1030 X120.25 I0.25 J0
N1040 G0 Z2
N1050 X139.75 Y57.544
N1060 G1 Z1.1 F60
N1070 Z-0.1
N1080 G3 X138.25 I-0.75 J0 F200
N1090 X139.75 I0.75 J0
N1100 G1 Z-0.2 F60
N1110 G3 X138.25 I-0.75 J0 F200
N1120 X139.75 I0.75 J0
N1130 G1 Z-0.3 F60
N1140 G3 X138.25 I-0.75 J0 F200
N1150 X139.75 I0.75 J0
N1160 G1 Z-0.4 F60
N1170 G3 X138.25 I-0.75 J0 F200
N1180 X139.75 I0.75 J0
N1190 G1 Z-0.5 F60
N1200 G3 X138.25 I-0.75 J0 F200
N1210 X139.75 I0.75 J0
N1220 G1 Z-0.6 F60
N1230 G3 X138.25 I-0.75 J0 F200
N1240 X139.75 I0.75 J0
N1250 G1 Z-0.7 F60
N1260 G3 X138.25 I-0.75 J0 F200
N1270 X139.75 I0.75 J0
N1280 G1 Z-0.8 F60
N1290 G3 X138.25 I-0.75 J0 F200
N1300 X139.75 I0.75 J0
N1310 G1 Z-0.9 F60
N1320 G3 X138.25 I-0.75 J0 F200
N1330 X139.75 I0.75 J0
N1340 G1 Z-1 F60
N1350 G3 X138.25 I-0.75 J0 F200
N1360 X139.75 I0.75 J0
N1370 G1 Z-1.1 F60
N1380 G3 X138.25 I-0.75 J0 F200
N1390 X139.75 I0.75 J0
N1400 G1 Z-1.2 F60
N1410 G3 X138.25 I-0.75 J0 F200
N1420 X139.75 I0.75 J0
N1430 G1 Z-1.3 F60
N1440 G3 X138.25 I-0.75 J0 F200
N1450 X139.75 I0.75 J0
N1460 G1 Z-1.4 F60
N1470 G3 X138.25 I-0.75 J0 F200
N1480 X139.75 I0.75 J0
N1490 G1 Z-1.5 F60
N1500 G3 X138.25 I-0.75 J0 F200
N1510 X139.75 I0.75 J0
N1520 G0 Z2
N1530 X138.592 Y47.829
N1540 G1 Z1.1 F60
N1550 Z-0.1
N1560 G3 X137.502 Y48.86 I-0.545 J0.515 F200
N1570 X138.592 Y47.829 I0.545 J-0.515
N1580 G1 Z-0.2 F60
N1590 G3 X137.502 Y48.86 I-0.545 J0.515 F200
N1600 X138.592 Y47.829 I0.545 J-0.515
N1610 G1 Z-0.3 F60
N1620 G3 X137.502 Y48.86 I-0.545 J0.515 F200
N1630 X138.592 Y47.829 I0.545 J-0.515
N1640 G1 Z-0.4 F60
N1650 G3 X137.502 Y48.86 I-0.545 J0.515 F200
N1660 X138.592 Y47.829 I0.545 J-0.515
N1670 G1 Z-0.5 F60
N1680 G3 X137.502 Y48.86 I-0.545 J0.515 F200
N1690 X138.592 Y47.829 I0.545 J-0.515
N1700 G1 Z-0.6 F60
N1710 G3 X137.502 Y48.86 I-0.545 J0.515 F200
N1720 X138.592 Y47.829 I0.545 J-0.515
N1730 G1 Z-0.7 F60
N1740 G3 X137.502 Y48.86 I-0.545 J0.515 F200
N1750 X138.592 Y47.829 I0.545 J-0.515
N1760 G1 Z-0.8 F60
N1770 G3 X137.502 Y48.86 I-0.545 J0.515 F200
N1780 X138.592 Y47.829 I0.545 J-0.515
N1790 G1 Z-0.9 F60
N1800 G3 X137.502 Y48.86 I-0.545 J0.515 F200
N1810 X138.592 Y47.829 I0.545 J-0.515
N1820 G1 Z-1 F60
N1830 G3 X137.502 Y48.86 I-0.545 J0.515 F200
N1840 X138.592 Y47.829 I0.545 J-0.515
N1850 G1 Z-1.1 F60
N1860 G3 X137.502 Y48.86 I-0.545 J0.515 F200
N1870 X138.592 Y47.829 I0.545 J-0.515
N1880 G1 Z-1.2 F60
N1890 G3 X137.502 Y48.86 I-0.545 J0.515 F200
N1900 X138.592 Y47.829 I0.545 J-0.515
N1910 G1 Z-1.3 F60
N1920 G3 X137.502 Y48.86 I-0.545 J0.515 F200
N1930 X138.592 Y47.829 I0.545 J-0.515
N1940 G1 Z-1.4 F60
N1950 G3 X137.502 Y48.86 I-0.545 J0.515 F200
N1960 X138.592 Y47.829 I0.545 J-0.515
N1970 G1 Z-1.5 F60
N1980 G3 X137.502 Y48.86 I-0.545 J0.515 F200
N1990 X138.592 Y47.829 I0.545 J-0.515
N2000 G0 Z2
N2010 X158.895 Y68.214
N2020 G1 Z1.1 F60
N2030 Z-0.1
N2040 G3 X157.505 Y68.781 I-0.695 J0.283 F200
N2050 X158.895 Y68.214 I0.695 J-0.283
N2060 G1 Z-0.2 F60
N2070 G3 X157.505 Y68.781 I-0.695 J0.283 F200
N2080 X158.895 Y68.214 I0.695 J-0.283
N2090 G1 Z-0.3 F60
N2100 G3 X157.505 Y68.781 I-0.695 J0.283 F200
N2110 X158.895 Y68.214 I0.695 J-0.283
N2120 G1 Z-0.4 F60
N2130 G3 X157.505 Y68.781 I-0.695 J0.283 F200
N2140 X158.895 Y68.214 I0.695 J-0.283
N2150 G1 Z-0.5 F60
N2160 G3 X157.505 Y68.781 I-0.695 J0.283 F200
N2170 X158.895 Y68.214 I0.695 J-0.283
N2180 G1 Z-0.6 F60
N2190 G3 X157.505 Y68.781 I-0.695 J0.283 F200
N2200 X158.895 Y68.214 I0.695 J-0.283
N2210 G1 Z-0.7 F60
N2220 G3 X157.505 Y68.781 I-0.695 J0.283 F200
N2230 X158.895 Y68.214 I0.695 J-0.283
N2240 G1 Z-0.8 F60
N2250 G3 X157.505 Y68.781 I-0.695 J0.283 F200
N2260 X158.895 Y68.214 I0.695 J-0.283
N2270 G1 Z-0.9 F60
N2280 G3 X157.505 Y68.781 I-0.695 J0.283 F200
N2290 X158.895 Y68.214 I0.695 J-0.283
N2300 G1 Z-1 F60
N2310 G3 X157.505 Y68.781 I-0.695 J0.283 F200
N2320 X158.895 Y68.214 I0.695 J-0.283
N2330 G1 Z-1.1 F60
N2340 G3 X157.505 Y68.781 I-0.695 J0.283 F200
N2350 X158.895 Y68.214 I0.695 J-0.283
N2360 G1 Z-1.2 F60
N2370 G3 X157.505 Y68.781 I-0.695 J0.283 F200
N2380 X158.895 Y68.214 I0.695 J-0.283
N2390 G1 Z-1.3 F60
N2400 G3 X157.505 Y68.781 I-0.695 J0.283 F200
N2410 X158.895 Y68.214 I0.695 J-0.283
N2420 G1 Z-1.4 F60
N2430 G3 X157.505 Y68.781 I-0.695 J0.283 F200
N2440 X158.895 Y68.214 I0.695 J-0.283
N2450 G1 Z-1.5 F60
N2460 G3 X157.505 Y68.781 I-0.695 J0.283 F200
N2470 X158.895 Y68.214 I0.695 J-0.283
N2480 G0 Z2
N2490 X195.583 Y58.381
N2500 G1 Z1.1 F60
N2510 Z-0.1
N2520 G3 X194.083 I-0.75 J0 F200
N2530 X195.583 I0.75 J0
N2540 G1 Z-0.2 F60
N2550 G3 X194.083 I-0.75 J0 F200
N2560 X195.583 I0.75 J0
N2570 G1 Z-0.3 F60
N2580 G3 X194.083 I-0.75 J0 F200
N2590 X195.583 I0.75 J0
N2600 G1 Z-0.4 F60
N2610 G3 X194.083 I-0.75 J0 F200
N2620 X195.583 I0.75 J0
N2630 G1 Z-0.5 F60
N2640 G3 X194.083 I-0.75 J0 F200
N2650 X195.583 I0.75 J0
N2660 G1 Z-0.6 F60
N2670 G3 X194.083 I-0.75 J0 F200
N2680 X195.583 I0.75 J0
N2690 G1 Z-0.7 F60
N2700 G3 X194.083 I-0.75 J0 F200
N2710 X195.583 I0.75 J0
N2720 G1 Z-0.8 F60
N2730 G3 X194.083 I-0.75 J0 F200
N2740 X195.583 I0.75 J0
N2750 G1 Z-0.9 F60
N2760 G3 X194.083 I-0.75 J0 F200
N2770 X195.583 I0.75 J0
N2780 G1 Z-1 F60
N2790 G3 X194.083 I-0.75 J0 F200
N2800 X195.583 I0.75 J0
N2810 G1 Z-1.1 F60
N2820 G3 X194.083 I-0.75 J0 F200
N2830 X195.583 I0.75 J0
N2840 G1 Z-1.2 F60
N2850 G3 X194.083 I-0.75 J0 F200
N2860 X195.583 I0.75 J0
N2870 G1 Z-1.3 F60
N2880 G3 X194.083 I-0.75 J0 F200
N2890 X195.583 I0.75 J0
N2900 G1 Z-1.4 F60
N2910 G3 X194.083 I-0.75 J0 F200
N2920 X195.583 I0.75 J0
N2930 G1 Z-1.5 F60
N2940 G3 X194.083 I-0.75 J0 F200
N2950 X195.583 I0.75 J0
N2960 G0 Z2
N2970 X203.918 Y121.694
N2980 G1 Z1.1 F60
N2990 Z-0.1
N3000 G3 X202.418 I-0.75 J0 F200
N3010 X203.918 I0.75 J0
N3020 G1 Z-0.2 F60
N3030 G3 X202.418 I-0.75 J0 F200
N3040 X203.918 I0.75 J0
N3050 G1 Z-0.3 F60
N3060 G3 X202.418 I-0.75 J0 F200
N3070 X203.918 I0.75 J0
N3080 G1 Z-0.4 F60
N3090 G3 X202.418 I-0.75 J0 F200
N3100 X203.918 I0.75 J0
N3110 G1 Z-0.5 F60
N3120 G3 X202.418 I-0.75 J0 F200
N3130 X203.918 I0.75 J0
N3140 G1 Z-0.6 F60
N3150 G3 X202.418 I-0.75 J0 F200
N3160 X203.918 I0.75 J0
N3170 G1 Z-0.7 F60
N3180 G3 X202.418 I-0.75 J0 F200
N3190 X203.918 I0.75 J0
N3200 G1 Z-0.8 F60
N3210 G3 X202.418 I-0.75 J0 F200
N3220 X203.918 I0.75 J0
N3230 G1 Z-0.9 F60
N3240 G3 X202.418 I-0.75 J0 F200
N3250 X203.918 I0.75 J0
N3260 G1 Z-1 F60
N3270 G3 X202.418 I-0.75 J0 F200
N3280 X203.918 I0.75 J0
N3290 G1 Z-1.1 F60
N3300 G3 X202.418 I-0.75 J0 F200
N3310 X203.918 I0.75 J0
N3320 G1 Z-1.2 F60
N3330 G3 X202.418 I-0.75 J0 F200
N3340 X203.918 I0.75 J0
N3350 G1 Z-1.3 F60
N3360 G3 X202.418 I-0.75 J0 F200
N3370 X203.918 I0.75 J0
N3380 G1 Z-1.4 F60
N3390 G3 X202.418 I-0.75 J0 F200
N3400 X203.918 I0.75 J0
N3410 G1 Z-1.5 F60
N3420 G3 X202.418 I-0.75 J0 F200
N3430 X203.918 I0.75 J0
N3440 G0 Z2
N3450 X165.915 Y121.404
N3460 G1 Z1.1 F60
N3470 Z-0.1
N3480 G3 X164.415 I-0.75 J0 F200
N3490 X165.915 I0.75 J0
N3500 G1 Z-0.2 F60
N3510 G3 X164.415 I-0.75 J0 F200
N3520 X165.915 I0.75 J0
N3530 G1 Z-0.3 F60
N3540 G3 X164.415 I-0.75 J0 F200
N3550 X165.915 I0.75 J0
N3560 G1 Z-0.4 F60
N3570 G3 X164.415 I-0.75 J0 F200
N3580 X165.915 I0.75 J0
N3590 G1 Z-0.5 F60
N3600 G3 X164.415 I-0.75 J0 F200
N3610 X165.915 I0.75 J0
N3620 G1 Z-0.6 F60
N3630 G3 X164.415 I-0.75 J0 F200
N3640 X165.915 I0.75 J0
N3650 G1 Z-0.7 F60
N3660 G3 X164.415 I-0.75 J0 F200
N3670 X165.915 I0.75 J0
N3680 G1 Z-0.8 F60
N3690 G3 X164.415 I-0.75 J0 F200
N3700 X165.915 I0.75 J0
N3710 G1 Z-0.9 F60
N3720 G3 X164.415 I-0.75 J0 F200
N3730 X165.915 I0.75 J0
N3740 G1 Z-1 F60
N3750 G3 X164.415 I-0.75 J0 F200
N3760 X165.915 I0.75 J0
N3770 G1 Z-1.1 F60
N3780 G3 X164.415 I-0.75 J0 F200
N3790 X165.915 I0.75 J0
N3800 G1 Z-1.2 F60
N3810 G3 X164.415 I-0.75 J0 F200
N3820 X165.915 I0.75 J0
N3830 G1 Z-1.3 F60
N3840 G3 X164.415 I-0.75 J0 F200
N3850 X165.915 I0.75 J0
N3860 G1 Z-1.4 F60
N3870 G3 X164.415 I-0.75 J0 F200
N3880 X165.915 I0.75 J0
N3890 G1 Z-1.5 F60
N3900 G3 X164.415 I-0.75 J0 F200
N3910 X165.915 I0.75 J0
N3920 G0 Z2
N3930 X151.539 Y146.5
N3940 G1 Z1.1 F60
N3950 Z-0.1
N3960 G3 X150.29 Y145.67 I-0.624 J-0.415 F200
N3970 X151.539 Y146.5 I0.624 J0.415
N3980 G1 Z-0.2 F60
N3990 G3 X150.29 Y145.67 I-0.624 J-0.415 F200
N4000 X151.539 Y146.5 I0.624 J0.415
N4010 G1 Z-0.3 F60
N4020 G3 X150.29 Y145.67 I-0.624 J-0.415 F200
N4030 X151.539 Y146.5 I0.624 J0.415
N4040 G1 Z-0.4 F60
N4050 G3 X150.29 Y145.67 I-0.624 J-0.415 F200
N4060 X151.539 Y146.5 I0.624 J0.415
N4070 G1 Z-0.5 F60
N4080 G3 X150.29 Y145.67 I-0.624 J-0.415 F200
N4090 X151.539 Y146.5 I0.624 J0.415
N4100 G1 Z-0.6 F60
N4110 G3 X150.29 Y145.67 I-0.624 J-0.415 F200
N4120 X151.539 Y146.5 I0.624 J0.415
N4130 G1 Z-0.7 F60
N4140 G3 X150.29 Y145.67 I-0.624 J-0.415 F200
N4150 X151.539 Y146.5 I0.624 J0.415
N4160 G1 Z-0.8 F60
N4170 G3 X150.29 Y145.67 I-0.624 J-0.415 F200
N4180 X151.539 Y146.5 I0.624 J0.415
N4190 G1 Z-0.9 F60
N4200 G3 X150.29 Y145.67 I-0.624 J-0.415 F200
N4210 X151.539 Y146.5 I0.624 J0.415
N4220 G1 Z-1 F60
N4230 G3 X150.29 Y145.67 I-0.624 J-0.415 F200
N4240 X151.539 Y146.5 I0.624 J0.415
N4250 G1 Z-1.1 F60
N4260 G3 X150.29 Y145.67 I-0.624 J-0.415 F200
N4270 X151.539 Y146.5 I0.624 J0.415
N4280 G1 Z-1.2 F60
N4290 G3 X150.29 Y145.67 I-0.624 J-0.415 F200
N4300 X151.539 Y146.5 I0.624 J0.415
N4310 G1 Z-1.3 F60
N4320 G3 X150.29 Y145.67 I-0.624 J-0.415 F200
N4330 X151.539 Y146.5 I0.624 J0.415
N4340 G1 Z-1.4 F60
N4350 G3 X150.29 Y145.67 I-0.624 J-0.415 F200
N4360 X151.539 Y146.5 I0.624 J0.415
N4370 G1 Z-1.5 F60
N4380 G3 X150.29 Y145.67 I-0.624 J-0.415 F200
N4390 X151.539 Y146.5 I0.624 J0.415
N4400 G0 Z2
N4410 X139.699 Y148.315
N4420 G1 Z1.1 F60
N4430 Z-0.1
N4440 G3 X138.301 Y147.773 I-0.699 J-0.271 F200
N4450 X139.699 Y148.315 I0.699 J0.271
N4460 G1 Z-0.2 F60
N4470 G3 X138.301 Y147.773 I-0.699 J-0.271 F200
N4480 X139.699 Y148.315 I0.699 J0.271
N4490 G1 Z-0.3 F60
N4500 G3 X138.301 Y147.773 I-0.699 J-0.271 F200
N4510 X139.699 Y148.315 I0.699 J0.271
N4520 G1 Z-0.4 F60
N4530 G3 X138.301 Y147.773 I-0.699 J-0.271 F200
N4540 X139.699 Y148.315 I0.699 J0.271
N4550 G1 Z-0.5 F60
N4560 G3 X138.301 Y147.773 I-0.699 J-0.271 F200
N4570 X139.699 Y148.315 I0.699 J0.271
N4580 G1 Z-0.6 F60
N4590 G3 X138.301 Y147.773 I-0.699 J-0.271 F200
N4600 X139.699 Y148.315 I0.699 J0.271
N4610 G1 Z-0.7 F60
N4620 G3 X138.301 Y147.773 I-0.699 J-0.271 F200
N4630 X139.699 Y148.315 I0.699 J0.271
N4640 G1 Z-0.8 F60
N4650 G3 X138.301 Y147.773 I-0.699 J-0.271 F200
N4660 X139.699 Y148.315 I0.699 J0.271
N4670 G1 Z-0.9 F60
N4680 G3 X138.301 Y147.773 I-0.699 J-0.271 F200
N4690 X139.699 Y148.315 I0.699 J0.271
N4700 G1 Z-1 F60
N4710 G3 X138.301 Y147.773 I-0.699 J-0.271 F200
N4720 X139.699 Y148.315 I0.699 J0.271
N4730 G1 Z-1.1 F60
N4740 G3 X138.301 Y147.773 I-0.699 J-0.271 F200
N4750 X139.699 Y148.315 I0.699 J0.271
N4760 G1 Z-1.2 F60
N4770 G3 X138.301 Y147.773 I-0.699 J-0.271 F200
N4780 X139.699 Y148.315 I0.699 J0.271
N4790 G1 Z-1.3 F60
N4800 G3 X138.301 Y147.773 I-0.699 J-0.271 F200
N4810 X139.699 Y148.315 I0.699 J0.271
N4820 G1 Z-1.4 F60
N4830 G3 X138.301 Y147.773 I-0.699 J-0.271 F200
N4840 X139.699 Y148.315 I0.699 J0.271
N4850 G1 Z-1.5 F60
N4860 G3 X138.301 Y147.773 I-0.699 J-0.271 F200
N4870 X139.699 Y148.315 I0.699 J0.271
N4880 G0 Z2
N4890 X122.189 Y152.015
N4900 G1 Z1.1 F60
N4910 Z-0.1
N4920 G3 X120.791 Y151.473 I-0.699 J-0.271 F200
N4930 X122.189 Y152.015 I0.699 J0.271
N4940 G1 Z-0.2 F60
N4950 G3 X120.791 Y151.473 I-0.699 J-0.271 F200
N4960 X122.189 Y152.015 I0.699 J0.271
N4970 G1 Z-0.3 F60
N4980 G3 X120.791 Y151.473 I-0.699 J-0.271 F200
N4990 X122.189 Y152.015 I0.699 J0.271
N5000 G1 Z-0.4 F60
N5010 G3 X120.791 Y151.473 I-0.699 J-0.271 F200
N5020 X122.189 Y152.015 I0.699 J0.271
N5030 G1 Z-0.5 F60
N5040 G3 X120.791 Y151.473 I-0.699 J-0.271 F200
N5050 X122.189 Y152.015 I0.699 J0.271
N5060 G1 Z-0.6 F60
N5070 G3 X120.791 Y151.473 I-0.699 J-0.271 F200
N5080 X122.189 Y152.015 I0.699 J0.271
N5090 G1 Z-0.7 F60
N5100 G3 X120.791 Y151.473 I-0.699 J-0.271 F200
N5110 X122.189 Y152.015 I0.699 J0.271
N5120 G1 Z-0.8 F60
N5130 G3 X120.791 Y151.473 I-0.699 J-0.271 F200
N5140 X122.189 Y152.015 I0.699 J0.271
N5150 G1 Z-0.9 F60
N5160 G3 X120.791 Y151.473 I-0.699 J-0.271 F200
N5170 X122.189 Y152.015 I0.699 J0.271
N5180 G1 Z-1 F60
N5190 G3 X120.791 Y151.473 I-0.699 J-0.271 F200
N5200 X122.189 Y152.015 I0.699 J0.271
N5210 G1 Z-1.1 F60
N5220 G3 X120.791 Y151.473 I-0.699 J-0.271 F200
N5230 X122.189 Y152.015 I0.699 J0.271
N5240 G1 Z-1.2 F60
N5250 G3 X120.791 Y151.473 I-0.699 J-0.271 F200
N5260 X122.189 Y152.015 I0.699 J0.271
N5270 G1 Z-1.3 F60
N5280 G3 X120.791 Y151.473 I-0.699 J-0.271 F200
N5290 X122.189 Y152.015 I0.699 J0.271
N5300 G1 Z-1.4 F60
N5310 G3 X120.791 Y151.473 I-0.699 J-0.271 F200
N5320 X122.189 Y152.015 I0.699 J0.271
N5330 G1 Z-1.5 F60
N5340 G3 X120.791 Y151.473 I-0.699 J-0.271 F200
N5350 X122.189 Y152.015 I0.699 J0.271
N5360 G0 Z2
N5370 X122.24 Y130.194
N5380 G1 Z1.1 F60
N5390 Z-0.1
N5400 G3 X120.74 I-0.75 J0 F200
N5410 X122.24 I0.75 J0
N5420 G1 Z-0.2 F60
N5430 G3 X120.74 I-0.75 J0 F200
N5440 X122.24 I0.75 J0
N5450 G1 Z-0.3 F60
N5460 G3 X120.74 I-0.75 J0 F200
N5470 X122.24 I0.75 J0
N5480 G1 Z-0.4 F60
N5490 G3 X120.74 I-0.75 J0 F200
N5500 X122.24 I0.75 J0
N5510 G1 Z-0.5 F60
N5520 G3 X120.74 I-0.75 J0 F200
N5530 X122.24 I0.75 J0
N5540 G1 Z-0.6 F60
N5550 G3 X120.74 I-0.75 J0 F200
N5560 X122.24 I0.75 J0
N5570 G1 Z-0.7 F60
N5580 G3 X120.74 I-0.75 J0 F200
N5590 X122.24 I0.75 J0
N5600 G1 Z-0.8 F60
N5610 G3 X120.74 I-0.75 J0 F200
N5620 X122.24 I0.75 J0
N5630 G1 Z-0.9 F60
N5640 G3 X120.74 I-0.75 J0 F200
N5650 X122.24 I0.75 J0
N5660 G1 Z-1 F60
N5670 G3 X120.74 I-0.75 J0 F200
N5680 X122.24 I0.75 J0
N5690 G1 Z-1.1 F60
N5700 G3 X120.74 I-0.75 J0 F200
N5710 X122.24 I0.75 J0
N5720 G1 Z-1.2 F60
N5730 G3 X120.74 I-0.75 J0 F200
N5740 X122.24 I0.75 J0
N5750 G1 Z-1.3 F60
N5760 G3 X120.74 I-0.75 J0 F200
N5770 X122.24 I0.75 J0
N5780 G1 Z-1.4 F60
N5790 G3 X120.74 I-0.75 J0 F200
N5800 X122.24 I0.75 J0
N5810 G1 Z-1.5 F60
N5820 G3 X120.74 I-0.75 J0 F200
N5830 X122.24 I0.75 J0
N5840 G0 Z2
N5850 X87.26
N5860 G1 Z1.1 F60
N5870 Z-0.1
N5880 G3 X85.76 I-0.75 J0 F200
N5890 X87.26 I0.75 J0
N5900 G1 Z-0.2 F60
N5910 G3 X85.76 I-0.75 J0 F200
N5920 X87.26 I0.75 J0
N5930 G1 Z-0.3 F60
N5940 G3 X85.76 I-0.75 J0 F200
N5950 X87.26 I0.75 J0
N5960 G1 Z-0.4 F60
N5970 G3 X85.76 I-0.75 J0 F200
N5980 X87.26 I0.75 J0
N5990 G1 Z-0.5 F60
N6000 G3 X85.76 I-0.75 J0 F200
N6010 X87.26 I0.75 J0
N6020 G1 Z-0.6 F60
N6030 G3 X85.76 I-0.75 J0 F200
N6040 X87.26 I0.75 J0
N6050 G1 Z-0.7 F60
N6060 G3 X85.76 I-0.75 J0 F200
N6070 X87.26 I0.75 J0
N6080 G1 Z-0.8 F60
N6090 G3 X85.76 I-0.75 J0 F200
N6100 X87.26 I0.75 J0
N6110 G1 Z-0.9 F60
N6120 G3 X85.76 I-0.75 J0 F200
N6130 X87.26 I0.75 J0
N6140 G1 Z-1 F60
N6150 G3 X85.76 I-0.75 J0 F200
N6160 X87.26 I0.75 J0
N6170 G1 Z-1.1 F60
N6180 G3 X85.76 I-0.75 J0 F200
N6190 X87.26 I0.75 J0
N6200 G1 Z-1.2 F60
N6210 G3 X85.76 I-0.75 J0 F200
N6220 X87.26 I0.75 J0
N6230 G1 Z-1.3 F60
N6240 G3 X85.76 I-0.75 J0 F200
N6250 X87.26 I0.75 J0
N6260 G1 Z-1.4 F60
N6270 G3 X85.76 I-0.75 J0 F200
N6280 X87.26 I0.75 J0
N6290 G1 Z-1.5 F60
N6300 G3 X85.76 I-0.75 J0 F200
N6310 X87.26 I0.75 J0
N6320 G0 Z2
N6330 Y151.744
N6340 G1 Z1.1 F60
N6350 Z-0.1
N6360 G3 X85.76 I-0.75 J0 F200
N6370 X87.26 I0.75 J0
N6380 G1 Z-0.2 F60
N6390 G3 X85.76 I-0.75 J0 F200
N6400 X87.26 I0.75 J0
N6410 G1 Z-0.3 F60
N6420 G3 X85.76 I-0.75 J0 F200
N6430 X87.26 I0.75 J0
N6440 G1 Z-0.4 F60
N6450 G3 X85.76 I-0.75 J0 F200
N6460 X87.26 I0.75 J0
N6470 G1 Z-0.5 F60
N6480 G3 X85.76 I-0.75 J0 F200
N6490 X87.26 I0.75 J0
N6500 G1 Z-0.6 F60
N6510 G3 X85.76 I-0.75 J0 F200
N6520 X87.26 I0.75 J0
N6530 G1 Z-0.7 F60
N6540 G3 X85.76 I-0.75 J0 F200
N6550 X87.26 I0.75 J0
N6560 G1 Z-0.8 F60
N6570 G3 X85.76 I-0.75 J0 F200
N6580 X87.26 I0.75 J0
N6590 G1 Z-0.9 F60
N6600 G3 X85.76 I-0.75 J0 F200
N6610 X87.26 I0.75 J0
N6620 G1 Z-1 F60
N6630 G3 X85.76 I-0.75 J0 F200
N6640 X87.26 I0.75 J0
N6650 G1 Z-1.1 F60
N6660 G3 X85.76 I-0.75 J0 F200
N6670 X87.26 I0.75 J0
N6680 G1 Z-1.2 F60
N6690 G3 X85.76 I-0.75 J0 F200
N6700 X87.26 I0.75 J0
N6710 G1 Z-1.3 F60
N6720 G3 X85.76 I-0.75 J0 F200
N6730 X87.26 I0.75 J0
N6740 G1 Z-1.4 F60
N6750 G3 X85.76 I-0.75 J0 F200
N6760 X87.26 I0.75 J0
N6770 G1 Z-1.5 F60
N6780 G3 X85.76 I-0.75 J0 F200
N6790 X87.26 I0.75 J0
N6800 G0 Z2
N6810 X69.699 Y148.315
N6820 G1 Z1.1 F60
N6830 Z-0.1
N6840 G3 X68.301 Y147.773 I-0.699 J-0.271 F200
N6850 X69.699 Y148.315 I0.699 J0.271
N6860 G1 Z-0.2 F60
N6870 G3 X68.301 Y147.773 I-0.699 J-0.271 F200
N6880 X69.699 Y148.315 I0.699 J0.271
N6890 G1 Z-0.3 F60
N6900 G3 X68.301 Y147.773 I-0.699 J-0.271 F200
N6910 X69.699 Y148.315 I0.699 J0.271
N6920 G1 Z-0.4 F60
N6930 G3 X68.301 Y147.773 I-0.699 J-0.271 F200
N6940 X69.699 Y148.315 I0.699 J0.271
N6950 G1 Z-0.5 F60
N6960 G3 X68.301 Y147.773 I-0.699 J-0.271 F200
N6970 X69.699 Y148.315 I0.699 J0.271
N6980 G1 Z-0.6 F60
N6990 G3 X68.301 Y147.773 I-0.699 J-0.271 F200
N7000 X69.699 Y148.315 I0.699 J0.271
N7010 G1 Z-0.7 F60
N7020 G3 X68.301 Y147.773 I-0.699 J-0.271 F200
N7030 X69.699 Y148.315 I0.699 J0.271
N7040 G1 Z-0.8 F60
N7050 G3 X68.301 Y147.773 I-0.699 J-0.271 F200
N7060 X69.699 Y148.315 I0.699 J0.271
N7070 G1 Z-0.9 F60
N7080 G3 X68.301 Y147.773 I-0.699 J-0.271 F200
N7090 X69.699 Y148.315 I0.699 J0.271
N7100 G1 Z-1 F60
N7110 G3 X68.301 Y147.773 I-0.699 J-0.271 F200
N7120 X69.699 Y148.315 I0.699 J0.271
N7130 G1 Z-1.1 F60
N7140 G3 X68.301 Y147.773 I-0.699 J-0.271 F200
N7150 X69.699 Y148.315 I0.699 J0.271
N7160 G1 Z-1.2 F60
N7170 G3 X68.301 Y147.773 I-0.699 J-0.271 F200
N7180 X69.699 Y148.315 I0.699 J0.271
N7190 G1 Z-1.3 F60
N7200 G3 X68.301 Y147.773 I-0.699 J-0.271 F200
N7210 X69.699 Y148.315 I0.699 J0.271
N7220 G1 Z-1.4 F60
N7230 G3 X68.301 Y147.773 I-0.699 J-0.271 F200
N7240 X69.699 Y148.315 I0.699 J0.271
N7250 G1 Z-1.5 F60
N7260 G3 X68.301 Y147.773 I-0.699 J-0.271 F200
N7270 X69.699 Y148.315 I0.699 J0.271
N7280 G0 Z2
N7290 X57.835 Y146.085
N7300 G1 Z1.1 F60
N7310 Z-0.1
N7320 G3 X56.335 I-0.75 J0 F200
N7330 X57.835 I0.75 J0
N7340 G1 Z-0.2 F60
N7350 G3 X56.335 I-0.75 J0 F200
N7360 X57.835 I0.75 J0
N7370 G1 Z-0.3 F60
N7380 G3 X56.335 I-0.75 J0 F200
N7390 X57.835 I0.75 J0
N7400 G1 Z-0.4 F60
N7410 G3 X56.335 I-0.75 J0 F200
N7420 X57.835 I0.75 J0
N7430 G1 Z-0.5 F60
N7440 G3 X56.335 I-0.75 J0 F200
N7450 X57.835 I0.75 J0
N7460 G1 Z-0.6 F60
N7470 G3 X56.335 I-0.75 J0 F200
N7480 X57.835 I0.75 J0
N7490 G1 Z-0.7 F60
N7500 G3 X56.335 I-0.75 J0 F200
N7510 X57.835 I0.75 J0
N7520 G1 Z-0.8 F60
N7530 G3 X56.335 I-0.75 J0 F200
N7540 X57.835 I0.75 J0
N7550 G1 Z-0.9 F60
N7560 G3 X56.335 I-0.75 J0 F200
N7570 X57.835 I0.75 J0
N7580 G1 Z-1 F60
N7590 G3 X56.335 I-0.75 J0 F200
N7600 X57.835 I0.75 J0
N7610 G1 Z-1.1 F60
N7620 G3 X56.335 I-0.75 J0 F200
N7630 X57.835 I0.75 J0
N7640 G1 Z-1.2 F60
N7650 G3 X56.335 I-0.75 J0 F200
N7660 X57.835 I0.75 J0
N7670 G1 Z-1.3 F60
N7680 G3 X56.335 I-0.75 J0 F200
N7690 X57.835 I0.75 J0
N7700 G1 Z-1.4 F60
N7710 G3 X56.335 I-0.75 J0 F200
N7720 X57.835 I0.75 J0
N7730 G1 Z-1.5 F60
N7740 G3 X56.335 I-0.75 J0 F200
N7750 X57.835 I0.75 J0
N7760 G0 Z2
N7770 X59.75 Y171.044
N7780 G1 Z1.1 F60
N7790 Z-0.1
N7800 G3 X58.25 I-0.75 J0 F200
N7810 X59.75 I0.75 J0
N7820 G1 Z-0.2 F60
N7830 G3 X58.25 I-0.75 J0 F200
N7840 X59.75 I0.75 J0
N7850 G1 Z-0.3 F60
N7860 G3 X58.25 I-0.75 J0 F200
N7870 X59.75 I0.75 J0
N7880 G1 Z-0.4 F60
N7890 G3 X58.25 I-0.75 J0 F200
N7900 X59.75 I0.75 J0
N7910 G1 Z-0.5 F60
N7920 G3 X58.25 I-0.75 J0 F200
N7930 X59.75 I0.75 J0
N7940 G1 Z-0.6 F60
N7950 G3 X58.25 I-0.75 J0 F200
N7960 X59.75 I0.75 J0
N7970 G1 Z-0.7 F60
N7980 G3 X58.25 I-0.75 J0 F200
N7990 X59.75 I0.75 J0
N8000 G1 Z-0.8 F60
N8010 G3 X58.25 I-0.75 J0 F200
N8020 X59.75 I0.75 J0
N8030 G1 Z-0.9 F60
N8040 G3 X58.25 I-0.75 J0 F200
N8050 X59.75 I0.75 J0
N8060 G1 Z-1 F60
N8070 G3 X58.25 I-0.75 J0 F200
N8080 X59.75 I0.75 J0
N8090 G1 Z-1.1 F60
N8100 G3 X58.25 I-0.75 J0 F200
N8110 X59.75 I0.75 J0
N8120 G1 Z-1.2 F60
N8130 G3 X58.25 I-0.75 J0 F200
N8140 X59.75 I0.75 J0
N8150 G1 Z-1.3 F60
N8160 G3 X58.25 I-0.75 J0 F200
N8170 X59.75 I0.75 J0
N8180 G1 Z-1.4 F60
N8190 G3 X58.25 I-0.75 J0 F200
N8200 X59.75 I0.75 J0
N8210 G1 Z-1.5 F60
N8220 G3 X58.25 I-0.75 J0 F200
N8230 X59.75 I0.75 J0
N8240 G0 Z2
N8250 Y181.044
N8260 G1 Z1.1 F60
N8270 Z-0.1
N8280 G3 X58.25 I-0.75 J0 F200
N8290 X59.75 I0.75 J0
N8300 G1 Z-0.2 F60
N8310 G3 X58.25 I-0.75 J0 F200
N8320 X59.75 I0.75 J0
N8330 G1 Z-0.3 F60
N8340 G3 X58.25 I-0.75 J0 F200
N8350 X59.75 I0.75 J0
N8360 G1 Z-0.4 F60
N8370 G3 X58.25 I-0.75 J0 F200
N8380 X59.75 I0.75 J0
N8390 G1 Z-0.5 F60
N8400 G3 X58.25 I-0.75 J0 F200
N8410 X59.75 I0.75 J0
N8420 G1 Z-0.6 F60
N8430 G3 X58.25 I-0.75 J0 F200
N8440 X59.75 I0.75 J0
N8450 G1 Z-0.7 F60
N8460 G3 X58.25 I-0.75 J0 F200
N8470 X59.75 I0.75 J0
N8480 G1 Z-0.8 F60
N8490 G3 X58.25 I-0.75 J0 F200
N8500 X59.75 I0.75 J0
N8510 G1 Z-0.9 F60
N8520 G3 X58.25 I-0.75 J0 F200
N8530 X59.75 I0.75 J0
N8540 G1 Z-1 F60
N8550 G3 X58.25 I-0.75 J0 F200
N8560 X59.75 I0.75 J0
N8570 G1 Z-1.1 F60
N8580 G3 X58.25 I-0.75 J0 F200
N8590 X59.75 I0.75 J0
N8600 G1 Z-1.2 F60
N8610 G3 X58.25 I-0.75 J0 F200
N8620 X59.75 I0.75 J0
N8630 G1 Z-1.3 F60
N8640 G3 X58.25 I-0.75 J0 F200
N8650 X59.75 I0.75 J0
N8660 G1 Z-1.4 F60
N8670 G3 X58.25 I-0.75 J0 F200
N8680 X59.75 I0.75 J0
N8690 G1 Z-1.5 F60
N8700 G3 X58.25 I-0.75 J0 F200
N8710 X59.75 I0.75 J0
N8720 G0 Z2
N8730 X38.582 Y178.852
N8740 G1 Z1.1 F60
N8750 Z-0.1
N8760 G3 X37.082 I-0.75 J0 F200
N8770 X38.582 I0.75 J0
N8780 G1 Z-0.2 F60
N8790 G3 X37.082 I-0.75 J0 F200
N8800 X38.582 I0.75 J0
N8810 G1 Z-0.3 F60
N8820 G3 X37.082 I-0.75 J0 F200
N8830 X38.582 I0.75 J0
N8840 G1 Z-0.4 F60
N8850 G3 X37.082 I-0.75 J0 F200
N8860 X38.582 I0.75 J0
N8870 G1 Z-0.5 F60
N8880 G3 X37.082 I-0.75 J0 F200
N8890 X38.582 I0.75 J0
N8900 G1 Z-0.6 F60
N8910 G3 X37.082 I-0.75 J0 F200
N8920 X38.582 I0.75 J0
N8930 G1 Z-0.7 F60
N8940 G3 X37.082 I-0.75 J0 F200
N8950 X38.582 I0.75 J0
N8960 G1 Z-0.8 F60
N8970 G3 X37.082 I-0.75 J0 F200
N8980 X38.582 I0.75 J0
N8990 G1 Z-0.9 F60
N9000 G3 X37.082 I-0.75 J0 F200
N9010 X38.582 I0.75 J0
N9020 G1 Z-1 F60
N9030 G3 X37.082 I-0.75 J0 F200
N9040 X38.582 I0.75 J0
N9050 G1 Z-1.1 F60
N9060 G3 X37.082 I-0.75 J0 F200
N9070 X38.582 I0.75 J0
N9080 G1 Z-1.2 F60
N9090 G3 X37.082 I-0.75 J0 F200
N9100 X38.582 I0.75 J0
N9110 G1 Z-1.3 F60
N9120 G3 X37.082 I-0.75 J0 F200
N9130 X38.582 I0.75 J0
N9140 G1 Z-1.4 F60
N9150 G3 X37.082 I-0.75 J0 F200
N9160 X38.582 I0.75 J0
N9170 G1 Z-1.5 F60
N9180 G3 X37.082 I-0.75 J0 F200
N9190 X38.582 I0.75 J0
N9200 G0 Z2
N9210 X43.585 Y121.404
N9220 G1 Z1.1 F60
N9230 Z-0.1
N9240 G3 X42.085 I-0.75 J0 F200
N9250 X43.585 I0.75 J0
N9260 G1 Z-0.2 F60
N9270 G3 X42.085 I-0.75 J0 F200
N9280 X43.585 I0.75 J0
N9290 G1 Z-0.3 F60
N9300 G3 X42.085 I-0.75 J0 F200
N9310 X43.585 I0.75 J0
N9320 G1 Z-0.4 F60
N9330 G3 X42.085 I-0.75 J0 F200
N9340 X43.585 I0.75 J0
N9350 G1 Z-0.5 F60
N9360 G3 X42.085 I-0.75 J0 F200
N9370 X43.585 I0.75 J0
N9380 G1 Z-0.6 F60
N9390 G3 X42.085 I-0.75 J0 F200
N9400 X43.585 I0.75 J0
N9410 G1 Z-0.7 F60
N9420 G3 X42.085 I-0.75 J0 F200
N9430 X43.585 I0.75 J0
N9440 G1 Z-0.8 F60
N9450 G3 X42.085 I-0.75 J0 F200
N9460 X43.585 I0.75 J0
N9470 G1 Z-0.9 F60
N9480 G3 X42.085 I-0.75 J0 F200
N9490 X43.585 I0.75 J0
N9500 G1 Z-1 F60
N9510 G3 X42.085 I-0.75 J0 F200
N9520 X43.585 I0.75 J0
N9530 G1 Z-1.1 F60
N9540 G3 X42.085 I-0.75 J0 F200
N9550 X43.585 I0.75 J0
N9560 G1 Z-1.2 F60
N9570 G3 X42.085 I-0.75 J0 F200
N9580 X43.585 I0.75 J0
N9590 G1 Z-1.3 F60
N9600 G3 X42.085 I-0.75 J0 F200
N9610 X43.585 I0.75 J0
N9620 G1 Z-1.4 F60
N9630 G3 X42.085 I-0.75 J0 F200
N9640 X43.585 I0.75 J0
N9650 G1 Z-1.5 F60
N9660 G3 X42.085 I-0.75 J0 F200
N9670 X43.585 I0.75 J0
N9680 G0 Z2
N9690 X5.582 Y121.694
N9700 G1 Z1.1 F60
N9710 Z-0.1
N9720 G3 X4.082 I-0.75 J0 F200
N9730 X5.582 I0.75 J0
N9740 G1 Z-0.2 F60
N9750 G3 X4.082 I-0.75 J0 F200
N9760 X5.582 I0.75 J0
N9770 G1 Z-0.3 F60
N9780 G3 X4.082 I-0.75 J0 F200
N9790 X5.582 I0.75 J0
N9800 G1 Z-0.4 F60
N9810 G3 X4.082 I-0.75 J0 F200
N9820 X5.582 I0.75 J0
N9830 G1 Z-0.5 F60
N9840 G3 X4.082 I-0.75 J0 F200
N9850 X5.582 I0.75 J0
N9860 G1 Z-0.6 F60
N9870 G3 X4.082 I-0.75 J0 F200
N9880 X5.582 I0.75 J0
N9890 G1 Z-0.7 F60
N9900 G3 X4.082 I-0.75 J0 F200
N9910 X5.582 I0.75 J0
N9920 G1 Z-0.8 F60
N9930 G3 X4.082 I-0.75 J0 F200
N9940 X5.582 I0.75 J0
N9950 G1 Z-0.9 F60
N9960 G3 X4.082 I-0.75 J0 F200
N9970 X5.582 I0.75 J0
N9980 G1 Z-1 F60
N9990 G3 X4.082 I-0.75 J0 F200
N10000 X5.582 I0.75 J0
N10010 G1 Z-1.1 F60
N10020 G3 X4.082 I-0.75 J0 F200
N10030 X5.582 I0.75 J0
N10040 G1 Z-1.2 F60
N10050 G3 X4.082 I-0.75 J0 F200
N10060 X5.582 I0.75 J0
N10070 G1 Z-1.3 F60
N10080 G3 X4.082 I-0.75 J0 F200
N10090 X5.582 I0.75 J0
N10100 G1 Z-1.4 F60
N10110 G3 X4.082 I-0.75 J0 F200
N10120 X5.582 I0.75 J0
N10130 G1 Z-1.5 F60
N10140 G3 X4.082 I-0.75 J0 F200
N10150 X5.582 I0.75 J0
N10160 G0 Z2
N10170 X13.917 Y58.381
N10180 G1 Z1.1 F60
N10190 Z-0.1
N10200 G3 X12.417 I-0.75 J0 F200
N10210 X13.917 I0.75 J0
N10220 G1 Z-0.2 F60
N10230 G3 X12.417 I-0.75 J0 F200
N10240 X13.917 I0.75 J0
N10250 G1 Z-0.3 F60
N10260 G3 X12.417 I-0.75 J0 F200
N10270 X13.917 I0.75 J0
N10280 G1 Z-0.4 F60
N10290 G3 X12.417 I-0.75 J0 F200
N10300 X13.917 I0.75 J0
N10310 G1 Z-0.5 F60
N10320 G3 X12.417 I-0.75 J0 F200
N10330 X13.917 I0.75 J0
N10340 G1 Z-0.6 F60
N10350 G3 X12.417 I-0.75 J0 F200
N10360 X13.917 I0.75 J0
N10370 G1 Z-0.7 F60
N10380 G3 X12.417 I-0.75 J0 F200
N10390 X13.917 I0.75 J0
N10400 G1 Z-0.8 F60
N10410 G3 X12.417 I-0.75 J0 F200
N10420 X13.917 I0.75 J0
N10430 G1 Z-0.9 F60
N10440 G3 X12.417 I-0.75 J0 F200
N10450 X13.917 I0.75 J0
N10460 G1 Z-1 F60
N10470 G3 X12.417 I-0.75 J0 F200
N10480 X13.917 I0.75 J0
N10490 G1 Z-1.1 F60
N10500 G3 X12.417 I-0.75 J0 F200
N10510 X13.917 I0.75 J0
N10520 G1 Z-1.2 F60
N10530 G3 X12.417 I-0.75 J0 F200
N10540 X13.917 I0.75 J0
N10550 G1 Z-1.3 F60
N10560 G3 X12.417 I-0.75 J0 F200
N10570 X13.917 I0.75 J0
N10580 G1 Z-1.4 F60
N10590 G3 X12.417 I-0.75 J0 F200
N10600 X13.917 I0.75 J0
N10610 G1 Z-1.5 F60
N10620 G3 X12.417 I-0.75 J0 F200
N10630 X13.917 I0.75 J0
N10640 G0 Z2
N10650 X50.55 Y68.497
N10660 G1 Z1.1 F60
N10670 Z-0.1
N10680 G3 X49.05 I-0.75 J0 F200
N10690 X50.55 I0.75 J0
N10700 G1 Z-0.2 F60
N10710 G3 X49.05 I-0.75 J0 F200
N10720 X50.55 I0.75 J0
N10730 G1 Z-0.3 F60
N10740 G3 X49.05 I-0.75 J0 F200
N10750 X50.55 I0.75 J0
N10760 G1 Z-0.4 F60
N10770 G3 X49.05 I-0.75 J0 F200
N10780 X50.55 I0.75 J0
N10790 G1 Z-0.5 F60
N10800 G3 X49.05 I-0.75 J0 F200
N10810 X50.55 I0.75 J0
N10820 G1 Z-0.6 F60
N10830 G3 X49.05 I-0.75 J0 F200
N10840 X50.55 I0.75 J0
N10850 G1 Z-0.7 F60
N10860 G3 X49.05 I-0.75 J0 F200
N10870 X50.55 I0.75 J0
N10880 G1 Z-0.8 F60
N10890 G3 X49.05 I-0.75 J0 F200
N10900 X50.55 I0.75 J0
N10910 G1 Z-0.9 F60
N10920 G3 X49.05 I-0.75 J0 F200
N10930 X50.55 I0.75 J0
N10940 G1 Z-1 F60
N10950 G3 X49.05 I-0.75 J0 F200
N10960 X50.55 I0.75 J0
N10970 G1 Z-1.1 F60
N10980 G3 X49.05 I-0.75 J0 F200
N10990 X50.55 I0.75 J0
N11000 G1 Z-1.2 F60
N11010 G3 X49.05 I-0.75 J0 F200
N11020 X50.55 I0.75 J0
N11030 G1 Z-1.3 F60
N11040 G3 X49.05 I-0.75 J0 F200
N11050 X50.55 I0.75 J0
N11060 G1 Z-1.4 F60
N11070 G3 X49.05 I-0.75 J0 F200
N11080 X50.55 I0.75 J0
N11090 G1 Z-1.5 F60
N11100 G3 X49.05 I-0.75 J0 F200
N11110 X50.55 I0.75 J0
N11120 G0 Z2
N11130 X69.75 Y57.544
N11140 G1 Z1.1 F60
N11150 Z-0.1
N11160 G3 X68.25 I-0.75 J0 F200
N11170 X69.75 I0.75 J0
N11180 G1 Z-0.2 F60
N11190 G3 X68.25 I-0.75 J0 F200
N11200 X69.75 I0.75 J0
N11210 G1 Z-0.3 F60
N11220 G3 X68.25 I-0.75 J0 F200
N11230 X69.75 I0.75 J0
N11240 G1 Z-0.4 F60
N11250 G3 X68.25 I-0.75 J0 F200
N11260 X69.75 I0.75 J0
N11270 G1 Z-0.5 F60
N11280 G3 X68.25 I-0.75 J0 F200
N11290 X69.75 I0.75 J0
N11300 G1 Z-0.6 F60
N11310 G3 X68.25 I-0.75 J0 F200
N11320 X69.75 I0.75 J0
N11330 G1 Z-0.7 F60
N11340 G3 X68.25 I-0.75 J0 F200
N11350 X69.75 I0.75 J0
N11360 G1 Z-0.8 F60
N11370 G3 X68.25 I-0.75 J0 F200
N11380 X69.75 I0.75 J0
N11390 G1 Z-0.9 F60
N11400 G3 X68.25 I-0.75 J0 F200
N11410 X69.75 I0.75 J0
N11420 G1 Z-1 F60
N11430 G3 X68.25 I-0.75 J0 F200
N11440 X69.75 I0.75 J0
N11450 G1 Z-1.1 F60
N11460 G3 X68.25 I-0.75 J0 F200
N11470 X69.75 I0.75 J0
N11480 G1 Z-1.2 F60
N11490 G3 X68.25 I-0.75 J0 F200
N11500 X69.75 I0.75 J0
N11510 G1 Z-1.3 F60
N11520 G3 X68.25 I-0.75 J0 F200
N11530 X69.75 I0.75 J0
N11540 G1 Z-1.4 F60
N11550 G3 X68.25 I-0.75 J0 F200
N11560 X69.75 I0.75 J0
N11570 G1 Z-1.5 F60
N11580 G3 X68.25 I-0.75 J0 F200
N11590 X69.75 I0.75 J0
N11600 G0 Z2
N11610 X70.518 Y48.91
N11620 G1 Z1.1 F60
N11630 Z-0.1
N11640 G3 X69.458 Y47.85 I-0.53 J-0.53 F200
N11650 X70.518 Y48.91 I0.53 J0.53
N11660 G1 Z-0.2 F60
N11670 G3 X69.458 Y47.85 I-0.53 J-0.53 F200
N11680 X70.518 Y48.91 I0.53 J0.53
N11690 G1 Z-0.3 F60
N11700 G3 X69.458 Y47.85 I-0.53 J-0.53 F200
N11710 X70.518 Y48.91 I0.53 J0.53
N11720 G1 Z-0.4 F60
N11730 G3 X69.458 Y47.85 I-0.53 J-0.53 F200
N11740 X70.518 Y48.91 I0.53 J0.53
N11750 G1 Z-0.5 F60
N11760 G3 X69.458 Y47.85 I-0.53 J-0.53 F200
N11770 X70.518 Y48.91 I0.53 J0.53
N11780 G1 Z-0.6 F60
N11790 G3 X69.458 Y47.85 I-0.53 J-0.53 F200
N11800 X70.518 Y48.91 I0.53 J0.53
N11810 G1 Z-0.7 F60
N11820 G3 X69.458 Y47.85 I-0.53 J-0.53 F200
N11830 X70.518 Y48.91 I0.53 J0.53
N11840 G1 Z-0.8 F60
N11850 G3 X69.458 Y47.85 I-0.53 J-0.53 F200
N11860 X70.518 Y48.91 I0.53 J0.53
N11870 G1 Z-0.9 F60
N11880 G3 X69.458 Y47.85 I-0.53 J-0.53 F200
N11890 X70.518 Y48.91 I0.53 J0.53
N11900 G1 Z-1 F60
N11910 G3 X69.458 Y47.85 I-0.53 J-0.53 F200
N11920 X70.518 Y48.91 I0.53 J0.53
N11930 G1 Z-1.1 F60
N11940 G3 X69.458 Y47.85 I-0.53 J-0.53 F200
N11950 X70.518 Y48.91 I0.53 J0.53
N11960 G1 Z-1.2 F60
N11970 G3 X69.458 Y47.85 I-0.53 J-0.53 F200
N11980 X70.518 Y48.91 I0.53 J0.53
N11990 G1 Z-1.3 F60
N12000 G3 X69.458 Y47.85 I-0.53 J-0.53 F200
N12010 X70.518 Y48.91 I0.53 J0.53
N12020 G1 Z-1.4 F60
N12030 G3 X69.458 Y47.85 I-0.53 J-0.53 F200
N12040 X70.518 Y48.91 I0.53 J0.53
N12050 G1 Z-1.5 F60
N12060 G3 X69.458 Y47.85 I-0.53 J-0.53 F200
N12070 X70.518 Y48.91 I0.53 J0.53
N12080 G0 Z2
N12090 X88.303 Y70.589
N12100 G1 Z1.1 F60
N12110 Z-0.1
N12120 G3 X87.803 I-0.25 J0 F200
N12130 X88.303 I0.25 J0
N12140 G1 Z-0.2 F60
N12150 G3 X87.803 I-0.25 J0 F200
N12160 X88.303 I0.25 J0
N12170 G1 Z-0.3 F60
N12180 G3 X87.803 I-0.25 J0 F200
N12190 X88.303 I0.25 J0
N12200 G1 Z-0.4 F60
N12210 G3 X87.803 I-0.25 J0 F200
N12220 X88.303 I0.25 J0
N12230 G1 Z-0.5 F60
N12240 G3 X87.803 I-0.25 J0 F200
N12250 X88.303 I0.25 J0
N12260 G1 Z-0.6 F60
N12270 G3 X87.803 I-0.25 J0 F200
N12280 X88.303 I0.25 J0
N12290 G1 Z-0.7 F60
N12300 G3 X87.803 I-0.25 J0 F200
N12310 X88.303 I0.25 J0
N12320 G1 Z-0.8 F60
N12330 G3 X87.803 I-0.25 J0 F200
N12340 X88.303 I0.25 J0
N12350 G1 Z-0.9 F60
N12360 G3 X87.803 I-0.25 J0 F200
N12370 X88.303 I0.25 J0
N12380 G1 Z-1 F60
N12390 G3 X87.803 I-0.25 J0 F200
N12400 X88.303 I0.25 J0
N12410 G1 Z-1.1 F60
N12420 G3 X87.803 I-0.25 J0 F200
N12430 X88.303 I0.25 J0
N12440 G1 Z-1.2 F60
N12450 G3 X87.803 I-0.25 J0 F200
N12460 X88.303 I0.25 J0
N12470 G1 Z-1.3 F60
N12480 G3 X87.803 I-0.25 J0 F200
N12490 X88.303 I0.25 J0
N12500 G1 Z-1.4 F60
N12510 G3 X87.803 I-0.25 J0 F200
N12520 X88.303 I0.25 J0
N12530 G1 Z-1.5 F60
N12540 G3 X87.803 I-0.25 J0 F200
N12550 X88.303 I0.25 J0
N12560 G0 Z2
N12570 X64.224 Y16.898
N12580 G1 Z1.1 F60
N12590 Z-0.1
N12600 G3 X63.974 Y16.465 I-0.125 J-0.217 F200
N12610 X64.224 Y16.898 I0.125 J0.217
N12620 G1 Z-0.2 F60
N12630 G3 X63.974 Y16.465 I-0.125 J-0.217 F200
N12640 X64.224 Y16.898 I0.125 J0.217
N12650 G1 Z-0.3 F60
N12660 G3 X63.974 Y16.465 I-0.125 J-0.217 F200
N12670 X64.224 Y16.898 I0.125 J0.217
N12680 G1 Z-0.4 F60
N12690 G3 X63.974 Y16.465 I-0.125 J-0.217 F200
N12700 X64.224 Y16.898 I0.125 J0.217
N12710 G1 Z-0.5 F60
N12720 G3 X63.974 Y16.465 I-0.125 J-0.217 F200
N12730 X64.224 Y16.898 I0.125 J0.217
N12740 G1 Z-0.6 F60
N12750 G3 X63.974 Y16.465 I-0.125 J-0.217 F200
N12760 X64.224 Y16.898 I0.125 J0.217
N12770 G1 Z-0.7 F60
N12780 G3 X63.974 Y16.465 I-0.125 J-0.217 F200
N12790 X64.224 Y16.898 I0.125 J0.217
N12800 G1 Z-0.8 F60
N12810 G3 X63.974 Y16.465 I-0.125 J-0.217 F200
N12820 X64.224 Y16.898 I0.125 J0.217
N12830 G1 Z-0.9 F60
N12840 G3 X63.974 Y16.465 I-0.125 J-0.217 F200
N12850 X64.224 Y16.898 I0.125 J0.217
N12860 G1 Z-1 F60
N12870 G3 X63.974 Y16.465 I-0.125 J-0.217 F200
N12880 X64.224 Y16.898 I0.125 J0.217
N12890 G1 Z-1.1 F60
N12900 G3 X63.974 Y16.465 I-0.125 J-0.217 F200
N12910 X64.224 Y16.898 I0.125 J0.217
N12920 G1 Z-1.2 F60
N12930 G3 X63.974 Y16.465 I-0.125 J-0.217 F200
N12940 X64.224 Y16.898 I0.125 J0.217
N12950 G1 Z-1.3 F60
N12960 G3 X63.974 Y16.465 I-0.125 J-0.217 F200
N12970 X64.224 Y16.898 I0.125 J0.217
N12980 G1 Z-1.4 F60
N12990 G3 X63.974 Y16.465 I-0.125 J-0.217 F200
N13000 X64.224 Y16.898 I0.125 J0.217
N13010 G1 Z-1.5 F60
N13020 G3 X63.974 Y16.465 I-0.125 J-0.217 F200
N13030 X64.224 Y16.898 I0.125 J0.217
N13040 G0 Z2
N13050 X60.586 Y11.712
N13060 G1 Z1.1 F60
N13070 Z-0.1
N13080 G3 X59.086 I-0.75 J0 F200
N13090 X60.586 I0.75 J0
N13100 G1 Z-0.2 F60
N13110 G3 X59.086 I-0.75 J0 F200
N13120 X60.586 I0.75 J0
N13130 G1 Z-0.3 F60
N13140 G3 X59.086 I-0.75 J0 F200
N13150 X60.586 I0.75 J0
N13160 G1 Z-0.4 F60
N13170 G3 X59.086 I-0.75 J0 F200
N13180 X60.586 I0.75 J0
N13190 G1 Z-0.5 F60
N13200 G3 X59.086 I-0.75 J0 F200
N13210 X60.586 I0.75 J0
N13220 G1 Z-0.6 F60
N13230 G3 X59.086 I-0.75 J0 F200
N13240 X60.586 I0.75 J0
N13250 G1 Z-0.7 F60
N13260 G3 X59.086 I-0.75 J0 F200
N13270 X60.586 I0.75 J0
N13280 G1 Z-0.8 F60
N13290 G3 X59.086 I-0.75 J0 F200
N13300 X60.586 I0.75 J0
N13310 G1 Z-0.9 F60
N13320 G3 X59.086 I-0.75 J0 F200
N13330 X60.586 I0.75 J0
N13340 G1 Z-1 F60
N13350 G3 X59.086 I-0.75 J0 F200
N13360 X60.586 I0.75 J0
N13370 G1 Z-1.1 F60
N13380 G3 X59.086 I-0.75 J0 F200
N13390 X60.586 I0.75 J0
N13400 G1 Z-1.2 F60
N13410 G3 X59.086 I-0.75 J0 F200
N13420 X60.586 I0.75 J0
N13430 G1 Z-1.3 F60
N13440 G3 X59.086 I-0.75 J0 F200
N13450 X60.586 I0.75 J0
N13460 G1 Z-1.4 F60
N13470 G3 X59.086 I-0.75 J0 F200
N13480 X60.586 I0.75 J0
N13490 G1 Z-1.5 F60
N13500 G3 X59.086 I-0.75 J0 F200
N13510 X60.586 I0.75 J0
N13520 G0 Z2
N13530 X144.151 Y16.682
N13540 G1 Z1.1 F60
N13550 Z-0.1
N13560 G3 X143.651 I-0.25 J0 F200
N13570 X144.151 I0.25 J0
N13580 G1 Z-0.2 F60
N13590 G3 X143.651 I-0.25 J0 F200
N13600 X144.151 I0.25 J0
N13610 G1 Z-0.3 F60
N13620 G3 X143.651 I-0.25 J0 F200
N13630 X144.151 I0.25 J0
N13640 G1 Z-0.4 F60
N13650 G3 X143.651 I-0.25 J0 F200
N13660 X144.151 I0.25 J0
N13670 G1 Z-0.5 F60
N13680 G3 X143.651 I-0.25 J0 F200
N13690 X144.151 I0.25 J0
N13700 G1 Z-0.6 F60
N13710 G3 X143.651 I-0.25 J0 F200
N13720 X144.151 I0.25 J0
N13730 G1 Z-0.7 F60
N13740 G3 X143.651 I-0.25 J0 F200
N13750 X144.151 I0.25 J0
N13760 G1 Z-0.8 F60
N13770 G3 X143.651 I-0.25 J0 F200
N13780 X144.151 I0.25 J0
N13790 G1 Z-0.9 F60
N13800 G3 X143.651 I-0.25 J0 F200
N13810 X144.151 I0.25 J0
N13820 G1 Z-1 F60
N13830 G3 X143.651 I-0.25 J0 F200
N13840 X144.151 I0.25 J0
N13850 G1 Z-1.1 F60
N13860 G3 X143.651 I-0.25 J0 F200
N13870 X144.151 I0.25 J0
N13880 G1 Z-1.2 F60
N13890 G3 X143.651 I-0.25 J0 F200
N13900 X144.151 I0.25 J0
N13910 G1 Z-1.3 F60
N13920 G3 X143.651 I-0.25 J0 F200
N13930 X144.151 I0.25 J0
N13940 G1 Z-1.4 F60
N13950 G3 X143.651 I-0.25 J0 F200
N13960 X144.151 I0.25 J0
N13970 G1 Z-1.5 F60
N13980 G3 X143.651 I-0.25 J0 F200
N13990 X144.151 I0.25 J0
N14000 G0 Z2
N14010 X148.863 Y11.983
N14020 G1 Z1.1 F60
N14030 Z-0.1
N14040 G3 X147.465 Y11.441 I-0.699 J-0.271 F200
N14050 X148.863 Y11.983 I0.699 J0.271
N14060 G1 Z-0.2 F60
N14070 G3 X147.465 Y11.441 I-0.699 J-0.271 F200
N14080 X148.863 Y11.983 I0.699 J0.271
N14090 G1 Z-0.3 F60
N14100 G3 X147.465 Y11.441 I-0.699 J-0.271 F200
N14110 X148.863 Y11.983 I0.699 J0.271
N14120 G1 Z-0.4 F60
N14130 G3 X147.465 Y11.441 I-0.699 J-0.271 F200
N14140 X148.863 Y11.983 I0.699 J0.271
N14150 G1 Z-0.5 F60
N14160 G3 X147.465 Y11.441 I-0.699 J-0.271 F200
N14170 X148.863 Y11.983 I0.699 J0.271
N14180 G1 Z-0.6 F60
N14190 G3 X147.465 Y11.441 I-0.699 J-0.271 F200
N14200 X148.863 Y11.983 I0.699 J0.271
N14210 G1 Z-0.7 F60
N14220 G3 X147.465 Y11.441 I-0.699 J-0.271 F200
N14230 X148.863 Y11.983 I0.699 J0.271
N14240 G1 Z-0.8 F60
N14250 G3 X147.465 Y11.441 I-0.699 J-0.271 F200
N14260 X148.863 Y11.983 I0.699 J0.271
N14270 G1 Z-0.9 F60
N14280 G3 X147.465 Y11.441 I-0.699 J-0.271 F200
N14290 X148.863 Y11.983 I0.699 J0.271
N14300 G1 Z-1 F60
N14310 G3 X147.465 Y11.441 I-0.699 J-0.271 F200
N14320 X148.863 Y11.983 I0.699 J0.271
N14330 G1 Z-1.1 F60
N14340 G3 X147.465 Y11.441 I-0.699 J-0.271 F200
N14350 X148.863 Y11.983 I0.699 J0.271
N14360 G1 Z-1.2 F60
N14370 G3 X147.465 Y11.441 I-0.699 J-0.271 F200
N14380 X148.863 Y11.983 I0.699 J0.271
N14390 G1 Z-1.3 F60
N14400 G3 X147.465 Y11.441 I-0.699 J-0.271 F200
N14410 X148.863 Y11.983 I0.699 J0.271
N14420 G1 Z-1.4 F60
N14430 G3 X147.465 Y11.441 I-0.699 J-0.271 F200
N14440 X148.863 Y11.983 I0.699 J0.271
N14450 G1 Z-1.5 F60
N14460 G3 X147.465 Y11.441 I-0.699 J-0.271 F200
N14470 X148.863 Y11.983 I0.699 J0.271
N14480 G0 Z2
N14490 X149.75 Y171.044
N14500 G1 Z1.1 F60
N14510 Z-0.1
N14520 G3 X148.25 I-0.75 J0 F200
N14530 X149.75 I0.75 J0
N14540 G1 Z-0.2 F60
N14550 G3 X148.25 I-0.75 J0 F200
N14560 X149.75 I0.75 J0
N14570 G1 Z-0.3 F60
N14580 G3 X148.25 I-0.75 J0 F200
N14590 X149.75 I0.75 J0
N14600 G1 Z-0.4 F60
N14610 G3 X148.25 I-0.75 J0 F200
N14620 X149.75 I0.75 J0
N14630 G1 Z-0.5 F60
N14640 G3 X148.25 I-0.75 J0 F200
N14650 X149.75 I0.75 J0
N14660 G1 Z-0.6 F60
N14670 G3 X148.25 I-0.75 J0 F200
N14680 X149.75 I0.75 J0
N14690 G1 Z-0.7 F60
N14700 G3 X148.25 I-0.75 J0 F200
N14710 X149.75 I0.75 J0
N14720 G1 Z-0.8 F60
N14730 G3 X148.25 I-0.75 J0 F200
N14740 X149.75 I0.75 J0
N14750 G1 Z-0.9 F60
N14760 G3 X148.25 I-0.75 J0 F200
N14770 X149.75 I0.75 J0
N14780 G1 Z-1 F60
N14790 G3 X148.25 I-0.75 J0 F200
N14800 X149.75 I0.75 J0
N14810 G1 Z-1.1 F60
N14820 G3 X148.25 I-0.75 J0 F200
N14830 X149.75 I0.75 J0
N14840 G1 Z-1.2 F60
N14850 G3 X148.25 I-0.75 J0 F200
N14860 X149.75 I0.75 J0
N14870 G1 Z-1.3 F60
N14880 G3 X148.25 I-0.75 J0 F200
N14890 X149.75 I0.75 J0
N14900 G1 Z-1.4 F60
N14910 G3 X148.25 I-0.75 J0 F200
N14920 X149.75 I0.75 J0
N14930 G1 Z-1.5 F60
N14940 G3 X148.25 I-0.75 J0 F200
N14950 X149.75 I0.75 J0
N14960 G0 Z2
N14970 Y181.044
N14980 G1 Z1.1 F60
N14990 Z-0.1
N15000 G3 X148.25 I-0.75 J0 F200
N15010 X149.75 I0.75 J0
N15020 G1 Z-0.2 F60
N15030 G3 X148.25 I-0.75 J0 F200
N15040 X149.75 I0.75 J0
N15050 G1 Z-0.3 F60
N15060 G3 X148.25 I-0.75 J0 F200
N15070 X149.75 I0.75 J0
N15080 G1 Z-0.4 F60
N15090 G3 X148.25 I-0.75 J0 F200
N15100 X149.75 I0.75 J0
N15110 G1 Z-0.5 F60
N15120 G3 X148.25 I-0.75 J0 F200
N15130 X149.75 I0.75 J0
N15140 G1 Z-0.6 F60
N15150 G3 X148.25 I-0.75 J0 F200
N15160 X149.75 I0.75 J0
N15170 G1 Z-0.7 F60
N15180 G3 X148.25 I-0.75 J0 F200
N15190 X149.75 I0.75 J0
N15200 G1 Z-0.8 F60
N15210 G3 X148.25 I-0.75 J0 F200
N15220 X149.75 I0.75 J0
N15230 G1 Z-0.9 F60
N15240 G3 X148.25 I-0.75 J0 F200
N15250 X149.75 I0.75 J0
N15260 G1 Z-1 F60
N15270 G3 X148.25 I-0.75 J0 F200
N15280 X149.75 I0.75 J0
N15290 G1 Z-1.1 F60
N15300 G3 X148.25 I-0.75 J0 F200
N15310 X149.75 I0.75 J0
N15320 G1 Z-1.2 F60
N15330 G3 X148.25 I-0.75 J0 F200
N15340 X149.75 I0.75 J0
N15350 G1 Z-1.3 F60
N15360 G3 X148.25 I-0.75 J0 F200
N15370 X149.75 I0.75 J0
N15380 G1 Z-1.4 F60
N15390 G3 X148.25 I-0.75 J0 F200
N15400 X149.75 I0.75 J0
N15410 G1 Z-1.5 F60
N15420 G3 X148.25 I-0.75 J0 F200
N15430 X149.75 I0.75 J0
N15440 G0 Z2
N15450 X170.867 Y179.123
N15460 G1 Z1.1 F60
N15470 Z-0.1
N15480 G3 X169.469 Y178.581 I-0.699 J-0.271 F200
N15490 X170.867 Y179.123 I0.699 J0.271
N15500 G1 Z-0.2 F60
N15510 G3 X169.469 Y178.581 I-0.699 J-0.271 F200
N15520 X170.867 Y179.123 I0.699 J0.271
N15530 G1 Z-0.3 F60
N15540 G3 X169.469 Y178.581 I-0.699 J-0.271 F200
N15550 X170.867 Y179.123 I0.699 J0.271
N15560 G1 Z-0.4 F60
N15570 G3 X169.469 Y178.581 I-0.699 J-0.271 F200
N15580 X170.867 Y179.123 I0.699 J0.271
N15590 G1 Z-0.5 F60
N15600 G3 X169.469 Y178.581 I-0.699 J-0.271 F200
N15610 X170.867 Y179.123 I0.699 J0.271
N15620 G1 Z-0.6 F60
N15630 G3 X169.469 Y178.581 I-0.699 J-0.271 F200
N15640 X170.867 Y179.123 I0.699 J0.271
N15650 G1 Z-0.7 F60
N15660 G3 X169.469 Y178.581 I-0.699 J-0.271 F200
N15670 X170.867 Y179.123 I0.699 J0.271
N15680 G1 Z-0.8 F60
N15690 G3 X169.469 Y178.581 I-0.699 J-0.271 F200
N15700 X170.867 Y179.123 I0.699 J0.271
N15710 G1 Z-0.9 F60
N15720 G3 X169.469 Y178.581 I-0.699 J-0.271 F200
N15730 X170.867 Y179.123 I0.699 J0.271
N15740 G1 Z-1 F60
N15750 G3 X169.469 Y178.581 I-0.699 J-0.271 F200
N15760 X170.867 Y179.123 I0.699 J0.271
N15770 G1 Z-1.1 F60
N15780 G3 X169.469 Y178.581 I-0.699 J-0.271 F200
N15790 X170.867 Y179.123 I0.699 J0.271
N15800 G1 Z-1.2 F60
N15810 G3 X169.469 Y178.581 I-0.699 J-0.271 F200
N15820 X170.867 Y179.123 I0.699 J0.271
N15830 G1 Z-1.3 F60
N15840 G3 X169.469 Y178.581 I-0.699 J-0.271 F200
N15850 X170.867 Y179.123 I0.699 J0.271
N15860 G1 Z-1.4 F60
N15870 G3 X169.469 Y178.581 I-0.699 J-0.271 F200
N15880 X170.867 Y179.123 I0.699 J0.271
N15890 G1 Z-1.5 F60
N15900 G3 X169.469 Y178.581 I-0.699 J-0.271 F200
N15910 X170.867 Y179.123 I0.699 J0.271
N15920 G0 Z2

(2D ??1 2)
N15930 X115.4 Y143.344
N15940 G1 Z2 F60
N15950 Z1.1
N15960 Z0.1
N15970 G18 G2 X115.6 Z-0.1 I0.2 K0
N15980 G1 X115.8
N15990 G17 G3 X116 Y143.544 I0 J0.2
N16000 G1 Y153.544 F300
N16010 G3 X114 Y155.544 I-2 J0
N16020 G1 X94
N16030 G3 X92 Y153.544 I0 J-2
N16040 G1 Y92.544
N16050 G3 X93 Y91.544 I1 J0
N16060 G1 X98.804
N16070 G3 X99.67 Y92.044 I0 J1
N16080 G2 X108.33 I4.33 J-2.5
N16090 G3 X109.196 Y91.544 I0.866 J0.5
N16100 G1 X115
N16110 G3 X116 Y92.544 I0 J1
N16120 G1 Y143.544
N16130 G3 X115.8 Y143.744 I-0.2 J0 F1000
N16140 G1 X115.6
N16150 G18 G3 X115.4 Z0.1 I0 K0.2
N16160 G0 Z2
N16170 Y143.344
N16180 G1 Z1 F60
N16190 Z0
N16200 G2 X115.6 Z-0.2 I0.2 K0
N16210 G1 X115.8
N16220 G17 G3 X116 Y143.544 I0 J0.2
N16230 G1 Y153.544 F300
N16240 G3 X114 Y155.544 I-2 J0
N16250 G1 X94
N16260 G3 X92 Y153.544 I0 J-2
N16270 G1 Y92.544
N16280 G3 X93 Y91.544 I1 J0
N16290 G1 X98.804
N16300 G3 X99.67 Y92.044 I0 J1
N16310 G2 X108.33 I4.33 J-2.5
N16320 G3 X109.196 Y91.544 I0.866 J0.5
N16330 G1 X115
N16340 G3 X116 Y92.544 I0 J1
N16350 G1 Y143.544
N16360 G3 X115.8 Y143.744 I-0.2 J0 F1000
N16370 G1 X115.6
N16380 G18 G3 X115.4 Z0 I0 K0.2
N16390 G0 Z2
N16400 Y143.344
N16410 G1 Z0.9 F60
N16420 Z-0.1
N16430 G2 X115.6 Z-0.3 I0.2 K0
N16440 G1 X115.8
N16450 G17 G3 X116 Y143.544 I0 J0.2
N16460 G1 Y153.544 F300
N16470 G3 X114 Y155.544 I-2 J0
N16480 G1 X94
N16490 G3 X92 Y153.544 I0 J-2
N16500 G1 Y92.544
N16510 G3 X93 Y91.544 I1 J0
N16520 G1 X98.804
N16530 G3 X99.67 Y92.044 I0 J1
N16540 G2 X108.33 I4.33 J-2.5
N16550 G3 X109.196 Y91.544 I0.866 J0.5
N16560 G1 X115
N16570 G3 X116 Y92.544 I0 J1
N16580 G1 Y143.544
N16590 G3 X115.8 Y143.744 I-0.2 J0 F1000
N16600 G1 X115.6
N16610 G18 G3 X115.4 Z-0.1 I0 K0.2
N16620 G0 Z2
N16630 Y143.344
N16640 G1 Z0.8 F60
N16650 Z-0.2
N16660 G2 X115.6 Z-0.4 I0.2 K0
N16670 G1 X115.8
N16680 G17 G3 X116 Y143.544 I0 J0.2
N16690 G1 Y153.544 F300
N16700 G3 X114 Y155.544 I-2 J0
N16710 G1 X94
N16720 G3 X92 Y153.544 I0 J-2
N16730 G1 Y92.544
N16740 G3 X93 Y91.544 I1 J0
N16750 G1 X98.804
N16760 G3 X99.67 Y92.044 I0 J1
N16770 G2 X108.33 I4.33 J-2.5
N16780 G3 X109.196 Y91.544 I0.866 J0.5
N16790 G1 X115
N16800 G3 X116 Y92.544 I0 J1
N16810 G1 Y143.544
N16820 G3 X115.8 Y143.744 I-0.2 J0 F1000
N16830 G1 X115.6
N16840 G18 G3 X115.4 Z-0.2 I0 K0.2
N16850 G0 Z2
N16860 Y143.344
N16870 G1 Z0.7 F60
N16880 Z-0.3
N16890 G2 X115.6 Z-0.5 I0.2 K0
N16900 G1 X115.8
N16910 G17 G3 X116 Y143.544 I0 J0.2
N16920 G1 Y153.544 F300
N16930 G3 X114 Y155.544 I-2 J0
N16940 G1 X94
N16950 G3 X92 Y153.544 I0 J-2
N16960 G1 Y92.544
N16970 G3 X93 Y91.544 I1 J0
N16980 G1 X98.804
N16990 G3 X99.67 Y92.044 I0 J1
N17000 G2 X108.33 I4.33 J-2.5
N17010 G3 X109.196 Y91.544 I0.866 J0.5
N17020 G1 X115
N17030 G3 X116 Y92.544 I0 J1
N17040 G1 Y143.544
N17050 G3 X115.8 Y143.744 I-0.2 J0 F1000
N17060 G1 X115.6
N17070 G18 G3 X115.4 Z-0.3 I0 K0.2
N17080 G0 Z2
N17090 Y143.344
N17100 G1 Z0.6 F60
N17110 Z-0.4
N17120 G2 X115.6 Z-0.6 I0.2 K0
N17130 G1 X115.8
N17140 G17 G3 X116 Y143.544 I0 J0.2
N17150 G1 Y153.544 F300
N17160 G3 X114 Y155.544 I-2 J0
N17170 G1 X94
N17180 G3 X92 Y153.544 I0 J-2
N17190 G1 Y92.544
N17200 G3 X93 Y91.544 I1 J0
N17210 G1 X98.804
N17220 G3 X99.67 Y92.044 I0 J1
N17230 G2 X108.33 I4.33 J-2.5
N17240 G3 X109.196 Y91.544 I0.866 J0.5
N17250 G1 X115
N17260 G3 X116 Y92.544 I0 J1
N17270 G1 Y143.544
N17280 G3 X115.8 Y143.744 I-0.2 J0 F1000
N17290 G1 X115.6
N17300 G18 G3 X115.4 Z-0.4 I0 K0.2
N17310 G0 Z2
N17320 Y143.344
N17330 G1 Z0.5 F60
N17340 Z-0.5
N17350 G2 X115.6 Z-0.7 I0.2 K0
N17360 G1 X115.8
N17370 G17 G3 X116 Y143.544 I0 J0.2
N17380 G1 Y153.544 F300
N17390 G3 X114 Y155.544 I-2 J0
N17400 G1 X94
N17410 G3 X92 Y153.544 I0 J-2
N17420 G1 Y92.544
N17430 G3 X93 Y91.544 I1 J0
N17440 G1 X98.804
N17450 G3 X99.67 Y92.044 I0 J1
N17460 G2 X108.33 I4.33 J-2.5
N17470 G3 X109.196 Y91.544 I0.866 J0.5
N17480 G1 X115
N17490 G3 X116 Y92.544 I0 J1
N17500 G1 Y143.544
N17510 G3 X115.8 Y143.744 I-0.2 J0 F1000
N17520 G1 X115.6
N17530 G18 G3 X115.4 Z-0.5 I0 K0.2
N17540 G0 Z2
N17550 Y143.344
N17560 G1 Z0.4 F60
N17570 Z-0.6
N17580 G2 X115.6 Z-0.8 I0.2 K0
N17590 G1 X115.8
N17600 G17 G3 X116 Y143.544 I0 J0.2
N17610 G1 Y153.544 F300
N17620 G3 X114 Y155.544 I-2 J0
N17630 G1 X94
N17640 G3 X92 Y153.544 I0 J-2
N17650 G1 Y92.544
N17660 G3 X93 Y91.544 I1 J0
N17670 G1 X98.804
N17680 G3 X99.67 Y92.044 I0 J1
N17690 G2 X108.33 I4.33 J-2.5
N17700 G3 X109.196 Y91.544 I0.866 J0.5
N17710 G1 X115
N17720 G3 X116 Y92.544 I0 J1
N17730 G1 Y143.544
N17740 G3 X115.8 Y143.744 I-0.2 J0 F1000
N17750 G1 X115.6
N17760 G18 G3 X115.4 Z-0.6 I0 K0.2
N17770 G0 Z2
N17780 Y143.344
N17790 G1 Z0.3 F60
N17800 Z-0.7
N17810 G2 X115.6 Z-0.9 I0.2 K0
N17820 G1 X115.8
N17830 G17 G3 X116 Y143.544 I0 J0.2
N17840 G1 Y153.544 F300
N17850 G3 X114 Y155.544 I-2 J0
N17860 G1 X94
N17870 G3 X92 Y153.544 I0 J-2
N17880 G1 Y92.544
N17890 G3 X93 Y91.544 I1 J0
N17900 G1 X98.804
N17910 G3 X99.67 Y92.044 I0 J1
N17920 G2 X108.33 I4.33 J-2.5
N17930 G3 X109.196 Y91.544 I0.866 J0.5
N17940 G1 X115
N17950 G3 X116 Y92.544 I0 J1
N17960 G1 Y143.544
N17970 G3 X115.8 Y143.744 I-0.2 J0 F1000
N17980 G1 X115.6
N17990 G18 G3 X115.4 Z-0.7 I0 K0.2
N18000 G0 Z2
N18010 Y143.344
N18020 G1 Z0.2 F60
N18030 Z-0.8
N18040 G2 X115.6 Z-1 I0.2 K0
N18050 G1 X115.8
N18060 G17 G3 X116 Y143.544 I0 J0.2
N18070 G1 Y153.544 F300
N18080 G3 X114 Y155.544 I-2 J0
N18090 G1 X94
N18100 G3 X92 Y153.544 I0 J-2
N18110 G1 Y92.544
N18120 G3 X93 Y91.544 I1 J0
N18130 G1 X98.804
N18140 G3 X99.67 Y92.044 I0 J1
N18150 G2 X108.33 I4.33 J-2.5
N18160 G3 X109.196 Y91.544 I0.866 J0.5
N18170 G1 X115
N18180 G3 X116 Y92.544 I0 J1
N18190 G1 Y143.544
N18200 G3 X115.8 Y143.744 I-0.2 J0 F1000
N18210 G1 X115.6
N18220 G18 G3 X115.4 Z-0.8 I0 K0.2
N18230 G0 Z2
N18240 Y143.344
N18250 G1 Z0.1 F60
N18260 Z-0.9
N18270 G2 X115.6 Z-1.1 I0.2 K0
N18280 G1 X115.8
N18290 G17 G3 X116 Y143.544 I0 J0.2
N18300 G1 Y153.544 F300
N18310 G3 X114 Y155.544 I-2 J0
N18320 G1 X94
N18330 G3 X92 Y153.544 I0 J-2
N18340 G1 Y132.584
N18350 Y132.384 Z-1
N18360 Y130.384
N18370 Y130.184 Z-1.1 F60
N18380 Y92.544 F300
N18390 G3 X93 Y91.544 I1 J0
N18400 G1 X98.804
N18410 G3 X99.67 Y92.044 I0 J1
N18420 G2 X108.33 I4.33 J-2.5
N18430 G3 X109.196 Y91.544 I0.866 J0.5
N18440 G1 X115
N18450 G3 X116 Y92.544 I0 J1
N18460 G1 Y130.083
N18470 Y130.283 Z-1
N18480 Y132.283
N18490 Y132.483 Z-1.1 F60
N18500 Y143.544 F300
N18510 G3 X115.8 Y143.744 I-0.2 J0 F1000
N18520 G1 X115.6
N18530 G18 G3 X115.4 Z-0.9 I0 K0.2
N18540 G0 Z2
N18550 Y143.344
N18560 G1 Z0 F60
N18570 Z-1
N18580 G2 X115.6 Z-1.2 I0.2 K0
N18590 G1 X115.8
N18600 G17 G3 X116 Y143.544 I0 J0.2
N18610 G1 Y153.544 F300
N18620 G3 X114 Y155.544 I-2 J0
N18630 G1 X94
N18640 G3 X92 Y153.544 I0 J-2
N18650 G1 Y132.784
N18660 Y132.384 Z-1
N18670 Y130.384
N18680 Y129.984 Z-1.2 F60
N18690 Y92.544 F300
N18700 G3 X93 Y91.544 I1 J0
N18710 G1 X98.804
N18720 G3 X99.67 Y92.044 I0 J1
N18730 G2 X108.33 I4.33 J-2.5
N18740 G3 X109.196 Y91.544 I0.866 J0.5
N18750 G1 X115
N18760 G3 X116 Y92.544 I0 J1
N18770 G1 Y129.883
N18780 Y130.283 Z-1
N18790 Y132.283
N18800 Y132.683 Z-1.2 F60
N18810 Y143.544 F300
N18820 G3 X115.8 Y143.744 I-0.2 J0 F1000
N18830 G1 X115.6
N18840 G18 G3 X115.4 Z-1 I0 K0.2
N18850 G0 Z2
N18860 Y143.344
N18870 G1 Z-0.1 F60
N18880 Z-1.1
N18890 G2 X115.6 Z-1.3 I0.2 K0
N18900 G1 X115.8
N18910 G17 G3 X116 Y143.544 I0 J0.2
N18920 G1 Y153.544 F300
N18930 G3 X114 Y155.544 I-2 J0
N18940 G1 X94
N18950 G3 X92 Y153.544 I0 J-2
N18960 G1 Y132.984
N18970 Y132.384 Z-1
N18980 Y130.384
N18990 Y129.784 Z-1.3 F60
N19000 Y92.544 F300
N19010 G3 X93 Y91.544 I1 J0
N19020 G1 X98.804
N19030 G3 X99.67 Y92.044 I0 J1
N19040 G2 X108.33 I4.33 J-2.5
N19050 G3 X109.196 Y91.544 I0.866 J0.5
N19060 G1 X115
N19070 G3 X116 Y92.544 I0 J1
N19080 G1 Y129.683
N19090 Y130.283 Z-1
N19100 Y132.283
N19110 Y132.883 Z-1.3 F60
N19120 Y143.544 F300
N19130 G3 X115.8 Y143.744 I-0.2 J0 F1000
N19140 G1 X115.6
N19150 G18 G3 X115.4 Z-1.1 I0 K0.2
N19160 G0 Z2
N19170 Y143.344
N19180 G1 Z-0.2 F60
N19190 Z-1.2
N19200 G2 X115.6 Z-1.4 I0.2 K0
N19210 G1 X115.8
N19220 G17 G3 X116 Y143.544 I0 J0.2
N19230 G1 Y153.544 F300
N19240 G3 X114 Y155.544 I-2 J0
N19250 G1 X94
N19260 G3 X92 Y153.544 I0 J-2
N19270 G1 Y133.184
N19280 Y132.384 Z-1
N19290 Y130.384
N19300 Y129.584 Z-1.4 F60
N19310 Y92.544 F300
N19320 G3 X93 Y91.544 I1 J0
N19330 G1 X98.804
N19340 G3 X99.67 Y92.044 I0 J1
N19350 G2 X108.33 I4.33 J-2.5
N19360 G3 X109.196 Y91.544 I0.866 J0.5
N19370 G1 X115
N19380 G3 X116 Y92.544 I0 J1
N19390 G1 Y129.483
N19400 Y130.283 Z-1
N19410 Y132.283
N19420 Y133.083 Z-1.4 F60
N19430 Y143.544 F300
N19440 G3 X115.8 Y143.744 I-0.2 J0 F1000
N19450 G1 X115.6
N19460 G18 G3 X115.4 Z-1.2 I0 K0.2
N19470 G0 Z2
N19480 Y143.344
N19490 G1 Z-0.3 F60
N19500 Z-1.3
N19510 G2 X115.6 Z-1.5 I0.2 K0
N19520 G1 X115.8
N19530 G17 G3 X116 Y143.544 I0 J0.2
N19540 G1 Y153.544 F300
N19550 G3 X114 Y155.544 I-2 J0
N19560 G1 X94
N19570 G3 X92 Y153.544 I0 J-2
N19580 G1 Y133.384
N19590 Y132.384 Z-1
N19600 Y130.384
N19610 Y129.384 Z-1.5 F60
N19620 Y92.544 F300
N19630 G3 X93 Y91.544 I1 J0
N19640 G1 X98.804
N19650 G3 X99.67 Y92.044 I0 J1
N19660 G2 X108.33 I4.33 J-2.5
N19670 G3 X109.196 Y91.544 I0.866 J0.5
N19680 G1 X115
N19690 G3 X116 Y92.544 I0 J1
N19700 G1 Y129.283
N19710 Y130.283 Z-1
N19720 Y132.283
N19730 Y133.283 Z-1.5 F60
N19740 Y143.544 F300
N19750 G3 X115.8 Y143.744 I-0.2 J0 F1000
N19760 G1 X115.6
N19770 G18 G3 X115.4 Z-1.3 I0 K0.2
N19780 G0 Z2
N19790 X148.54 Y136.999
N19800 G1 Z1.1 F60
N19810 Z0.1
N19820 X148.546 Y137.003 Z0.048
N19830 X148.563 Y137.013 Z0
N19840 X148.59 Y137.029 Z-0.041
N19850 X148.626 Y137.049 Z-0.073
N19860 X148.668 Y137.074 Z-0.093
N19870 X148.713 Y137.099 Z-0.1
N19880 X148.886 Y137.199
N19890 G17 G3 X148.959 Y137.473 I-0.1 J0.173
N19900 G1 X144.219 Y145.683 F300
N19910 G2 X145.317 Y149.781 I2.598 J1.5
N19920 G1 X146.088 Y150.226
N19930 G3 X146.454 Y151.593 I-0.5 J0.866
N19940 G1 X145.295 Y153.6
N19950 G3 X143.429 Y153.1 I-0.866 J-0.5
N19960 G1 Y148.044
N19970 G2 X134.571 I-4.429 J0
N19980 G1 Y154.544
N19990 G3 X133.571 Y155.544 I-1 J0
N20000 G1 X127.98
N20010 G3 X125.98 Y153.544 I0 J-2
N20020 G1 Y120.145
N20030 G2 X125.965 Y119.844 I-3 J-0.002
N20040 G1 X124.489 Y105.234
N20050 G3 X125.984 Y104.267 I0.995 J-0.1
N20060 G1 X154.13 Y120.517
N20070 G3 X155.594 Y125.981 I-2 J3.464
N20080 G1 X148.959 Y137.473
N20090 G3 X148.686 Y137.546 I-0.173 J-0.1 F1000
N20100 G1 X148.513 Y137.446
N20110 X148.468 Y137.42 Z-0.093
N20120 X148.426 Y137.396 Z-0.073
N20130 X148.39 Y137.375 Z-0.041
N20140 X148.363 Y137.359 Z0
N20150 X148.346 Y137.349 Z0.048
N20160 X148.34 Y137.346 Z0.1
N20170 G0 Z2
N20180 X148.2 Y137.588
N20190 G1 Z1 F60
N20200 Z0
N20210 X148.206 Y137.591 Z-0.052
N20220 X148.223 Y137.601 Z-0.1
N20230 X148.251 Y137.617 Z-0.141
N20240 X148.286 Y137.638 Z-0.173
N20250 X148.328 Y137.662 Z-0.193
N20260 X148.373 Y137.688 Z-0.2
N20270 X148.546 Y137.788
N20280 G3 X148.619 Y138.061 I-0.1 J0.173
N20290 G1 X144.219 Y145.683 F300
N20300 G2 X145.317 Y149.781 I2.598 J1.5
N20310 G1 X146.088 Y150.226
N20320 G3 X146.454 Y151.593 I-0.5 J0.866
N20330 G1 X145.295 Y153.6
N20340 G3 X143.429 Y153.1 I-0.866 J-0.5
N20350 G1 Y148.044
N20360 G2 X134.571 I-4.429 J0
N20370 G1 Y154.544
N20380 G3 X133.571 Y155.544 I-1 J0
N20390 G1 X127.98
N20400 G3 X125.98 Y153.544 I0 J-2
N20410 G1 Y120.145
N20420 G2 X125.965 Y119.844 I-3 J-0.002
N20430 G1 X124.489 Y105.234
N20440 G3 X125.984 Y104.267 I0.995 J-0.1
N20450 G1 X154.13 Y120.517
N20460 G3 X155.594 Y125.981 I-2 J3.464
N20470 G1 X148.619 Y138.061
N20480 G3 X148.346 Y138.134 I-0.173 J-0.1 F1000
N20490 G1 X148.173 Y138.034
N20500 X148.128 Y138.009 Z-0.193
N20510 X148.086 Y137.984 Z-0.173
N20520 X148.051 Y137.964 Z-0.141
N20530 X148.023 Y137.948 Z-0.1
N20540 X148.006 Y137.938 Z-0.052
N20550 X148 Y137.934 Z0
N20560 G0 Z2
N20570 X148.2 Y137.588
N20580 G1 Z0.9 F60
N20590 Z-0.1
N20600 X148.206 Y137.591 Z-0.152
N20610 X148.223 Y137.601 Z-0.2
N20620 X148.251 Y137.617 Z-0.241
N20630 X148.286 Y137.638 Z-0.273
N20640 X148.328 Y137.662 Z-0.293
N20650 X148.373 Y137.688 Z-0.3
N20660 X148.546 Y137.788
N20670 G3 X148.619 Y138.061 I-0.1 J0.173
N20680 G1 X144.219 Y145.683 F300
N20690 G2 X145.317 Y149.781 I2.598 J1.5
N20700 G1 X146.088 Y150.226
N20710 G3 X146.454 Y151.593 I-0.5 J0.866
N20720 G1 X145.295 Y153.6
N20730 G3 X143.429 Y153.1 I-0.866 J-0.5
N20740 G1 Y148.044
N20750 G2 X134.571 I-4.429 J0
N20760 G1 Y154.544
N20770 G3 X133.571 Y155.544 I-1 J0
N20780 G1 X127.98
N20790 G3 X125.98 Y153.544 I0 J-2
N20800 G1 Y120.145
N20810 G2 X125.965 Y119.844 I-3 J-0.002
N20820 G1 X124.489 Y105.234
N20830 G3 X125.984 Y104.267 I0.995 J-0.1
N20840 G1 X154.13 Y120.517
N20850 G3 X155.594 Y125.981 I-2 J3.464
N20860 G1 X148.619 Y138.061
N20870 G3 X148.346 Y138.134 I-0.173 J-0.1 F1000
N20880 G1 X148.173 Y138.034
N20890 X148.128 Y138.009 Z-0.293
N20900 X148.086 Y137.984 Z-0.273
N20910 X148.051 Y137.964 Z-0.241
N20920 X148.023 Y137.948 Z-0.2
N20930 X148.006 Y137.938 Z-0.152
N20940 X148 Y137.934 Z-0.1
N20950 G0 Z2
N20960 X148.2 Y137.588
N20970 G1 Z0.8 F60
N20980 Z-0.2
N20990 X148.206 Y137.591 Z-0.252
N21000 X148.223 Y137.601 Z-0.3
N21010 X148.251 Y137.617 Z-0.341
N21020 X148.286 Y137.638 Z-0.373
N21030 X148.328 Y137.662 Z-0.393
N21040 X148.373 Y137.688 Z-0.4
N21050 X148.546 Y137.788
N21060 G3 X148.619 Y138.061 I-0.1 J0.173
N21070 G1 X144.219 Y145.683 F300
N21080 G2 X145.317 Y149.781 I2.598 J1.5
N21090 G1 X146.088 Y150.226
N21100 G3 X146.454 Y151.593 I-0.5 J0.866
N21110 G1 X145.295 Y153.6
N21120 G3 X143.429 Y153.1 I-0.866 J-0.5
N21130 G1 Y148.044
N21140 G2 X134.571 I-4.429 J0
N21150 G1 Y154.544
N21160 G3 X133.571 Y155.544 I-1 J0
N21170 G1 X127.98
N21180 G3 X125.98 Y153.544 I0 J-2
N21190 G1 Y120.145
N21200 G2 X125.965 Y119.844 I-3 J-0.002
N21210 G1 X124.489 Y105.234
N21220 G3 X125.984 Y104.267 I0.995 J-0.1
N21230 G1 X154.13 Y120.517
N21240 G3 X155.594 Y125.981 I-2 J3.464
N21250 G1 X148.619 Y138.061
N21260 G3 X148.346 Y138.134 I-0.173 J-0.1 F1000
N21270 G1 X148.173 Y138.034
N21280 X148.128 Y138.009 Z-0.393
N21290 X148.086 Y137.984 Z-0.373
N21300 X148.051 Y137.964 Z-0.341
N21310 X148.023 Y137.948 Z-0.3
N21320 X148.006 Y137.938 Z-0.252
N21330 X148 Y137.934 Z-0.2
N21340 G0 Z2
N21350 X148.2 Y137.588
N21360 G1 Z0.7 F60
N21370 Z-0.3
N21380 X148.206 Y137.591 Z-0.352
N21390 X148.223 Y137.601 Z-0.4
N21400 X148.251 Y137.617 Z-0.441
N21410 X148.286 Y137.638 Z-0.473
N21420 X148.328 Y137.662 Z-0.493
N21430 X148.373 Y137.688 Z-0.5
N21440 X148.546 Y137.788
N21450 G3 X148.619 Y138.061 I-0.1 J0.173
N21460 G1 X144.219 Y145.683 F300
N21470 G2 X145.317 Y149.781 I2.598 J1.5
N21480 G1 X146.088 Y150.226
N21490 G3 X146.454 Y151.593 I-0.5 J0.866
N21500 G1 X145.295 Y153.6
N21510 G3 X143.429 Y153.1 I-0.866 J-0.5
N21520 G1 Y148.044
N21530 G2 X134.571 I-4.429 J0
N21540 G1 Y154.544
N21550 G3 X133.571 Y155.544 I-1 J0
N21560 G1 X127.98
N21570 G3 X125.98 Y153.544 I0 J-2
N21580 G1 Y120.145
N21590 G2 X125.965 Y119.844 I-3 J-0.002
N21600 G1 X124.489 Y105.234
N21610 G3 X125.984 Y104.267 I0.995 J-0.1
N21620 G1 X154.13 Y120.517
N21630 G3 X155.594 Y125.981 I-2 J3.464
N21640 G1 X148.619 Y138.061
N21650 G3 X148.346 Y138.134 I-0.173 J-0.1 F1000
N21660 G1 X148.173 Y138.034
N21670 X148.128 Y138.009 Z-0.493
N21680 X148.086 Y137.984 Z-0.473
N21690 X148.051 Y137.964 Z-0.441
N21700 X148.023 Y137.948 Z-0.4
N21710 X148.006 Y137.938 Z-0.352
N21720 X148 Y137.934 Z-0.3
N21730 G0 Z2
N21740 X148.2 Y137.588
N21750 G1 Z0.6 F60
N21760 Z-0.4
N21770 X148.206 Y137.591 Z-0.452
N21780 X148.223 Y137.601 Z-0.5
N21790 X148.251 Y137.617 Z-0.541
N21800 X148.286 Y137.638 Z-0.573
N21810 X148.328 Y137.662 Z-0.593
N21820 X148.373 Y137.688 Z-0.6
N21830 X148.546 Y137.788
N21840 G3 X148.619 Y138.061 I-0.1 J0.173
N21850 G1 X144.219 Y145.683 F300
N21860 G2 X145.317 Y149.781 I2.598 J1.5
N21870 G1 X146.088 Y150.226
N21880 G3 X146.454 Y151.593 I-0.5 J0.866
N21890 G1 X145.295 Y153.6
N21900 G3 X143.429 Y153.1 I-0.866 J-0.5
N21910 G1 Y148.044
N21920 G2 X134.571 I-4.429 J0
N21930 G1 Y154.544
N21940 G3 X133.571 Y155.544 I-1 J0
N21950 G1 X127.98
N21960 G3 X125.98 Y153.544 I0 J-2
N21970 G1 Y120.145
N21980 G2 X125.965 Y119.844 I-3 J-0.002
N21990 G1 X124.489 Y105.234
N22000 G3 X125.984 Y104.267 I0.995 J-0.1
N22010 G1 X154.13 Y120.517
N22020 G3 X155.594 Y125.981 I-2 J3.464
N22030 G1 X148.619 Y138.061
N22040 G3 X148.346 Y138.134 I-0.173 J-0.1 F1000
N22050 G1 X148.173 Y138.034
N22060 X148.128 Y138.009 Z-0.593
N22070 X148.086 Y137.984 Z-0.573
N22080 X148.051 Y137.964 Z-0.541
N22090 X148.023 Y137.948 Z-0.5
N22100 X148.006 Y137.938 Z-0.452
N22110 X148 Y137.934 Z-0.4
N22120 G0 Z2
N22130 X148.2 Y137.588
N22140 G1 Z0.5 F60
N22150 Z-0.5
N22160 X148.206 Y137.591 Z-0.552
N22170 X148.223 Y137.601 Z-0.6
N22180 X148.251 Y137.617 Z-0.641
N22190 X148.286 Y137.638 Z-0.673
N22200 X148.328 Y137.662 Z-0.693
N22210 X148.373 Y137.688 Z-0.7
N22220 X148.546 Y137.788
N22230 G3 X148.619 Y138.061 I-0.1 J0.173
N22240 G1 X144.219 Y145.683 F300
N22250 G2 X145.317 Y149.781 I2.598 J1.5
N22260 G1 X146.088 Y150.226
N22270 G3 X146.454 Y151.593 I-0.5 J0.866
N22280 G1 X145.295 Y153.6
N22290 G3 X143.429 Y153.1 I-0.866 J-0.5
N22300 G1 Y148.044
N22310 G2 X134.571 I-4.429 J0
N22320 G1 Y154.544
N22330 G3 X133.571 Y155.544 I-1 J0
N22340 G1 X127.98
N22350 G3 X125.98 Y153.544 I0 J-2
N22360 G1 Y120.145
N22370 G2 X125.965 Y119.844 I-3 J-0.002
N22380 G1 X124.489 Y105.234
N22390 G3 X125.984 Y104.267 I0.995 J-0.1
N22400 G1 X154.13 Y120.517
N22410 G3 X155.594 Y125.981 I-2 J3.464
N22420 G1 X148.619 Y138.061
N22430 G3 X148.346 Y138.134 I-0.173 J-0.1 F1000
N22440 G1 X148.173 Y138.034
N22450 X148.128 Y138.009 Z-0.693
N22460 X148.086 Y137.984 Z-0.673
N22470 X148.051 Y137.964 Z-0.641
N22480 X148.023 Y137.948 Z-0.6
N22490 X148.006 Y137.938 Z-0.552
N22500 X148 Y137.934 Z-0.5
N22510 G0 Z2
N22520 X148.2 Y137.588
N22530 G1 Z0.4 F60
N22540 Z-0.6
N22550 X148.206 Y137.591 Z-0.652
N22560 X148.223 Y137.601 Z-0.7
N22570 X148.251 Y137.617 Z-0.741
N22580 X148.286 Y137.638 Z-0.773
N22590 X148.328 Y137.662 Z-0.793
N22600 X148.373 Y137.688 Z-0.8
N22610 X148.546 Y137.788
N22620 G3 X148.619 Y138.061 I-0.1 J0.173
N22630 G1 X144.219 Y145.683 F300
N22640 G2 X145.317 Y149.781 I2.598 J1.5
N22650 G1 X146.088 Y150.226
N22660 G3 X146.454 Y151.593 I-0.5 J0.866
N22670 G1 X145.295 Y153.6
N22680 G3 X143.429 Y153.1 I-0.866 J-0.5
N22690 G1 Y148.044
N22700 G2 X134.571 I-4.429 J0
N22710 G1 Y154.544
N22720 G3 X133.571 Y155.544 I-1 J0
N22730 G1 X127.98
N22740 G3 X125.98 Y153.544 I0 J-2
N22750 G1 Y120.145
N22760 G2 X125.965 Y119.844 I-3 J-0.002
N22770 G1 X124.489 Y105.234
N22780 G3 X125.984 Y104.267 I0.995 J-0.1
N22790 G1 X154.13 Y120.517
N22800 G3 X155.594 Y125.981 I-2 J3.464
N22810 G1 X148.619 Y138.061
N22820 G3 X148.346 Y138.134 I-0.173 J-0.1 F1000
N22830 G1 X148.173 Y138.034
N22840 X148.128 Y138.009 Z-0.793
N22850 X148.086 Y137.984 Z-0.773
N22860 X148.051 Y137.964 Z-0.741
N22870 X148.023 Y137.948 Z-0.7
N22880 X148.006 Y137.938 Z-0.652
N22890 X148 Y137.934 Z-0.6
N22900 G0 Z2
N22910 X148.2 Y137.588
N22920 G1 Z0.3 F60
N22930 Z-0.7
N22940 X148.206 Y137.591 Z-0.752
N22950 X148.223 Y137.601 Z-0.8
N22960 X148.251 Y137.617 Z-0.841
N22970 X148.286 Y137.638 Z-0.873
N22980 X148.328 Y137.662 Z-0.893
N22990 X148.373 Y137.688 Z-0.9
N23000 X148.546 Y137.788
N23010 G3 X148.619 Y138.061 I-0.1 J0.173
N23020 G1 X144.219 Y145.683 F300
N23030 G2 X145.317 Y149.781 I2.598 J1.5
N23040 G1 X146.088 Y150.226
N23050 G3 X146.454 Y151.593 I-0.5 J0.866
N23060 G1 X145.295 Y153.6
N23070 G3 X143.429 Y153.1 I-0.866 J-0.5
N23080 G1 Y148.044
N23090 G2 X134.571 I-4.429 J0
N23100 G1 Y154.544
N23110 G3 X133.571 Y155.544 I-1 J0
N23120 G1 X127.98
N23130 G3 X125.98 Y153.544 I0 J-2
N23140 G1 Y120.145
N23150 G2 X125.965 Y119.844 I-3 J-0.002
N23160 G1 X124.489 Y105.234
N23170 G3 X125.984 Y104.267 I0.995 J-0.1
N23180 G1 X154.13 Y120.517
N23190 G3 X155.594 Y125.981 I-2 J3.464
N23200 G1 X148.619 Y138.061
N23210 G3 X148.346 Y138.134 I-0.173 J-0.1 F1000
N23220 G1 X148.173 Y138.034
N23230 X148.128 Y138.009 Z-0.893
N23240 X148.086 Y137.984 Z-0.873
N23250 X148.051 Y137.964 Z-0.841
N23260 X148.023 Y137.948 Z-0.8
N23270 X148.006 Y137.938 Z-0.752
N23280 X148 Y137.934 Z-0.7
N23290 G0 Z2
N23300 X148.2 Y137.588
N23310 G1 Z0.2 F60
N23320 Z-0.8
N23330 X148.206 Y137.591 Z-0.852
N23340 X148.223 Y137.601 Z-0.9
N23350 X148.251 Y137.617 Z-0.941
N23360 X148.286 Y137.638 Z-0.973
N23370 X148.328 Y137.662 Z-0.993
N23380 X148.373 Y137.688 Z-1
N23390 X148.546 Y137.788
N23400 G3 X148.619 Y138.061 I-0.1 J0.173
N23410 G1 X144.219 Y145.683 F300
N23420 G2 X145.317 Y149.781 I2.598 J1.5
N23430 G1 X146.088 Y150.226
N23440 G3 X146.454 Y151.593 I-0.5 J0.866
N23450 G1 X145.295 Y153.6
N23460 G3 X143.429 Y153.1 I-0.866 J-0.5
N23470 G1 Y148.044
N23480 G2 X134.571 I-4.429 J0
N23490 G1 Y154.544
N23500 G3 X133.571 Y155.544 I-1 J0
N23510 G1 X127.98
N23520 G3 X125.98 Y153.544 I0 J-2
N23530 G1 Y120.145
N23540 G2 X125.965 Y119.844 I-3 J-0.002
N23550 G1 X124.489 Y105.234
N23560 G3 X125.984 Y104.267 I0.995 J-0.1
N23570 G1 X154.13 Y120.517
N23580 G3 X155.594 Y125.981 I-2 J3.464
N23590 G1 X148.619 Y138.061
N23600 G3 X148.346 Y138.134 I-0.173 J-0.1 F1000
N23610 G1 X148.173 Y138.034
N23620 X148.128 Y138.009 Z-0.993
N23630 X148.086 Y137.984 Z-0.973
N23640 X148.051 Y137.964 Z-0.941
N23650 X148.023 Y137.948 Z-0.9
N23660 X148.006 Y137.938 Z-0.852
N23670 X148 Y137.934 Z-0.8
N23680 G0 Z2
N23690 X148.2 Y137.588
N23700 G1 Z0.1 F60
N23710 Z-0.9
N23720 X148.206 Y137.591 Z-0.952
N23730 X148.223 Y137.601 Z-1
N23740 X148.251 Y137.617 Z-1.041
N23750 X148.286 Y137.638 Z-1.073
N23760 X148.328 Y137.662 Z-1.093
N23770 X148.373 Y137.688 Z-1.1
N23780 X148.546 Y137.788
N23790 G3 X148.619 Y138.061 I-0.1 J0.173
N23800 G1 X144.219 Y145.683 F300
N23810 G2 X145.317 Y149.781 I2.598 J1.5
N23820 G1 X146.088 Y150.226
N23830 G3 X146.454 Y151.593 I-0.5 J0.866
N23840 G1 X145.295 Y153.6
N23850 G3 X143.429 Y153.1 I-0.866 J-0.5
N23860 G1 Y148.044
N23870 G2 X134.571 I-4.429 J0
N23880 G1 Y154.544
N23890 G3 X133.571 Y155.544 I-1 J0
N23900 G1 X127.98
N23910 G3 X125.98 Y153.544 I0 J-2
N23920 G1 Y132.542
N23930 Y132.342 Z-1
N23940 Y130.342
N23950 Y130.142 Z-1.1 F60
N23960 Y120.145 F300
N23970 G2 X125.965 Y119.844 I-3 J-0.002
N23980 G1 X124.489 Y105.234
N23990 G3 X125.984 Y104.267 I0.995 J-0.1
N24000 G1 X154.13 Y120.517
N24010 G3 X155.594 Y125.981 I-2 J3.464
N24020 G1 X150.818 Y134.252
N24030 X150.718 Y134.426 Z-1
N24040 X149.718 Y136.158
N24050 X149.618 Y136.331 Z-1.1 F60
N24060 X148.619 Y138.061 F300
N24070 G3 X148.346 Y138.134 I-0.173 J-0.1 F1000
N24080 G1 X148.173 Y138.034
N24090 X148.128 Y138.009 Z-1.093
N24100 X148.086 Y137.984 Z-1.073
N24110 X148.051 Y137.964 Z-1.041
N24120 X148.023 Y137.948 Z-1
N24130 X148.006 Y137.938 Z-0.952
N24140 X148 Y137.934 Z-0.9
N24150 G0 Z2
N24160 X148.2 Y137.588
N24170 G1 Z0 F60
N24180 Z-1
N24190 X148.206 Y137.591 Z-1.052
N24200 X148.223 Y137.601 Z-1.1
N24210 X148.251 Y137.617 Z-1.141
N24220 X148.286 Y137.638 Z-1.173
N24230 X148.328 Y137.662 Z-1.193
N24240 X148.373 Y137.688 Z-1.2
N24250 X148.546 Y137.788
N24260 G3 X148.619 Y138.061 I-0.1 J0.173
N24270 G1 X144.219 Y145.683 F300
N24280 G2 X145.317 Y149.781 I2.598 J1.5
N24290 G1 X146.088 Y150.226
N24300 G3 X146.454 Y151.593 I-0.5 J0.866
N24310 G1 X145.295 Y153.6
N24320 G3 X143.429 Y153.1 I-0.866 J-0.5
N24330 G1 Y148.044
N24340 G2 X134.571 I-4.429 J0
N24350 G1 Y154.544
N24360 G3 X133.571 Y155.544 I-1 J0
N24370 G1 X127.98
N24380 G3 X125.98 Y153.544 I0 J-2
N24390 G1 Y132.742
N24400 Y132.342 Z-1
N24410 Y130.342
N24420 Y129.942 Z-1.2 F60
N24430 Y120.145 F300
N24440 G2 X125.965 Y119.844 I-3 J-0.002
N24450 G1 X124.489 Y105.234
N24460 G3 X125.984 Y104.267 I0.995 J-0.1
N24470 G1 X154.13 Y120.517
N24480 G3 X155.594 Y125.981 I-2 J3.464
N24490 G1 X150.918 Y134.079
N24500 X150.718 Y134.426 Z-1
N24510 X149.718 Y136.158
N24520 X149.518 Y136.504 Z-1.2 F60
N24530 X148.619 Y138.061 F300
N24540 G3 X148.346 Y138.134 I-0.173 J-0.1 F1000
N24550 G1 X148.173 Y138.034
N24560 X148.128 Y138.009 Z-1.193
N24570 X148.086 Y137.984 Z-1.173
N24580 X148.051 Y137.964 Z-1.141
N24590 X148.023 Y137.948 Z-1.1
N24600 X148.006 Y137.938 Z-1.052
N24610 X148 Y137.934 Z-1
N24620 G0 Z2
N24630 X148.2 Y137.588
N24640 G1 Z-0.1 F60
N24650 Z-1.1
N24660 X148.206 Y137.591 Z-1.152
N24670 X148.223 Y137.601 Z-1.2
N24680 X148.251 Y137.617 Z-1.241
N24690 X148.286 Y137.638 Z-1.273
N24700 X148.328 Y137.662 Z-1.293
N24710 X148.373 Y137.688 Z-1.3
N24720 X148.546 Y137.788
N24730 G3 X148.619 Y138.061 I-0.1 J0.173
N24740 G1 X144.219 Y145.683 F300
N24750 G2 X145.317 Y149.781 I2.598 J1.5
N24760 G1 X146.088 Y150.226
N24770 G3 X146.454 Y151.593 I-0.5 J0.866
N24780 G1 X145.295 Y153.6
N24790 G3 X143.429 Y153.1 I-0.866 J-0.5
N24800 G1 Y148.044
N24810 G2 X134.571 I-4.429 J0
N24820 G1 Y154.544
N24830 G3 X133.571 Y155.544 I-1 J0
N24840 G1 X127.98
N24850 G3 X125.98 Y153.544 I0 J-2
N24860 G1 Y132.942
N24870 Y132.342 Z-1
N24880 Y130.342
N24890 Y129.742 Z-1.3 F60
N24900 Y120.145 F300
N24910 G2 X125.965 Y119.844 I-3 J-0.002
N24920 G1 X124.489 Y105.234
N24930 G3 X125.984 Y104.267 I0.995 J-0.1
N24940 G1 X154.13 Y120.517
N24950 G3 X155.594 Y125.981 I-2 J3.464
N24960 G1 X151.018 Y133.906
N24970 X150.718 Y134.426 Z-1
N24980 X149.718 Y136.158
N24990 X149.418 Y136.677 Z-1.3 F60
N25000 X148.619 Y138.061 F300
N25010 G3 X148.346 Y138.134 I-0.173 J-0.1 F1000
N25020 G1 X148.173 Y138.034
N25030 X148.128 Y138.009 Z-1.293
N25040 X148.086 Y137.984 Z-1.273
N25050 X148.051 Y137.964 Z-1.241
N25060 X148.023 Y137.948 Z-1.2
N25070 X148.006 Y137.938 Z-1.152
N25080 X148 Y137.934 Z-1.1
N25090 G0 Z2
N25100 X148.2 Y137.588
N25110 G1 Z-0.2 F60
N25120 Z-1.2
N25130 X148.206 Y137.591 Z-1.252
N25140 X148.223 Y137.601 Z-1.3
N25150 X148.251 Y137.617 Z-1.341
N25160 X148.286 Y137.638 Z-1.373
N25170 X148.328 Y137.662 Z-1.393
N25180 X148.373 Y137.688 Z-1.4
N25190 X148.546 Y137.788
N25200 G3 X148.619 Y138.061 I-0.1 J0.173
N25210 G1 X144.219 Y145.683 F300
N25220 G2 X145.317 Y149.781 I2.598 J1.5
N25230 G1 X146.088 Y150.226
N25240 G3 X146.454 Y151.593 I-0.5 J0.866
N25250 G1 X145.295 Y153.6
N25260 G3 X143.429 Y153.1 I-0.866 J-0.5
N25270 G1 Y148.044
N25280 G2 X134.571 I-4.429 J0
N25290 G1 Y154.544
N25300 G3 X133.571 Y155.544 I-1 J0
N25310 G1 X127.98
N25320 G3 X125.98 Y153.544 I0 J-2
N25330 G1 Y133.142
N25340 Y132.342 Z-1
N25350 Y130.342
N25360 Y129.542 Z-1.4 F60
N25370 Y120.145 F300
N25380 G2 X125.965 Y119.844 I-3 J-0.002
N25390 G1 X124.489 Y105.234
N25400 G3 X125.984 Y104.267 I0.995 J-0.1
N25410 G1 X154.13 Y120.517
N25420 G3 X155.594 Y125.981 I-2 J3.464
N25430 G1 X151.118 Y133.733
N25440 X150.718 Y134.426 Z-1
N25450 X149.718 Y136.158
N25460 X149.318 Y136.851 Z-1.4 F60
N25470 X148.619 Y138.061 F300
N25480 G3 X148.346 Y138.134 I-0.173 J-0.1 F1000
N25490 G1 X148.173 Y138.034
N25500 X148.128 Y138.009 Z-1.393
N25510 X148.086 Y137.984 Z-1.373
N25520 X148.051 Y137.964 Z-1.341
N25530 X148.023 Y137.948 Z-1.3
N25540 X148.006 Y137.938 Z-1.252
N25550 X148 Y137.934 Z-1.2
N25560 G0 Z2
N25570 X148.2 Y137.588
N25580 G1 Z-0.3 F60
N25590 Z-1.3
N25600 X148.206 Y137.591 Z-1.352
N25610 X148.223 Y137.601 Z-1.4
N25620 X148.251 Y137.617 Z-1.441
N25630 X148.286 Y137.638 Z-1.473
N25640 X148.328 Y137.662 Z-1.493
N25650 X148.373 Y137.688 Z-1.5
N25660 X148.546 Y137.788
N25670 G3 X148.619 Y138.061 I-0.1 J0.173
N25680 G1 X144.219 Y145.683 F300
N25690 G2 X145.317 Y149.781 I2.598 J1.5
N25700 G1 X146.088 Y150.226
N25710 G3 X146.454 Y151.593 I-0.5 J0.866
N25720 G1 X145.295 Y153.6
N25730 G3 X143.429 Y153.1 I-0.866 J-0.5
N25740 G1 Y148.044
N25750 G2 X134.571 I-4.429 J0
N25760 G1 Y154.544
N25770 G3 X133.571 Y155.544 I-1 J0
N25780 G1 X127.98
N25790 G3 X125.98 Y153.544 I0 J-2
N25800 G1 Y133.342
N25810 Y132.342 Z-1
N25820 Y130.342
N25830 Y129.342 Z-1.5 F60
N25840 Y120.145 F300
N25850 G2 X125.965 Y119.844 I-3 J-0.002
N25860 G1 X124.489 Y105.234
N25870 G3 X125.984 Y104.267 I0.995 J-0.1
N25880 G1 X154.13 Y120.517
N25890 G3 X155.594 Y125.981 I-2 J3.464
N25900 G1 X151.218 Y133.56
N25910 X150.718 Y134.426 Z-1
N25920 X149.718 Y136.158
N25930 X149.218 Y137.024 Z-1.5 F60
N25940 X148.619 Y138.061 F300
N25950 G3 X148.346 Y138.134 I-0.173 J-0.1 F1000
N25960 G1 X148.173 Y138.034
N25970 X148.128 Y138.009 Z-1.493
N25980 X148.086 Y137.984 Z-1.473
N25990 X148.051 Y137.964 Z-1.441
N26000 X148.023 Y137.948 Z-1.4
N26010 X148.006 Y137.938 Z-1.352
N26020 X148 Y137.934 Z-1.3
N26030 G0 Z2
N26040 X166.012 Y142.736
N26050 G1 Z1.1 F60
N26060 Z0.1
N26070 X166.018 Y142.739 Z0.048
N26080 X166.036 Y142.749 Z0
N26090 X166.063 Y142.765 Z-0.041
N26100 X166.099 Y142.786 Z-0.073
N26110 X166.141 Y142.81 Z-0.093
N26120 X166.186 Y142.836 Z-0.1
N26130 X166.359 Y142.936
N26140 G3 X166.432 Y143.209 I-0.1 J0.173
N26150 G1 X164.182 Y147.106 F300
N26160 G3 X162.816 Y147.472 I-0.866 J-0.5
N26170 G1 X155.022 Y142.972
N26180 G3 X154.656 Y141.606 I0.5 J-0.866
N26190 G1 X163.156 Y126.883
N26200 G3 X164.522 Y126.517 I0.866 J0.5
N26210 G1 X172.316 Y131.017
N26220 G3 X172.682 Y132.383 I-0.5 J0.866
N26230 G1 X166.432 Y143.209
N26240 G3 X166.159 Y143.282 I-0.173 J-0.1 F1000
N26250 G1 X165.986 Y143.182
N26260 X165.941 Y143.156 Z-0.093
N26270 X165.899 Y143.132 Z-0.073
N26280 X165.863 Y143.111 Z-0.041
N26290 X165.836 Y143.095 Z0
N26300 X165.818 Y143.085 Z0.048
N26310 X165.812 Y143.082 Z0.1
N26320 G0 Z2
N26330 X166.012 Y142.736
N26340 G1 Z1 F60
N26350 Z0
N26360 X166.018 Y142.739 Z-0.052
N26370 X166.036 Y142.749 Z-0.1
N26380 X166.063 Y142.765 Z-0.141
N26390 X166.099 Y142.786 Z-0.173
N26400 X166.141 Y142.81 Z-0.193
N26410 X166.186 Y142.836 Z-0.2
N26420 X166.359 Y142.936
N26430 G3 X166.432 Y143.209 I-0.1 J0.173
N26440 G1 X164.182 Y147.106 F300
N26450 G3 X162.816 Y147.472 I-0.866 J-0.5
N26460 G1 X155.022 Y142.972
N26470 G3 X154.656 Y141.606 I0.5 J-0.866
N26480 G1 X163.156 Y126.883
N26490 G3 X164.522 Y126.517 I0.866 J0.5
N26500 G1 X172.316 Y131.017
N26510 G3 X172.682 Y132.383 I-0.5 J0.866
N26520 G1 X166.432 Y143.209
N26530 G3 X166.159 Y143.282 I-0.173 J-0.1 F1000
N26540 G1 X165.986 Y143.182
N26550 X165.941 Y143.156 Z-0.193
N26560 X165.899 Y143.132 Z-0.173
N26570 X165.863 Y143.111 Z-0.141
N26580 X165.836 Y143.095 Z-0.1
N26590 X165.818 Y143.085 Z-0.052
N26600 X165.812 Y143.082 Z0
N26610 G0 Z2
N26620 X166.012 Y142.736
N26630 G1 Z0.9 F60
N26640 Z-0.1
N26650 X166.018 Y142.739 Z-0.152
N26660 X166.036 Y142.749 Z-0.2
N26670 X166.063 Y142.765 Z-0.241
N26680 X166.099 Y142.786 Z-0.273
N26690 X166.141 Y142.81 Z-0.293
N26700 X166.186 Y142.836 Z-0.3
N26710 X166.359 Y142.936
N26720 G3 X166.432 Y143.209 I-0.1 J0.173
N26730 G1 X164.182 Y147.106 F300
N26740 G3 X162.816 Y147.472 I-0.866 J-0.5
N26750 G1 X155.022 Y142.972
N26760 G3 X154.656 Y141.606 I0.5 J-0.866
N26770 G1 X163.156 Y126.883
N26780 G3 X164.522 Y126.517 I0.866 J0.5
N26790 G1 X172.316 Y131.017
N26800 G3 X172.682 Y132.383 I-0.5 J0.866
N26810 G1 X166.432 Y143.209
N26820 G3 X166.159 Y143.282 I-0.173 J-0.1 F1000
N26830 G1 X165.986 Y143.182
N26840 X165.941 Y143.156 Z-0.293
N26850 X165.899 Y143.132 Z-0.273
N26860 X165.863 Y143.111 Z-0.241
N26870 X165.836 Y143.095 Z-0.2
N26880 X165.818 Y143.085 Z-0.152
N26890 X165.812 Y143.082 Z-0.1
N26900 G0 Z2
N26910 X166.012 Y142.736
N26920 G1 Z0.8 F60
N26930 Z-0.2
N26940 X166.018 Y142.739 Z-0.252
N26950 X166.036 Y142.749 Z-0.3
N26960 X166.063 Y142.765 Z-0.341
N26970 X166.099 Y142.786 Z-0.373
N26980 X166.141 Y142.81 Z-0.393
N26990 X166.186 Y142.836 Z-0.4
N27000 X166.359 Y142.936
N27010 G3 X166.432 Y143.209 I-0.1 J0.173
N27020 G1 X164.182 Y147.106 F300
N27030 G3 X162.816 Y147.472 I-0.866 J-0.5
N27040 G1 X155.022 Y142.972
N27050 G3 X154.656 Y141.606 I0.5 J-0.866
N27060 G1 X163.156 Y126.883
N27070 G3 X164.522 Y126.517 I0.866 J0.5
N27080 G1 X172.316 Y131.017
N27090 G3 X172.682 Y132.383 I-0.5 J0.866
N27100 G1 X166.432 Y143.209
N27110 G3 X166.159 Y143.282 I-0.173 J-0.1 F1000
N27120 G1 X165.986 Y143.182
N27130 X165.941 Y143.156 Z-0.393
N27140 X165.899 Y143.132 Z-0.373
N27150 X165.863 Y143.111 Z-0.341
N27160 X165.836 Y143.095 Z-0.3
N27170 X165.818 Y143.085 Z-0.252
N27180 X165.812 Y143.082 Z-0.2
N27190 G0 Z2
N27200 X166.012 Y142.736
N27210 G1 Z0.7 F60
N27220 Z-0.3
N27230 X166.018 Y142.739 Z-0.352
N27240 X166.036 Y142.749 Z-0.4
N27250 X166.063 Y142.765 Z-0.441
N27260 X166.099 Y142.786 Z-0.473
N27270 X166.141 Y142.81 Z-0.493
N27280 X166.186 Y142.836 Z-0.5
N27290 X166.359 Y142.936
N27300 G3 X166.432 Y143.209 I-0.1 J0.173
N27310 G1 X164.182 Y147.106 F300
N27320 G3 X162.816 Y147.472 I-0.866 J-0.5
N27330 G1 X155.022 Y142.972
N27340 G3 X154.656 Y141.606 I0.5 J-0.866
N27350 G1 X163.156 Y126.883
N27360 G3 X164.522 Y126.517 I0.866 J0.5
N27370 G1 X172.316 Y131.017
N27380 G3 X172.682 Y132.383 I-0.5 J0.866
N27390 G1 X166.432 Y143.209
N27400 G3 X166.159 Y143.282 I-0.173 J-0.1 F1000
N27410 G1 X165.986 Y143.182
N27420 X165.941 Y143.156 Z-0.493
N27430 X165.899 Y143.132 Z-0.473
N27440 X165.863 Y143.111 Z-0.441
N27450 X165.836 Y143.095 Z-0.4
N27460 X165.818 Y143.085 Z-0.352
N27470 X165.812 Y143.082 Z-0.3
N27480 G0 Z2
N27490 X166.012 Y142.736
N27500 G1 Z0.6 F60
N27510 Z-0.4
N27520 X166.018 Y142.739 Z-0.452
N27530 X166.036 Y142.749 Z-0.5
N27540 X166.063 Y142.765 Z-0.541
N27550 X166.099 Y142.786 Z-0.573
N27560 X166.141 Y142.81 Z-0.593
N27570 X166.186 Y142.836 Z-0.6
N27580 X166.359 Y142.936
N27590 G3 X166.432 Y143.209 I-0.1 J0.173
N27600 G1 X164.182 Y147.106 F300
N27610 G3 X162.816 Y147.472 I-0.866 J-0.5
N27620 G1 X155.022 Y142.972
N27630 G3 X154.656 Y141.606 I0.5 J-0.866
N27640 G1 X163.156 Y126.883
N27650 G3 X164.522 Y126.517 I0.866 J0.5
N27660 G1 X172.316 Y131.017
N27670 G3 X172.682 Y132.383 I-0.5 J0.866
N27680 G1 X166.432 Y143.209
N27690 G3 X166.159 Y143.282 I-0.173 J-0.1 F1000
N27700 G1 X165.986 Y143.182
N27710 X165.941 Y143.156 Z-0.593
N27720 X165.899 Y143.132 Z-0.573
N27730 X165.863 Y143.111 Z-0.541
N27740 X165.836 Y143.095 Z-0.5
N27750 X165.818 Y143.085 Z-0.452
N27760 X165.812 Y143.082 Z-0.4
N27770 G0 Z2
N27780 X166.012 Y142.736
N27790 G1 Z0.5 F60
N27800 Z-0.5
N27810 X166.018 Y142.739 Z-0.552
N27820 X166.036 Y142.749 Z-0.6
N27830 X166.063 Y142.765 Z-0.641
N27840 X166.099 Y142.786 Z-0.673
N27850 X166.141 Y142.81 Z-0.693
N27860 X166.186 Y142.836 Z-0.7
N27870 X166.359 Y142.936
N27880 G3 X166.432 Y143.209 I-0.1 J0.173
N27890 G1 X164.182 Y147.106 F300
N27900 G3 X162.816 Y147.472 I-0.866 J-0.5
N27910 G1 X155.022 Y142.972
N27920 G3 X154.656 Y141.606 I0.5 J-0.866
N27930 G1 X163.156 Y126.883
N27940 G3 X164.522 Y126.517 I0.866 J0.5
N27950 G1 X172.316 Y131.017
N27960 G3 X172.682 Y132.383 I-0.5 J0.866
N27970 G1 X166.432 Y143.209
N27980 G3 X166.159 Y143.282 I-0.173 J-0.1 F1000
N27990 G1 X165.986 Y143.182
N28000 X165.941 Y143.156 Z-0.693
N28010 X165.899 Y143.132 Z-0.673
N28020 X165.863 Y143.111 Z-0.641
N28030 X165.836 Y143.095 Z-0.6
N28040 X165.818 Y143.085 Z-0.552
N28050 X165.812 Y143.082 Z-0.5
N28060 G0 Z2
N28070 X166.012 Y142.736
N28080 G1 Z0.4 F60
N28090 Z-0.6
N28100 X166.018 Y142.739 Z-0.652
N28110 X166.036 Y142.749 Z-0.7
N28120 X166.063 Y142.765 Z-0.741
N28130 X166.099 Y142.786 Z-0.773
N28140 X166.141 Y142.81 Z-0.793
N28150 X166.186 Y142.836 Z-0.8
N28160 X166.359 Y142.936
N28170 G3 X166.432 Y143.209 I-0.1 J0.173
N28180 G1 X164.182 Y147.106 F300
N28190 G3 X162.816 Y147.472 I-0.866 J-0.5
N28200 G1 X155.022 Y142.972
N28210 G3 X154.656 Y141.606 I0.5 J-0.866
N28220 G1 X163.156 Y126.883
N28230 G3 X164.522 Y126.517 I0.866 J0.5
N28240 G1 X172.316 Y131.017
N28250 G3 X172.682 Y132.383 I-0.5 J0.866
N28260 G1 X166.432 Y143.209
N28270 G3 X166.159 Y143.282 I-0.173 J-0.1 F1000
N28280 G1 X165.986 Y143.182
N28290 X165.941 Y143.156 Z-0.793
N28300 X165.899 Y143.132 Z-0.773
N28310 X165.863 Y143.111 Z-0.741
N28320 X165.836 Y143.095 Z-0.7
N28330 X165.818 Y143.085 Z-0.652
N28340 X165.812 Y143.082 Z-0.6
N28350 G0 Z2
N28360 X166.012 Y142.736
N28370 G1 Z0.3 F60
N28380 Z-0.7
N28390 X166.018 Y142.739 Z-0.752
N28400 X166.036 Y142.749 Z-0.8
N28410 X166.063 Y142.765 Z-0.841
N28420 X166.099 Y142.786 Z-0.873
N28430 X166.141 Y142.81 Z-0.893
N28440 X166.186 Y142.836 Z-0.9
N28450 X166.359 Y142.936
N28460 G3 X166.432 Y143.209 I-0.1 J0.173
N28470 G1 X164.182 Y147.106 F300
N28480 G3 X162.816 Y147.472 I-0.866 J-0.5
N28490 G1 X155.022 Y142.972
N28500 G3 X154.656 Y141.606 I0.5 J-0.866
N28510 G1 X163.156 Y126.883
N28520 G3 X164.522 Y126.517 I0.866 J0.5
N28530 G1 X172.316 Y131.017
N28540 G3 X172.682 Y132.383 I-0.5 J0.866
N28550 G1 X166.432 Y143.209
N28560 G3 X166.159 Y143.282 I-0.173 J-0.1 F1000
N28570 G1 X165.986 Y143.182
N28580 X165.941 Y143.156 Z-0.893
N28590 X165.899 Y143.132 Z-0.873
N28600 X165.863 Y143.111 Z-0.841
N28610 X165.836 Y143.095 Z-0.8
N28620 X165.818 Y143.085 Z-0.752
N28630 X165.812 Y143.082 Z-0.7
N28640 G0 Z2
N28650 X166.012 Y142.736
N28660 G1 Z0.2 F60
N28670 Z-0.8
N28680 X166.018 Y142.739 Z-0.852
N28690 X166.036 Y142.749 Z-0.9
N28700 X166.063 Y142.765 Z-0.941
N28710 X166.099 Y142.786 Z-0.973
N28720 X166.141 Y142.81 Z-0.993
N28730 X166.186 Y142.836 Z-1
N28740 X166.359 Y142.936
N28750 G3 X166.432 Y143.209 I-0.1 J0.173
N28760 G1 X164.182 Y147.106 F300
N28770 G3 X162.816 Y147.472 I-0.866 J-0.5
N28780 G1 X155.022 Y142.972
N28790 G3 X154.656 Y141.606 I0.5 J-0.866
N28800 G1 X163.156 Y126.883
N28810 G3 X164.522 Y126.517 I0.866 J0.5
N28820 G1 X172.316 Y131.017
N28830 G3 X172.682 Y132.383 I-0.5 J0.866
N28840 G1 X166.432 Y143.209
N28850 G3 X166.159 Y143.282 I-0.173 J-0.1 F1000
N28860 G1 X165.986 Y143.182
N28870 X165.941 Y143.156 Z-0.993
N28880 X165.899 Y143.132 Z-0.973
N28890 X165.863 Y143.111 Z-0.941
N28900 X165.836 Y143.095 Z-0.9
N28910 X165.818 Y143.085 Z-0.852
N28920 X165.812 Y143.082 Z-0.8
N28930 G0 Z2
N28940 X166.012 Y142.736
N28950 G1 Z0.1 F60
N28960 Z-0.9
N28970 X166.018 Y142.739 Z-0.952
N28980 X166.036 Y142.749 Z-1
N28990 X166.063 Y142.765 Z-1.041
N29000 X166.099 Y142.786 Z-1.073
N29010 X166.141 Y142.81 Z-1.093
N29020 X166.186 Y142.836 Z-1.1
N29030 X166.359 Y142.936
N29040 G3 X166.432 Y143.209 I-0.1 J0.173
N29050 G1 X164.182 Y147.106 F300
N29060 G3 X162.816 Y147.472 I-0.866 J-0.5
N29070 G1 X155.022 Y142.972
N29080 G3 X154.656 Y141.606 I0.5 J-0.866
N29090 G1 X163.156 Y126.883
N29100 G3 X164.522 Y126.517 I0.866 J0.5
N29110 G1 X172.316 Y131.017
N29120 G3 X172.682 Y132.383 I-0.5 J0.866
N29130 G1 X169.234 Y138.355
N29140 X169.134 Y138.528 Z-1
N29150 X168.134 Y140.26
N29160 X168.034 Y140.433 Z-1.1 F60
N29170 X166.432 Y143.209 F300
N29180 G3 X166.159 Y143.282 I-0.173 J-0.1 F1000
N29190 G1 X165.986 Y143.182
N29200 X165.941 Y143.156 Z-1.093
N29210 X165.899 Y143.132 Z-1.073
N29220 X165.863 Y143.111 Z-1.041
N29230 X165.836 Y143.095 Z-1
N29240 X165.818 Y143.085 Z-0.952
N29250 X165.812 Y143.082 Z-0.9
N29260 G0 Z2
N29270 X166.012 Y142.736
N29280 G1 Z0 F60
N29290 Z-1
N29300 X166.018 Y142.739 Z-1.052
N29310 X166.036 Y142.749 Z-1.1
N29320 X166.063 Y142.765 Z-1.141
N29330 X166.099 Y142.786 Z-1.173
N29340 X166.141 Y142.81 Z-1.193
N29350 X166.186 Y142.836 Z-1.2
N29360 X166.359 Y142.936
N29370 G3 X166.432 Y143.209 I-0.1 J0.173
N29380 G1 X164.182 Y147.106 F300
N29390 G3 X162.816 Y147.472 I-0.866 J-0.5
N29400 G1 X155.022 Y142.972
N29410 G3 X154.656 Y141.606 I0.5 J-0.866
N29420 G1 X163.156 Y126.883
N29430 G3 X164.522 Y126.517 I0.866 J0.5
N29440 G1 X172.316 Y131.017
N29450 G3 X172.682 Y132.383 I-0.5 J0.866
N29460 G1 X169.334 Y138.182
N29470 X169.134 Y138.528 Z-1
N29480 X168.134 Y140.26
N29490 X167.934 Y140.607 Z-1.2 F60
N29500 X166.432 Y143.209 F300
N29510 G3 X166.159 Y143.282 I-0.173 J-0.1 F1000
N29520 G1 X165.986 Y143.182
N29530 X165.941 Y143.156 Z-1.193
N29540 X165.899 Y143.132 Z-1.173
N29550 X165.863 Y143.111 Z-1.141
N29560 X165.836 Y143.095 Z-1.1
N29570 X165.818 Y143.085 Z-1.052
N29580 X165.812 Y143.082 Z-1
N29590 G0 Z2
N29600 X166.012 Y142.736
N29610 G1 Z-0.1 F60
N29620 Z-1.1
N29630 X166.018 Y142.739 Z-1.152
N29640 X166.036 Y142.749 Z-1.2
N29650 X166.063 Y142.765 Z-1.241
N29660 X166.099 Y142.786 Z-1.273
N29670 X166.141 Y142.81 Z-1.293
N29680 X166.186 Y142.836 Z-1.3
N29690 X166.359 Y142.936
N29700 G3 X166.432 Y143.209 I-0.1 J0.173
N29710 G1 X164.182 Y147.106 F300
N29720 G3 X162.816 Y147.472 I-0.866 J-0.5
N29730 G1 X155.022 Y142.972
N29740 G3 X154.656 Y141.606 I0.5 J-0.866
N29750 G1 X163.156 Y126.883
N29760 G3 X164.522 Y126.517 I0.866 J0.5
N29770 G1 X172.316 Y131.017
N29780 G3 X172.682 Y132.383 I-0.5 J0.866
N29790 G1 X169.434 Y138.008
N29800 X169.134 Y138.528 Z-1
N29810 X168.134 Y140.26
N29820 X167.834 Y140.78 Z-1.3 F60
N29830 X166.432 Y143.209 F300
N29840 G3 X166.159 Y143.282 I-0.173 J-0.1 F1000
N29850 G1 X165.986 Y143.182
N29860 X165.941 Y143.156 Z-1.293
N29870 X165.899 Y143.132 Z-1.273
N29880 X165.863 Y143.111 Z-1.241
N29890 X165.836 Y143.095 Z-1.2
N29900 X165.818 Y143.085 Z-1.152
N29910 X165.812 Y143.082 Z-1.1
N29920 G0 Z2
N29930 X166.012 Y142.736
N29940 G1 Z-0.2 F60
N29950 Z-1.2
N29960 X166.018 Y142.739 Z-1.252
N29970 X166.036 Y142.749 Z-1.3
N29980 X166.063 Y142.765 Z-1.341
N29990 X166.099 Y142.786 Z-1.373
N30000 X166.141 Y142.81 Z-1.393
N30010 X166.186 Y142.836 Z-1.4
N30020 X166.359 Y142.936
N30030 G3 X166.432 Y143.209 I-0.1 J0.173
N30040 G1 X164.182 Y147.106 F300
N30050 G3 X162.816 Y147.472 I-0.866 J-0.5
N30060 G1 X155.022 Y142.972
N30070 G3 X154.656 Y141.606 I0.5 J-0.866
N30080 G1 X163.156 Y126.883
N30090 G3 X164.522 Y126.517 I0.866 J0.5
N30100 G1 X172.316 Y131.017
N30110 G3 X172.682 Y132.383 I-0.5 J0.866
N30120 G1 X169.534 Y137.835
N30130 X169.134 Y138.528 Z-1
N30140 X168.134 Y140.26
N30150 X167.734 Y140.953 Z-1.4 F60
N30160 X166.432 Y143.209 F300
N30170 G3 X166.159 Y143.282 I-0.173 J-0.1 F1000
N30180 G1 X165.986 Y143.182
N30190 X165.941 Y143.156 Z-1.393
N30200 X165.899 Y143.132 Z-1.373
N30210 X165.863 Y143.111 Z-1.341
N30220 X165.836 Y143.095 Z-1.3
N30230 X165.818 Y143.085 Z-1.252
N30240 X165.812 Y143.082 Z-1.2
N30250 G0 Z2
N30260 X166.012 Y142.736
N30270 G1 Z-0.3 F60
N30280 Z-1.3
N30290 X166.018 Y142.739 Z-1.352
N30300 X166.036 Y142.749 Z-1.4
N30310 X166.063 Y142.765 Z-1.441
N30320 X166.099 Y142.786 Z-1.473
N30330 X166.141 Y142.81 Z-1.493
N30340 X166.186 Y142.836 Z-1.5
N30350 X166.359 Y142.936
N30360 G3 X166.432 Y143.209 I-0.1 J0.173
N30370 G1 X164.182 Y147.106 F300
N30380 G3 X162.816 Y147.472 I-0.866 J-0.5
N30390 G1 X155.022 Y142.972
N30400 G3 X154.656 Y141.606 I0.5 J-0.866
N30410 G1 X163.156 Y126.883
N30420 G3 X164.522 Y126.517 I0.866 J0.5
N30430 G1 X172.316 Y131.017
N30440 G3 X172.682 Y132.383 I-0.5 J0.866
N30450 G1 X169.634 Y137.662
N30460 X169.134 Y138.528 Z-1
N30470 X168.134 Y140.26
N30480 X167.634 Y141.126 Z-1.5 F60
N30490 X166.432 Y143.209 F300
N30500 G3 X166.159 Y143.282 I-0.173 J-0.1 F1000
N30510 G1 X165.986 Y143.182
N30520 X165.941 Y143.156 Z-1.493
N30530 X165.899 Y143.132 Z-1.473
N30540 X165.863 Y143.111 Z-1.441
N30550 X165.836 Y143.095 Z-1.4
N30560 X165.818 Y143.085 Z-1.352
N30570 X165.812 Y143.082 Z-1.3
N30580 G0 Z2
N30590 X185.002 Y110.841
N30600 G1 Z1.1 F60
N30610 Z0.1
N30620 X185.006 Y110.846 Z0.048
N30630 X185.018 Y110.862 Z0
N30640 X185.038 Y110.887 Z-0.041
N30650 X185.063 Y110.92 Z-0.073
N30660 X185.092 Y110.958 Z-0.093
N30670 X185.124 Y110.999 Z-0.1
N30680 X185.246 Y111.157
N30690 G3 X185.21 Y111.438 I-0.158 J0.122
N30700 G2 X183.932 Y112.898 I3.052 J3.96 F300
N30710 G1 X178.432 Y122.424
N30720 G3 X177.066 Y122.79 I-0.866 J-0.5
N30730 G1 X123.559 Y91.898
N30740 G3 X123.065 Y91.133 I0.5 J-0.865
N30750 G1 Y91.131
N30760 X123.005 Y90.544
N30770 X123 Y90.444
N30780 Y80.222
N30790 G3 X123.293 Y79.515 I1 J0
N30800 G1 X139.184 Y63.624
N30810 G3 X144.841 I2.828 J2.828
N30820 G1 X155.195 Y73.977
N30830 G2 X159.437 I2.121 J-2.121
N30840 G1 X169.337 Y64.078
N30850 G3 X170.751 I0.707 J0.707
N30860 G1 X178.529 Y71.856
N30870 G2 X185.6 I3.536 J-3.536
N30880 G1 X192.859 Y64.597
N30890 G3 X194.49 Y64.92 I0.707 J0.707
N30900 X201.367 Y91.431 I-90.49 J37.624
N30910 X201.979 Y100.524 I-97.367 J11.118
N30920 Y104.565 I-97.979 J2.021
N30930 X201.365 Y113.676 I-97.979 J-2.024
N30940 X201.145 Y115.466 I-97.369 J-11.101
N30950 X199.653 Y116.201 I-0.992 J-0.132
N30960 G1 X190.762 Y111.068
N30970 G2 X185.21 Y111.438 I-2.5 J4.33
N30980 G3 X184.929 Y111.402 I-0.122 J-0.158 F1000
N30990 G1 X184.807 Y111.243
N31000 X184.775 Y111.202 Z-0.093
N31010 X184.746 Y111.164 Z-0.073
N31020 X184.721 Y111.131 Z-0.041
N31030 X184.701 Y111.106 Z0
N31040 X184.689 Y111.09 Z0.048
N31050 X184.685 Y111.085 Z0.1
N31060 G0 Z2
N31070 X185.002 Y110.841
N31080 G1 Z1 F60
N31090 Z0
N31100 X185.006 Y110.846 Z-0.052
N31110 X185.018 Y110.862 Z-0.1
N31120 X185.038 Y110.887 Z-0.141
N31130 X185.063 Y110.92 Z-0.173
N31140 X185.092 Y110.958 Z-0.193
N31150 X185.124 Y110.999 Z-0.2
N31160 X185.246 Y111.157
N31170 G3 X185.21 Y111.438 I-0.158 J0.122
N31180 G2 X183.932 Y112.898 I3.052 J3.96 F300
N31190 G1 X178.432 Y122.424
N31200 G3 X177.066 Y122.79 I-0.866 J-0.5
N31210 G1 X123.559 Y91.898
N31220 G3 X123.065 Y91.133 I0.5 J-0.865
N31230 G1 Y91.131
N31240 X123.005 Y90.544
N31250 X123 Y90.444
N31260 Y80.222
N31270 G3 X123.293 Y79.515 I1 J0
N31280 G1 X139.184 Y63.624
N31290 G3 X144.841 I2.828 J2.828
N31300 G1 X155.195 Y73.977
N31310 G2 X159.437 I2.121 J-2.121
N31320 G1 X169.337 Y64.078
N31330 G3 X170.751 I0.707 J0.707
N31340 G1 X178.529 Y71.856
N31350 G2 X185.6 I3.536 J-3.536
N31360 G1 X192.859 Y64.597
N31370 G3 X194.49 Y64.92 I0.707 J0.707
N31380 X201.367 Y91.431 I-90.49 J37.624
N31390 X201.979 Y100.524 I-97.367 J11.118
N31400 Y104.565 I-97.979 J2.021
N31410 X201.365 Y113.676 I-97.979 J-2.024
N31420 X201.145 Y115.466 I-97.369 J-11.101
N31430 X199.653 Y116.201 I-0.992 J-0.132
N31440 G1 X190.762 Y111.068
N31450 G2 X185.21 Y111.438 I-2.5 J4.33
N31460 G3 X184.929 Y111.402 I-0.122 J-0.158 F1000
N31470 G1 X184.807 Y111.243
N31480 X184.775 Y111.202 Z-0.193
N31490 X184.746 Y111.164 Z-0.173
N31500 X184.721 Y111.131 Z-0.141
N31510 X184.701 Y111.106 Z-0.1
N31520 X184.689 Y111.09 Z-0.052
N31530 X184.685 Y111.085 Z0
N31540 G0 Z2
N31550 X185.002 Y110.841
N31560 G1 Z0.9 F60
N31570 Z-0.1
N31580 X185.006 Y110.846 Z-0.152
N31590 X185.018 Y110.862 Z-0.2
N31600 X185.038 Y110.887 Z-0.241
N31610 X185.063 Y110.92 Z-0.273
N31620 X185.092 Y110.958 Z-0.293
N31630 X185.124 Y110.999 Z-0.3
N31640 X185.246 Y111.157
N31650 G3 X185.21 Y111.438 I-0.158 J0.122
N31660 G2 X183.932 Y112.898 I3.052 J3.96 F300
N31670 G1 X178.432 Y122.424
N31680 G3 X177.066 Y122.79 I-0.866 J-0.5
N31690 G1 X123.559 Y91.898
N31700 G3 X123.065 Y91.133 I0.5 J-0.865
N31710 G1 Y91.131
N31720 X123.005 Y90.544
N31730 X123 Y90.444
N31740 Y80.222
N31750 G3 X123.293 Y79.515 I1 J0
N31760 G1 X139.184 Y63.624
N31770 G3 X144.841 I2.828 J2.828
N31780 G1 X155.195 Y73.977
N31790 G2 X159.437 I2.121 J-2.121
N31800 G1 X169.337 Y64.078
N31810 G3 X170.751 I0.707 J0.707
N31820 G1 X178.529 Y71.856
N31830 G2 X185.6 I3.536 J-3.536
N31840 G1 X192.859 Y64.597
N31850 G3 X194.49 Y64.92 I0.707 J0.707
N31860 X201.367 Y91.431 I-90.49 J37.624
N31870 X201.979 Y100.524 I-97.367 J11.118
N31880 Y104.565 I-97.979 J2.021
N31890 X201.365 Y113.676 I-97.979 J-2.024
N31900 X201.145 Y115.466 I-97.369 J-11.101
N31910 X199.653 Y116.201 I-0.992 J-0.132
N31920 G1 X190.762 Y111.068
N31930 G2 X185.21 Y111.438 I-2.5 J4.33
N31940 G3 X184.929 Y111.402 I-0.122 J-0.158 F1000
N31950 G1 X184.807 Y111.243
N31960 X184.775 Y111.202 Z-0.293
N31970 X184.746 Y111.164 Z-0.273
N31980 X184.721 Y111.131 Z-0.241
N31990 X184.701 Y111.106 Z-0.2
N32000 X184.689 Y111.09 Z-0.152
N32010 X184.685 Y111.085 Z-0.1
N32020 G0 Z2
N32030 X185.002 Y110.841
N32040 G1 Z0.8 F60
N32050 Z-0.2
N32060 X185.006 Y110.846 Z-0.252
N32070 X185.018 Y110.862 Z-0.3
N32080 X185.038 Y110.887 Z-0.341
N32090 X185.063 Y110.92 Z-0.373
N32100 X185.092 Y110.958 Z-0.393
N32110 X185.124 Y110.999 Z-0.4
N32120 X185.246 Y111.157
N32130 G3 X185.21 Y111.438 I-0.158 J0.122
N32140 G2 X183.932 Y112.898 I3.052 J3.96 F300
N32150 G1 X178.432 Y122.424
N32160 G3 X177.066 Y122.79 I-0.866 J-0.5
N32170 G1 X123.559 Y91.898
N32180 G3 X123.065 Y91.133 I0.5 J-0.865
N32190 G1 Y91.131
N32200 X123.005 Y90.544
N32210 X123 Y90.444
N32220 Y80.222
N32230 G3 X123.293 Y79.515 I1 J0
N32240 G1 X139.184 Y63.624
N32250 G3 X144.841 I2.828 J2.828
N32260 G1 X155.195 Y73.977
N32270 G2 X159.437 I2.121 J-2.121
N32280 G1 X169.337 Y64.078
N32290 G3 X170.751 I0.707 J0.707
N32300 G1 X178.529 Y71.856
N32310 G2 X185.6 I3.536 J-3.536
N32320 G1 X192.859 Y64.597
N32330 G3 X194.49 Y64.92 I0.707 J0.707
N32340 X201.367 Y91.431 I-90.49 J37.624
N32350 X201.979 Y100.524 I-97.367 J11.118
N32360 Y104.565 I-97.979 J2.021
N32370 X201.365 Y113.676 I-97.979 J-2.024
N32380 X201.145 Y115.466 I-97.369 J-11.101
N32390 X199.653 Y116.201 I-0.992 J-0.132
N32400 G1 X190.762 Y111.068
N32410 G2 X185.21 Y111.438 I-2.5 J4.33
N32420 G3 X184.929 Y111.402 I-0.122 J-0.158 F1000
N32430 G1 X184.807 Y111.243
N32440 X184.775 Y111.202 Z-0.393
N32450 X184.746 Y111.164 Z-0.373
N32460 X184.721 Y111.131 Z-0.341
N32470 X184.701 Y111.106 Z-0.3
N32480 X184.689 Y111.09 Z-0.252
N32490 X184.685 Y111.085 Z-0.2
N32500 G0 Z2
N32510 X185.002 Y110.841
N32520 G1 Z0.7 F60
N32530 Z-0.3
N32540 X185.006 Y110.846 Z-0.352
N32550 X185.018 Y110.862 Z-0.4
N32560 X185.038 Y110.887 Z-0.441
N32570 X185.063 Y110.92 Z-0.473
N32580 X185.092 Y110.958 Z-0.493
N32590 X185.124 Y110.999 Z-0.5
N32600 X185.246 Y111.157
N32610 G3 X185.21 Y111.438 I-0.158 J0.122
N32620 G2 X183.932 Y112.898 I3.052 J3.96 F300
N32630 G1 X178.432 Y122.424
N32640 G3 X177.066 Y122.79 I-0.866 J-0.5
N32650 G1 X123.559 Y91.898
N32660 G3 X123.065 Y91.133 I0.5 J-0.865
N32670 G1 Y91.131
N32680 X123.005 Y90.544
N32690 X123 Y90.444
N32700 Y80.222
N32710 G3 X123.293 Y79.515 I1 J0
N32720 G1 X139.184 Y63.624
N32730 G3 X144.841 I2.828 J2.828
N32740 G1 X155.195 Y73.977
N32750 G2 X159.437 I2.121 J-2.121
N32760 G1 X169.337 Y64.078
N32770 G3 X170.751 I0.707 J0.707
N32780 G1 X178.529 Y71.856
N32790 G2 X185.6 I3.536 J-3.536
N32800 G1 X192.859 Y64.597
N32810 G3 X194.49 Y64.92 I0.707 J0.707
N32820 X201.367 Y91.431 I-90.49 J37.624
N32830 X201.979 Y100.524 I-97.367 J11.118
N32840 Y104.565 I-97.979 J2.021
N32850 X201.365 Y113.676 I-97.979 J-2.024
N32860 X201.145 Y115.466 I-97.369 J-11.101
N32870 X199.653 Y116.201 I-0.992 J-0.132
N32880 G1 X190.762 Y111.068
N32890 G2 X185.21 Y111.438 I-2.5 J4.33
N32900 G3 X184.929 Y111.402 I-0.122 J-0.158 F1000
N32910 G1 X184.807 Y111.243
N32920 X184.775 Y111.202 Z-0.493
N32930 X184.746 Y111.164 Z-0.473
N32940 X184.721 Y111.131 Z-0.441
N32950 X184.701 Y111.106 Z-0.4
N32960 X184.689 Y111.09 Z-0.352
N32970 X184.685 Y111.085 Z-0.3
N32980 G0 Z2
N32990 X185.002 Y110.841
N33000 G1 Z0.6 F60
N33010 Z-0.4
N33020 X185.006 Y110.846 Z-0.452
N33030 X185.018 Y110.862 Z-0.5
N33040 X185.038 Y110.887 Z-0.541
N33050 X185.063 Y110.92 Z-0.573
N33060 X185.092 Y110.958 Z-0.593
N33070 X185.124 Y110.999 Z-0.6
N33080 X185.246 Y111.157
N33090 G3 X185.21 Y111.438 I-0.158 J0.122
N33100 G2 X183.932 Y112.898 I3.052 J3.96 F300
N33110 G1 X178.432 Y122.424
N33120 G3 X177.066 Y122.79 I-0.866 J-0.5
N33130 G1 X123.559 Y91.898
N33140 G3 X123.065 Y91.133 I0.5 J-0.865
N33150 G1 Y91.131
N33160 X123.005 Y90.544
N33170 X123 Y90.444
N33180 Y80.222
N33190 G3 X123.293 Y79.515 I1 J0
N33200 G1 X139.184 Y63.624
N33210 G3 X144.841 I2.828 J2.828
N33220 G1 X155.195 Y73.977
N33230 G2 X159.437 I2.121 J-2.121
N33240 G1 X169.337 Y64.078
N33250 G3 X170.751 I0.707 J0.707
N33260 G1 X178.529 Y71.856
N33270 G2 X185.6 I3.536 J-3.536
N33280 G1 X192.859 Y64.597
N33290 G3 X194.49 Y64.92 I0.707 J0.707
N33300 X201.367 Y91.431 I-90.49 J37.624
N33310 X201.979 Y100.524 I-97.367 J11.118
N33320 Y104.565 I-97.979 J2.021
N33330 X201.365 Y113.676 I-97.979 J-2.024
N33340 X201.145 Y115.466 I-97.369 J-11.101
N33350 X199.653 Y116.201 I-0.992 J-0.132
N33360 G1 X190.762 Y111.068
N33370 G2 X185.21 Y111.438 I-2.5 J4.33
N33380 G3 X184.929 Y111.402 I-0.122 J-0.158 F1000
N33390 G1 X184.807 Y111.243
N33400 X184.775 Y111.202 Z-0.593
N33410 X184.746 Y111.164 Z-0.573
N33420 X184.721 Y111.131 Z-0.541
N33430 X184.701 Y111.106 Z-0.5
N33440 X184.689 Y111.09 Z-0.452
N33450 X184.685 Y111.085 Z-0.4
N33460 G0 Z2
N33470 X185.002 Y110.841
N33480 G1 Z0.5 F60
N33490 Z-0.5
N33500 X185.006 Y110.846 Z-0.552
N33510 X185.018 Y110.862 Z-0.6
N33520 X185.038 Y110.887 Z-0.641
N33530 X185.063 Y110.92 Z-0.673
N33540 X185.092 Y110.958 Z-0.693
N33550 X185.124 Y110.999 Z-0.7
N33560 X185.246 Y111.157
N33570 G3 X185.21 Y111.438 I-0.158 J0.122
N33580 G2 X183.932 Y112.898 I3.052 J3.96 F300
N33590 G1 X178.432 Y122.424
N33600 G3 X177.066 Y122.79 I-0.866 J-0.5
N33610 G1 X123.559 Y91.898
N33620 G3 X123.065 Y91.133 I0.5 J-0.865
N33630 G1 Y91.131
N33640 X123.005 Y90.544
N33650 X123 Y90.444
N33660 Y80.222
N33670 G3 X123.293 Y79.515 I1 J0
N33680 G1 X139.184 Y63.624
N33690 G3 X144.841 I2.828 J2.828
N33700 G1 X155.195 Y73.977
N33710 G2 X159.437 I2.121 J-2.121
N33720 G1 X169.337 Y64.078
N33730 G3 X170.751 I0.707 J0.707
N33740 G1 X178.529 Y71.856
N33750 G2 X185.6 I3.536 J-3.536
N33760 G1 X192.859 Y64.597
N33770 G3 X194.49 Y64.92 I0.707 J0.707
N33780 X201.367 Y91.431 I-90.49 J37.624
N33790 X201.979 Y100.524 I-97.367 J11.118
N33800 Y104.565 I-97.979 J2.021
N33810 X201.365 Y113.676 I-97.979 J-2.024
N33820 X201.145 Y115.466 I-97.369 J-11.101
N33830 X199.653 Y116.201 I-0.992 J-0.132
N33840 G1 X190.762 Y111.068
N33850 G2 X185.21 Y111.438 I-2.5 J4.33
N33860 G3 X184.929 Y111.402 I-0.122 J-0.158 F1000
N33870 G1 X184.807 Y111.243
N33880 X184.775 Y111.202 Z-0.693
N33890 X184.746 Y111.164 Z-0.673
N33900 X184.721 Y111.131 Z-0.641
N33910 X184.701 Y111.106 Z-0.6
N33920 X184.689 Y111.09 Z-0.552
N33930 X184.685 Y111.085 Z-0.5
N33940 G0 Z2
N33950 X185.002 Y110.841
N33960 G1 Z0.4 F60
N33970 Z-0.6
N33980 X185.006 Y110.846 Z-0.652
N33990 X185.018 Y110.862 Z-0.7
N34000 X185.038 Y110.887 Z-0.741
N34010 X185.063 Y110.92 Z-0.773
N34020 X185.092 Y110.958 Z-0.793
N34030 X185.124 Y110.999 Z-0.8
N34040 X185.246 Y111.157
N34050 G3 X185.21 Y111.438 I-0.158 J0.122
N34060 G2 X183.932 Y112.898 I3.052 J3.96 F300
N34070 G1 X178.432 Y122.424
N34080 G3 X177.066 Y122.79 I-0.866 J-0.5
N34090 G1 X123.559 Y91.898
N34100 G3 X123.065 Y91.133 I0.5 J-0.865
N34110 G1 Y91.131
N34120 X123.005 Y90.544
N34130 X123 Y90.444
N34140 Y80.222
N34150 G3 X123.293 Y79.515 I1 J0
N34160 G1 X139.184 Y63.624
N34170 G3 X144.841 I2.828 J2.828
N34180 G1 X155.195 Y73.977
N34190 G2 X159.437 I2.121 J-2.121
N34200 G1 X169.337 Y64.078
N34210 G3 X170.751 I0.707 J0.707
N34220 G1 X178.529 Y71.856
N34230 G2 X185.6 I3.536 J-3.536
N34240 G1 X192.859 Y64.597
N34250 G3 X194.49 Y64.92 I0.707 J0.707
N34260 X201.367 Y91.431 I-90.49 J37.624
N34270 X201.979 Y100.524 I-97.367 J11.118
N34280 Y104.565 I-97.979 J2.021
N34290 X201.365 Y113.676 I-97.979 J-2.024
N34300 X201.145 Y115.466 I-97.369 J-11.101
N34310 X199.653 Y116.201 I-0.992 J-0.132
N34320 G1 X190.762 Y111.068
N34330 G2 X185.21 Y111.438 I-2.5 J4.33
N34340 G3 X184.929 Y111.402 I-0.122 J-0.158 F1000
N34350 G1 X184.807 Y111.243
N34360 X184.775 Y111.202 Z-0.793
N34370 X184.746 Y111.164 Z-0.773
N34380 X184.721 Y111.131 Z-0.741
N34390 X184.701 Y111.106 Z-0.7
N34400 X184.689 Y111.09 Z-0.652
N34410 X184.685 Y111.085 Z-0.6
N34420 G0 Z2
N34430 X185.002 Y110.841
N34440 G1 Z0.3 F60
N34450 Z-0.7
N34460 X185.006 Y110.846 Z-0.752
N34470 X185.018 Y110.862 Z-0.8
N34480 X185.038 Y110.887 Z-0.841
N34490 X185.063 Y110.92 Z-0.873
N34500 X185.092 Y110.958 Z-0.893
N34510 X185.124 Y110.999 Z-0.9
N34520 X185.246 Y111.157
N34530 G3 X185.21 Y111.438 I-0.158 J0.122
N34540 G2 X183.932 Y112.898 I3.052 J3.96 F300
N34550 G1 X178.432 Y122.424
N34560 G3 X177.066 Y122.79 I-0.866 J-0.5
N34570 G1 X123.559 Y91.898
N34580 G3 X123.065 Y91.133 I0.5 J-0.865
N34590 G1 Y91.131
N34600 X123.005 Y90.544
N34610 X123 Y90.444
N34620 Y80.222
N34630 G3 X123.293 Y79.515 I1 J0
N34640 G1 X139.184 Y63.624
N34650 G3 X144.841 I2.828 J2.828
N34660 G1 X155.195 Y73.977
N34670 G2 X159.437 I2.121 J-2.121
N34680 G1 X169.337 Y64.078
N34690 G3 X170.751 I0.707 J0.707
N34700 G1 X178.529 Y71.856
N34710 G2 X185.6 I3.536 J-3.536
N34720 G1 X192.859 Y64.597
N34730 G3 X194.49 Y64.92 I0.707 J0.707
N34740 X201.367 Y91.431 I-90.49 J37.624
N34750 X201.979 Y100.524 I-97.367 J11.118
N34760 Y104.565 I-97.979 J2.021
N34770 X201.365 Y113.676 I-97.979 J-2.024
N34780 X201.145 Y115.466 I-97.369 J-11.101
N34790 X199.653 Y116.201 I-0.992 J-0.132
N34800 G1 X190.762 Y111.068
N34810 G2 X185.21 Y111.438 I-2.5 J4.33
N34820 G3 X184.929 Y111.402 I-0.122 J-0.158 F1000
N34830 G1 X184.807 Y111.243
N34840 X184.775 Y111.202 Z-0.893
N34850 X184.746 Y111.164 Z-0.873
N34860 X184.721 Y111.131 Z-0.841
N34870 X184.701 Y111.106 Z-0.8
N34880 X184.689 Y111.09 Z-0.752
N34890 X184.685 Y111.085 Z-0.7
N34900 G0 Z2
N34910 X185.002 Y110.841
N34920 G1 Z0.2 F60
N34930 Z-0.8
N34940 X185.006 Y110.846 Z-0.852
N34950 X185.018 Y110.862 Z-0.9
N34960 X185.038 Y110.887 Z-0.941
N34970 X185.063 Y110.92 Z-0.973
N34980 X185.092 Y110.958 Z-0.993
N34990 X185.124 Y110.999 Z-1
N35000 X185.246 Y111.157
N35010 G3 X185.21 Y111.438 I-0.158 J0.122
N35020 G2 X183.932 Y112.898 I3.052 J3.96 F300
N35030 G1 X178.432 Y122.424
N35040 G3 X177.066 Y122.79 I-0.866 J-0.5
N35050 G1 X123.559 Y91.898
N35060 G3 X123.065 Y91.133 I0.5 J-0.865
N35070 G1 Y91.131
N35080 X123.005 Y90.544
N35090 X123 Y90.444
N35100 Y80.222
N35110 G3 X123.293 Y79.515 I1 J0
N35120 G1 X139.184 Y63.624
N35130 G3 X144.841 I2.828 J2.828
N35140 G1 X155.195 Y73.977
N35150 G2 X159.437 I2.121 J-2.121
N35160 G1 X169.337 Y64.078
N35170 G3 X170.751 I0.707 J0.707
N35180 G1 X178.529 Y71.856
N35190 G2 X185.6 I3.536 J-3.536
N35200 G1 X192.859 Y64.597
N35210 G3 X194.49 Y64.92 I0.707 J0.707
N35220 X201.367 Y91.431 I-90.49 J37.624
N35230 X201.979 Y100.524 I-97.367 J11.118
