%
(2022 late frame 1)
(T1 D=2 CR=0 - ZMIN=-1.5 - flat end mill)
N10 G90 G94
N20 G17
N30 G21

(2D ??3)
N40 T1 M6
N50 S5000 M3
N60 G54
N70 M8
N80 G0 X121.748 Y121.465
N90 G43 Z2
N100 G1 Z1.1 F60
N110 Z0.1
N120 X121.753 Y121.47 Z0.048
N130 X121.767 Y121.484 Z0
N140 X121.789 Y121.507 Z-0.041
N150 X121.819 Y121.536 Z-0.073
N160 X121.853 Y121.57 Z-0.093
N170 X121.889 Y121.607 Z-0.1
N180 X122.031 Y121.748
N190 G3 Y122.031 I-0.141 J0.141
N200 G2 Y126.981 I2.475 J2.475 F300
N210 G1 X122.498 Y127.448
N220 G3 X122.384 Y128.961 I-0.707 J0.707
N230 X85.616 I-18.384 J-24.961
N240 X85.502 Y127.448 I0.593 J-0.805
N250 G1 X85.969 Y126.981
N260 G2 Y122.031 I-2.475 J-2.475
N270 X81.019 I-2.475 J2.475
N280 G1 X80.552 Y122.498
N290 G3 X79.04 Y122.384 I-0.707 J-0.707
N300 Y85.616 I24.96 J-18.384
N310 X80.552 Y85.502 I0.805 J0.593
N320 G1 X81.019 Y85.969
N330 G2 X85.969 Y81.019 I2.475 J-2.475
N340 G1 X85.502 Y80.552
N350 G3 X85.616 Y79.04 I0.707 J-0.707
N360 X122.384 I18.384 J24.96
N370 X122.498 Y80.552 I-0.593 J0.805
N380 G1 X122.031 Y81.019
N390 G2 X126.981 Y85.969 I2.475 J2.475
N400 G1 X127.448 Y85.502
N410 G3 X128.961 Y85.616 I0.707 J0.707
N420 Y122.384 I-24.961 J18.384
N430 X127.448 Y122.498 I-0.805 J-0.593
N440 G1 X126.981 Y122.031
N450 G2 X122.031 I-2.475 J2.475
N460 G3 X121.748 I-0.141 J-0.141 F1000
N470 G1 X121.607 Y121.889
N480 X121.57 Y121.853 Z-0.093
N490 X121.536 Y121.819 Z-0.073
N500 X121.507 Y121.789 Z-0.041
N510 X121.484 Y121.767 Z0
N520 X121.47 Y121.753 Z0.048
N530 X121.465 Y121.748 Z0.1
N540 G0 Z2
N550 X121.748 Y121.465
N560 G1 Z1 F60
N570 Z0
N580 X121.753 Y121.47 Z-0.052
N590 X121.767 Y121.484 Z-0.1
N600 X121.789 Y121.507 Z-0.141
N610 X121.819 Y121.536 Z-0.173
N620 X121.853 Y121.57 Z-0.193
N630 X121.889 Y121.607 Z-0.2
N640 X122.031 Y121.748
N650 G3 Y122.031 I-0.141 J0.141
N660 G2 Y126.981 I2.475 J2.475 F300
N670 G1 X122.498 Y127.448
N680 G3 X122.384 Y128.961 I-0.707 J0.707
N690 X85.616 I-18.384 J-24.961
N700 X85.502 Y127.448 I0.593 J-0.805
N710 G1 X85.969 Y126.981
N720 G2 Y122.031 I-2.475 J-2.475
N730 X81.019 I-2.475 J2.475
N740 G1 X80.552 Y122.498
N750 G3 X79.04 Y122.384 I-0.707 J-0.707
N760 Y85.616 I24.96 J-18.384
N770 X80.552 Y85.502 I0.805 J0.593
N780 G1 X81.019 Y85.969
N790 G2 X85.969 Y81.019 I2.475 J-2.475
N800 G1 X85.502 Y80.552
N810 G3 X85.616 Y79.04 I0.707 J-0.707
N820 X122.384 I18.384 J24.96
N830 X122.498 Y80.552 I-0.593 J0.805
N840 G1 X122.031 Y81.019
N850 G2 X126.981 Y85.969 I2.475 J2.475
N860 G1 X127.448 Y85.502
N870 G3 X128.961 Y85.616 I0.707 J0.707
N880 Y122.384 I-24.961 J18.384
N890 X127.448 Y122.498 I-0.805 J-0.593
N900 G1 X126.981 Y122.031
N910 G2 X122.031 I-2.475 J2.475
N920 G3 X121.748 I-0.141 J-0.141 F1000
N930 G1 X121.607 Y121.889
N940 X121.57 Y121.853 Z-0.193
N950 X121.536 Y121.819 Z-0.173
N960 X121.507 Y121.789 Z-0.141
N970 X121.484 Y121.767 Z-0.1
N980 X121.47 Y121.753 Z-0.052
N990 X121.465 Y121.748 Z0
N1000 G0 Z2
N1010 X121.748 Y121.465
N1020 G1 Z0.9 F60
N1030 Z-0.1
N1040 X121.753 Y121.47 Z-0.152
N1050 X121.767 Y121.484 Z-0.2
N1060 X121.789 Y121.507 Z-0.241
N1070 X121.819 Y121.536 Z-0.273
N1080 X121.853 Y121.57 Z-0.293
N1090 X121.889 Y121.607 Z-0.3
N1100 X122.031 Y121.748
N1110 G3 Y122.031 I-0.141 J0.141
N1120 G2 Y126.981 I2.475 J2.475 F300
N1130 G1 X122.498 Y127.448
N1140 G3 X122.384 Y128.961 I-0.707 J0.707
N1150 X85.616 I-18.384 J-24.961
N1160 X85.502 Y127.448 I0.593 J-0.805
N1170 G1 X85.969 Y126.981
N1180 G2 Y122.031 I-2.475 J-2.475
N1190 X81.019 I-2.475 J2.475
N1200 G1 X80.552 Y122.498
N1210 G3 X79.04 Y122.384 I-0.707 J-0.707
N1220 Y85.616 I24.96 J-18.384
N1230 X80.552 Y85.502 I0.805 J0.593
N1240 G1 X81.019 Y85.969
N1250 G2 X85.969 Y81.019 I2.475 J-2.475
N1260 G1 X85.502 Y80.552
N1270 G3 X85.616 Y79.04 I0.707 J-0.707
N1280 X122.384 I18.384 J24.96
N1290 X122.498 Y80.552 I-0.593 J0.805
N1300 G1 X122.031 Y81.019
N1310 G2 X126.981 Y85.969 I2.475 J2.475
N1320 G1 X127.448 Y85.502
N1330 G3 X128.961 Y85.616 I0.707 J0.707
N1340 Y122.384 I-24.961 J18.384
N1350 X127.448 Y122.498 I-0.805 J-0.593
N1360 G1 X126.981 Y122.031
N1370 G2 X122.031 I-2.475 J2.475
N1380 G3 X121.748 I-0.141 J-0.141 F1000
N1390 G1 X121.607 Y121.889
N1400 X121.57 Y121.853 Z-0.293
N1410 X121.536 Y121.819 Z-0.273
N1420 X121.507 Y121.789 Z-0.241
N1430 X121.484 Y121.767 Z-0.2
N1440 X121.47 Y121.753 Z-0.152
N1450 X121.465 Y121.748 Z-0.1
N1460 G0 Z2
N1470 X121.748 Y121.465
N1480 G1 Z0.8 F60
N1490 Z-0.2
N1500 X121.753 Y121.47 Z-0.252
N1510 X121.767 Y121.484 Z-0.3
N1520 X121.789 Y121.507 Z-0.341
N1530 X121.819 Y121.536 Z-0.373
N1540 X121.853 Y121.57 Z-0.393
N1550 X121.889 Y121.607 Z-0.4
N1560 X122.031 Y121.748
N1570 G3 Y122.031 I-0.141 J0.141
N1580 G2 Y126.981 I2.475 J2.475 F300
N1590 G1 X122.498 Y127.448
N1600 G3 X122.384 Y128.961 I-0.707 J0.707
N1610 X85.616 I-18.384 J-24.961
N1620 X85.502 Y127.448 I0.593 J-0.805
N1630 G1 X85.969 Y126.981
N1640 G2 Y122.031 I-2.475 J-2.475
N1650 X81.019 I-2.475 J2.475
N1660 G1 X80.552 Y122.498
N1670 G3 X79.04 Y122.384 I-0.707 J-0.707
N1680 Y85.616 I24.96 J-18.384
N1690 X80.552 Y85.502 I0.805 J0.593
N1700 G1 X81.019 Y85.969
N1710 G2 X85.969 Y81.019 I2.475 J-2.475
N1720 G1 X85.502 Y80.552
N1730 G3 X85.616 Y79.04 I0.707 J-0.707
N1740 X122.384 I18.384 J24.96
N1750 X122.498 Y80.552 I-0.593 J0.805
N1760 G1 X122.031 Y81.019
N1770 G2 X126.981 Y85.969 I2.475 J2.475
N1780 G1 X127.448 Y85.502
N1790 G3 X128.961 Y85.616 I0.707 J0.707
N1800 Y122.384 I-24.961 J18.384
N1810 X127.448 Y122.498 I-0.805 J-0.593
N1820 G1 X126.981 Y122.031
N1830 G2 X122.031 I-2.475 J2.475
N1840 G3 X121.748 I-0.141 J-0.141 F1000
N1850 G1 X121.607 Y121.889
N1860 X121.57 Y121.853 Z-0.393
N1870 X121.536 Y121.819 Z-0.373
N1880 X121.507 Y121.789 Z-0.341
N1890 X121.484 Y121.767 Z-0.3
N1900 X121.47 Y121.753 Z-0.252
N1910 X121.465 Y121.748 Z-0.2
N1920 G0 Z2
N1930 X121.748 Y121.465
N1940 G1 Z0.7 F60
N1950 Z-0.3
N1960 X121.753 Y121.47 Z-0.352
N1970 X121.767 Y121.484 Z-0.4
N1980 X121.789 Y121.507 Z-0.441
N1990 X121.819 Y121.536 Z-0.473
N2000 X121.853 Y121.57 Z-0.493
N2010 X121.889 Y121.607 Z-0.5
N2020 X122.031 Y121.748
N2030 G3 Y122.031 I-0.141 J0.141
N2040 G2 Y126.981 I2.475 J2.475 F300
N2050 G1 X122.498 Y127.448
N2060 G3 X122.384 Y128.961 I-0.707 J0.707
N2070 X85.616 I-18.384 J-24.961
N2080 X85.502 Y127.448 I0.593 J-0.805
N2090 G1 X85.969 Y126.981
N2100 G2 Y122.031 I-2.475 J-2.475
N2110 X81.019 I-2.475 J2.475
N2120 G1 X80.552 Y122.498
N2130 G3 X79.04 Y122.384 I-0.707 J-0.707
N2140 Y85.616 I24.96 J-18.384
N2150 X80.552 Y85.502 I0.805 J0.593
N2160 G1 X81.019 Y85.969
N2170 G2 X85.969 Y81.019 I2.475 J-2.475
N2180 G1 X85.502 Y80.552
N2190 G3 X85.616 Y79.04 I0.707 J-0.707
N2200 X122.384 I18.384 J24.96
N2210 X122.498 Y80.552 I-0.593 J0.805
N2220 G1 X122.031 Y81.019
N2230 G2 X126.981 Y85.969 I2.475 J2.475
N2240 G1 X127.448 Y85.502
N2250 G3 X128.961 Y85.616 I0.707 J0.707
N2260 Y122.384 I-24.961 J18.384
N2270 X127.448 Y122.498 I-0.805 J-0.593
N2280 G1 X126.981 Y122.031
N2290 G2 X122.031 I-2.475 J2.475
N2300 G3 X121.748 I-0.141 J-0.141 F1000
N2310 G1 X121.607 Y121.889
N2320 X121.57 Y121.853 Z-0.493
N2330 X121.536 Y121.819 Z-0.473
N2340 X121.507 Y121.789 Z-0.441
N2350 X121.484 Y121.767 Z-0.4
N2360 X121.47 Y121.753 Z-0.352
N2370 X121.465 Y121.748 Z-0.3
N2380 G0 Z2
N2390 X121.748 Y121.465
N2400 G1 Z0.6 F60
N2410 Z-0.4
N2420 X121.753 Y121.47 Z-0.452
N2430 X121.767 Y121.484 Z-0.5
N2440 X121.789 Y121.507 Z-0.541
N2450 X121.819 Y121.536 Z-0.573
N2460 X121.853 Y121.57 Z-0.593
N2470 X121.889 Y121.607 Z-0.6
N2480 X122.031 Y121.748
N2490 G3 Y122.031 I-0.141 J0.141
N2500 G2 Y126.981 I2.475 J2.475 F300
N2510 G1 X122.498 Y127.448
N2520 G3 X122.384 Y128.961 I-0.707 J0.707
N2530 X85.616 I-18.384 J-24.961
N2540 X85.502 Y127.448 I0.593 J-0.805
N2550 G1 X85.969 Y126.981
N2560 G2 Y122.031 I-2.475 J-2.475
N2570 X81.019 I-2.475 J2.475
N2580 G1 X80.552 Y122.498
N2590 G3 X79.04 Y122.384 I-0.707 J-0.707
N2600 Y85.616 I24.96 J-18.384
N2610 X80.552 Y85.502 I0.805 J0.593
N2620 G1 X81.019 Y85.969
N2630 G2 X85.969 Y81.019 I2.475 J-2.475
N2640 G1 X85.502 Y80.552
N2650 G3 X85.616 Y79.04 I0.707 J-0.707
N2660 X122.384 I18.384 J24.96
N2670 X122.498 Y80.552 I-0.593 J0.805
N2680 G1 X122.031 Y81.019
N2690 G2 X126.981 Y85.969 I2.475 J2.475
N2700 G1 X127.448 Y85.502
N2710 G3 X128.961 Y85.616 I0.707 J0.707
N2720 Y122.384 I-24.961 J18.384
N2730 X127.448 Y122.498 I-0.805 J-0.593
N2740 G1 X126.981 Y122.031
N2750 G2 X122.031 I-2.475 J2.475
N2760 G3 X121.748 I-0.141 J-0.141 F1000
N2770 G1 X121.607 Y121.889
N2780 X121.57 Y121.853 Z-0.593
N2790 X121.536 Y121.819 Z-0.573
N2800 X121.507 Y121.789 Z-0.541
N2810 X121.484 Y121.767 Z-0.5
N2820 X121.47 Y121.753 Z-0.452
N2830 X121.465 Y121.748 Z-0.4
N2840 G0 Z2
N2850 X121.748 Y121.465
N2860 G1 Z0.5 F60
N2870 Z-0.5
N2880 X121.753 Y121.47 Z-0.552
N2890 X121.767 Y121.484 Z-0.6
N2900 X121.789 Y121.507 Z-0.641
N2910 X121.819 Y121.536 Z-0.673
N2920 X121.853 Y121.57 Z-0.693
N2930 X121.889 Y121.607 Z-0.7
N2940 X122.031 Y121.748
N2950 G3 Y122.031 I-0.141 J0.141
N2960 G2 Y126.981 I2.475 J2.475 F300
N2970 G1 X122.498 Y127.448
N2980 G3 X122.384 Y128.961 I-0.707 J0.707
N2990 X85.616 I-18.384 J-24.961
N3000 X85.502 Y127.448 I0.593 J-0.805
N3010 G1 X85.969 Y126.981
N3020 G2 Y122.031 I-2.475 J-2.475
N3030 X81.019 I-2.475 J2.475
N3040 G1 X80.552 Y122.498
N3050 G3 X79.04 Y122.384 I-0.707 J-0.707
N3060 Y85.616 I24.96 J-18.384
N3070 X80.552 Y85.502 I0.805 J0.593
N3080 G1 X81.019 Y85.969
N3090 G2 X85.969 Y81.019 I2.475 J-2.475
N3100 G1 X85.502 Y80.552
N3110 G3 X85.616 Y79.04 I0.707 J-0.707
N3120 X122.384 I18.384 J24.96
N3130 X122.498 Y80.552 I-0.593 J0.805
N3140 G1 X122.031 Y81.019
N3150 G2 X126.981 Y85.969 I2.475 J2.475
N3160 G1 X127.448 Y85.502
N3170 G3 X128.961 Y85.616 I0.707 J0.707
N3180 Y122.384 I-24.961 J18.384
N3190 X127.448 Y122.498 I-0.805 J-0.593
N3200 G1 X126.981 Y122.031
N3210 G2 X122.031 I-2.475 J2.475
N3220 G3 X121.748 I-0.141 J-0.141 F1000
N3230 G1 X121.607 Y121.889
N3240 X121.57 Y121.853 Z-0.693
N3250 X121.536 Y121.819 Z-0.673
N3260 X121.507 Y121.789 Z-0.641
N3270 X121.484 Y121.767 Z-0.6
N3280 X121.47 Y121.753 Z-0.552
N3290 X121.465 Y121.748 Z-0.5
N3300 G0 Z2
N3310 X121.748 Y121.465
N3320 G1 Z0.4 F60
N3330 Z-0.6
N3340 X121.753 Y121.47 Z-0.652
N3350 X121.767 Y121.484 Z-0.7
N3360 X121.789 Y121.507 Z-0.741
N3370 X121.819 Y121.536 Z-0.773
N3380 X121.853 Y121.57 Z-0.793
N3390 X121.889 Y121.607 Z-0.8
N3400 X122.031 Y121.748
N3410 G3 Y122.031 I-0.141 J0.141
N3420 G2 Y126.981 I2.475 J2.475 F300
N3430 G1 X122.498 Y127.448
N3440 G3 X122.384 Y128.961 I-0.707 J0.707
N3450 X85.616 I-18.384 J-24.961
N3460 X85.502 Y127.448 I0.593 J-0.805
N3470 G1 X85.969 Y126.981
N3480 G2 Y122.031 I-2.475 J-2.475
N3490 X81.019 I-2.475 J2.475
N3500 G1 X80.552 Y122.498
N3510 G3 X79.04 Y122.384 I-0.707 J-0.707
N3520 Y85.616 I24.96 J-18.384
N3530 X80.552 Y85.502 I0.805 J0.593
N3540 G1 X81.019 Y85.969
N3550 G2 X85.969 Y81.019 I2.475 J-2.475
N3560 G1 X85.502 Y80.552
N3570 G3 X85.616 Y79.04 I0.707 J-0.707
N3580 X122.384 I18.384 J24.96
N3590 X122.498 Y80.552 I-0.593 J0.805
N3600 G1 X122.031 Y81.019
N3610 G2 X126.981 Y85.969 I2.475 J2.475
N3620 G1 X127.448 Y85.502
N3630 G3 X128.961 Y85.616 I0.707 J0.707
N3640 Y122.384 I-24.961 J18.384
N3650 X127.448 Y122.498 I-0.805 J-0.593
N3660 G1 X126.981 Y122.031
N3670 G2 X122.031 I-2.475 J2.475
N3680 G3 X121.748 I-0.141 J-0.141 F1000
N3690 G1 X121.607 Y121.889
N3700 X121.57 Y121.853 Z-0.793
N3710 X121.536 Y121.819 Z-0.773
N3720 X121.507 Y121.789 Z-0.741
N3730 X121.484 Y121.767 Z-0.7
N3740 X121.47 Y121.753 Z-0.652
N3750 X121.465 Y121.748 Z-0.6
N3760 G0 Z2
N3770 X121.748 Y121.465
N3780 G1 Z0.3 F60
N3790 Z-0.7
N3800 X121.753 Y121.47 Z-0.752
N3810 X121.767 Y121.484 Z-0.8
N3820 X121.789 Y121.507 Z-0.841
N3830 X121.819 Y121.536 Z-0.873
N3840 X121.853 Y121.57 Z-0.893
N3850 X121.889 Y121.607 Z-0.9
N3860 X122.031 Y121.748
N3870 G3 Y122.031 I-0.141 J0.141
N3880 G2 Y126.981 I2.475 J2.475 F300
N3890 G1 X122.498 Y127.448
N3900 G3 X122.384 Y128.961 I-0.707 J0.707
N3910 X85.616 I-18.384 J-24.961
N3920 X85.502 Y127.448 I0.593 J-0.805
N3930 G1 X85.969 Y126.981
N3940 G2 Y122.031 I-2.475 J-2.475
N3950 X81.019 I-2.475 J2.475
N3960 G1 X80.552 Y122.498
N3970 G3 X79.04 Y122.384 I-0.707 J-0.707
N3980 Y85.616 I24.96 J-18.384
N3990 X80.552 Y85.502 I0.805 J0.593
N4000 G1 X81.019 Y85.969
N4010 G2 X85.969 Y81.019 I2.475 J-2.475
N4020 G1 X85.502 Y80.552
N4030 G3 X85.616 Y79.04 I0.707 J-0.707
N4040 X122.384 I18.384 J24.96
N4050 X122.498 Y80.552 I-0.593 J0.805
N4060 G1 X122.031 Y81.019
N4070 G2 X126.981 Y85.969 I2.475 J2.475
N4080 G1 X127.448 Y85.502
N4090 G3 X128.961 Y85.616 I0.707 J0.707
N4100 Y122.384 I-24.961 J18.384
N4110 X127.448 Y122.498 I-0.805 J-0.593
N4120 G1 X126.981 Y122.031
N4130 G2 X122.031 I-2.475 J2.475
N4140 G3 X121.748 I-0.141 J-0.141 F1000
N4150 G1 X121.607 Y121.889
N4160 X121.57 Y121.853 Z-0.893
N4170 X121.536 Y121.819 Z-0.873
N4180 X121.507 Y121.789 Z-0.841
N4190 X121.484 Y121.767 Z-0.8
N4200 X121.47 Y121.753 Z-0.752
N4210 X121.465 Y121.748 Z-0.7
N4220 G0 Z2
N4230 X121.748 Y121.465
N4240 G1 Z0.2 F60
N4250 Z-0.8
N4260 X121.753 Y121.47 Z-0.852
N4270 X121.767 Y121.484 Z-0.9
N4280 X121.789 Y121.507 Z-0.941
N4290 X121.819 Y121.536 Z-0.973
N4300 X121.853 Y121.57 Z-0.993
N4310 X121.889 Y121.607 Z-1
N4320 X122.031 Y121.748
N4330 G3 Y122.031 I-0.141 J0.141
N4340 G2 Y126.981 I2.475 J2.475 F300
N4350 G1 X122.498 Y127.448
N4360 G3 X122.384 Y128.961 I-0.707 J0.707
N4370 X85.616 I-18.384 J-24.961
N4380 X85.502 Y127.448 I0.593 J-0.805
N4390 G1 X85.969 Y126.981
N4400 G2 Y122.031 I-2.475 J-2.475
N4410 X81.019 I-2.475 J2.475
N4420 G1 X80.552 Y122.498
N4430 G3 X79.04 Y122.384 I-0.707 J-0.707
N4440 Y85.616 I24.96 J-18.384
N4450 X80.552 Y85.502 I0.805 J0.593
N4460 G1 X81.019 Y85.969
N4470 G2 X85.969 Y81.019 I2.475 J-2.475
N4480 G1 X85.502 Y80.552
N4490 G3 X85.616 Y79.04 I0.707 J-0.707
N4500 X122.384 I18.384 J24.96
N4510 X122.498 Y80.552 I-0.593 J0.805
N4520 G1 X122.031 Y81.019
N4530 G2 X126.981 Y85.969 I2.475 J2.475
N4540 G1 X127.448 Y85.502
N4550 G3 X128.961 Y85.616 I0.707 J0.707
N4560 Y122.384 I-24.961 J18.384
N4570 X127.448 Y122.498 I-0.805 J-0.593
N4580 G1 X126.981 Y122.031
N4590 G2 X122.031 I-2.475 J2.475
N4600 G3 X121.748 I-0.141 J-0.141 F1000
N4610 G1 X121.607 Y121.889
N4620 X121.57 Y121.853 Z-0.993
N4630 X121.536 Y121.819 Z-0.973
N4640 X121.507 Y121.789 Z-0.941
N4650 X121.484 Y121.767 Z-0.9
N4660 X121.47 Y121.753 Z-0.852
N4670 X121.465 Y121.748 Z-0.8
N4680 G0 Z2
N4690 X121.748 Y121.465
N4700 G1 Z0.1 F60
N4710 Z-0.9
N4720 X121.753 Y121.47 Z-0.952
N4730 X121.767 Y121.484 Z-1
N4740 X121.789 Y121.507 Z-1.041
N4750 X121.819 Y121.536 Z-1.073
N4760 X121.853 Y121.57 Z-1.093
N4770 X121.889 Y121.607 Z-1.1
N4780 X122.031 Y121.748
N4790 G3 Y122.031 I-0.141 J0.141
N4800 G2 Y126.981 I2.475 J2.475 F300
N4810 G1 X122.498 Y127.448
N4820 G3 X122.384 Y128.961 I-0.707 J0.707
N4830 X104.994 Y134.984 I-18.384 J-24.961
N4840 G1 X104.844 Y134.989 Z-1
N4850 G3 X102.844 Y134.979 I-0.844 J-30.989
N4860 G1 X102.694 Y134.973 Z-1.1 F60
N4870 G3 X85.616 Y128.961 I1.306 J-30.973 F300
N4880 X85.502 Y127.448 I0.593 J-0.805
N4890 G1 X85.969 Y126.981
N4900 G2 Y122.031 I-2.475 J-2.475
N4910 X81.019 I-2.475 J2.475
N4920 G1 X80.552 Y122.498
N4930 G3 X79.04 Y122.384 I-0.707 J-0.707
N4940 X73.041 Y105.586 I24.96 J-18.384
N4950 G1 X73.033 Y105.437 Z-1
N4960 G3 X73.005 Y103.437 I30.967 J-1.437
N4970 G1 X73.008 Y103.287 Z-1.1 F60
N4980 G3 X79.04 Y85.616 I30.992 J0.713 F300
N4990 X80.552 Y85.502 I0.805 J0.593
N5000 G1 X81.019 Y85.969
N5010 G2 X85.969 Y81.019 I2.475 J-2.475
N5020 G1 X85.502 Y80.552
N5030 G3 X85.616 Y79.04 I0.707 J-0.707
N5040 X102.43 Y73.04 I18.384 J24.96
N5050 G1 X102.58 Y73.033 Z-1
N5060 G3 X104.58 Y73.006 I1.42 J30.967
N5070 G1 X104.73 Y73.009 Z-1.1 F60
N5080 G3 X122.384 Y79.04 I-0.73 J30.991 F300
N5090 X122.498 Y80.552 I-0.593 J0.805
N5100 G1 X122.031 Y81.019
N5110 G2 X126.981 Y85.969 I2.475 J2.475
N5120 G1 X127.448 Y85.502
N5130 G3 X128.961 Y85.616 I0.707 J0.707
N5140 X135 Y103.79 I-24.961 J18.384
N5150 G1 Y103.94 Z-1
N5160 G3 X134.94 Y105.939 I-31 J0.06
N5170 G1 X134.93 Y106.089 Z-1.1 F60
N5180 G3 X128.961 Y122.384 I-30.93 J-2.089 F300
N5190 X127.448 Y122.498 I-0.805 J-0.593
N5200 G1 X126.981 Y122.031
N5210 G2 X122.031 I-2.475 J2.475
N5220 G3 X121.748 I-0.141 J-0.141 F1000
N5230 G1 X121.607 Y121.889
N5240 X121.57 Y121.853 Z-1.093
N5250 X121.536 Y121.819 Z-1.073
N5260 X121.507 Y121.789 Z-1.041
N5270 X121.484 Y121.767 Z-1
N5280 X121.47 Y121.753 Z-0.952
N5290 X121.465 Y121.748 Z-0.9
N5300 G0 Z2
N5310 X121.748 Y121.465
N5320 G1 Z0 F60
N5330 Z-1
N5340 X121.753 Y121.47 Z-1.052
N5350 X121.767 Y121.484 Z-1.1
N5360 X121.789 Y121.507 Z-1.141
N5370 X121.819 Y121.536 Z-1.173
N5380 X121.853 Y121.57 Z-1.193
N5390 X121.889 Y121.607 Z-1.2
N5400 X122.031 Y121.748
N5410 G3 Y122.031 I-0.141 J0.141
N5420 G2 Y126.981 I2.475 J2.475 F300
N5430 G1 X122.498 Y127.448
N5440 G3 X122.384 Y128.961 I-0.707 J0.707
N5450 X105.144 Y134.979 I-18.384 J-24.961
N5460 X104.844 Y134.989 Z-1 I-1.144 J-30.979
N5470 X102.844 Y134.979 I-0.844 J-30.989
N5480 X102.544 Y134.966 Z-1.2 I1.156 J-30.979 F60
N5490 X85.616 Y128.961 I1.456 J-30.966 F300
N5500 X85.502 Y127.448 I0.593 J-0.805
N5510 G1 X85.969 Y126.981
N5520 G2 Y122.031 I-2.475 J-2.475
N5530 X81.019 I-2.475 J2.475
N5540 G1 X80.552 Y122.498
N5550 G3 X79.04 Y122.384 I-0.707 J-0.707
N5560 X73.049 Y105.736 I24.96 J-18.384
N5570 X73.033 Y105.437 Z-1 I30.951 J-1.737
N5580 X73.005 Y103.437 I30.967 J-1.437
N5590 X73.012 Y103.137 Z-1.2 I30.995 J0.563 F60
N5600 X79.04 Y85.616 I30.988 J0.863 F300
N5610 X80.552 Y85.502 I0.805 J0.593
N5620 G1 X81.019 Y85.969
N5630 G2 X85.969 Y81.019 I2.475 J-2.475
N5640 G1 X85.502 Y80.552
N5650 G3 X85.616 Y79.04 I0.707 J-0.707
N5660 X102.28 Y73.048 I18.384 J24.96
N5670 X102.58 Y73.033 Z-1 I1.72 J30.952
N5680 X104.58 Y73.006 I1.42 J30.967
N5690 X104.88 Y73.013 Z-1.2 I-0.58 J30.994 F60
N5700 X122.384 Y79.04 I-0.88 J30.987 F300
N5710 X122.498 Y80.552 I-0.593 J0.805
N5720 G1 X122.031 Y81.019
N5730 G2 X126.981 Y85.969 I2.475 J2.475
N5740 G1 X127.448 Y85.502
N5750 G3 X128.961 Y85.616 I0.707 J0.707
N5760 X134.998 Y103.639 I-24.961 J18.384
N5770 X135 Y103.94 Z-1 I-30.998 J0.36
N5780 X134.94 Y105.939 I-31 J0.06
N5790 X134.919 Y106.238 Z-1.2 I-30.94 J-1.939 F60
N5800 X128.961 Y122.384 I-30.919 J-2.238 F300
N5810 X127.448 Y122.498 I-0.805 J-0.593
N5820 G1 X126.981 Y122.031
N5830 G2 X122.031 I-2.475 J2.475
N5840 G3 X121.748 I-0.141 J-0.141 F1000
N5850 G1 X121.607 Y121.889
N5860 X121.57 Y121.853 Z-1.193
N5870 X121.536 Y121.819 Z-1.173
N5880 X121.507 Y121.789 Z-1.141
N5890 X121.484 Y121.767 Z-1.1
N5900 X121.47 Y121.753 Z-1.052
N5910 X121.465 Y121.748 Z-1
N5920 G0 Z2
N5930 X121.748 Y121.465
N5940 G1 Z-0.1 F60
N5950 Z-1.1
N5960 X121.753 Y121.47 Z-1.152
N5970 X121.767 Y121.484 Z-1.2
N5980 X121.789 Y121.507 Z-1.241
N5990 X121.819 Y121.536 Z-1.273
N6000 X121.853 Y121.57 Z-1.293
N6010 X121.889 Y121.607 Z-1.3
N6020 X122.031 Y121.748
N6030 G3 Y122.031 I-0.141 J0.141
N6040 G2 Y126.981 I2.475 J2.475 F300
N6050 G1 X122.498 Y127.448
N6060 G3 X122.384 Y128.961 I-0.707 J0.707
N6070 X105.294 Y134.973 I-18.384 J-24.961
N6080 X104.844 Y134.989 Z-1 I-1.294 J-30.973
N6090 X102.844 Y134.979 I-0.844 J-30.989
N6100 X102.394 Y134.959 Z-1.3 I1.156 J-30.979 F60
N6110 X85.616 Y128.961 I1.606 J-30.959 F300
N6120 X85.502 Y127.448 I0.593 J-0.805
N6130 G1 X85.969 Y126.981
N6140 G2 Y122.031 I-2.475 J-2.475
N6150 X81.019 I-2.475 J2.475
N6160 G1 X80.552 Y122.498
N6170 G3 X79.04 Y122.384 I-0.707 J-0.707
N6180 X73.058 Y105.886 I24.96 J-18.384
N6190 X73.033 Y105.437 Z-1 I30.942 J-1.886
N6200 X73.005 Y103.437 I30.967 J-1.437
N6210 X73.017 Y102.987 Z-1.3 I30.995 J0.563 F60
N6220 X79.04 Y85.616 I30.983 J1.013 F300
N6230 X80.552 Y85.502 I0.805 J0.593
N6240 G1 X81.019 Y85.969
N6250 G2 X85.969 Y81.019 I2.475 J-2.475
N6260 G1 X85.502 Y80.552
N6270 G3 X85.616 Y79.04 I0.707 J-0.707
N6280 X102.13 Y73.057 I18.384 J24.96
N6290 X102.58 Y73.033 Z-1 I1.87 J30.943
N6300 X104.58 Y73.006 I1.42 J30.967
N6310 X105.03 Y73.017 Z-1.3 I-0.58 J30.994 F60
N6320 X122.384 Y79.04 I-1.03 J30.983 F300
N6330 X122.498 Y80.552 I-0.593 J0.805
N6340 G1 X122.031 Y81.019
N6350 G2 X126.981 Y85.969 I2.475 J2.475
N6360 G1 X127.448 Y85.502
N6370 G3 X128.961 Y85.616 I0.707 J0.707
N6380 X134.996 Y103.489 I-24.961 J18.384
N6390 X135 Y103.94 Z-1 I-30.996 J0.51
N6400 X134.94 Y105.939 I-31 J0.06
N6410 X134.908 Y106.388 Z-1.3 I-30.94 J-1.939 F60
N6420 X128.961 Y122.384 I-30.908 J-2.388 F300
N6430 X127.448 Y122.498 I-0.805 J-0.593
N6440 G1 X126.981 Y122.031
N6450 G2 X122.031 I-2.475 J2.475
N6460 G3 X121.748 I-0.141 J-0.141 F1000
N6470 G1 X121.607 Y121.889
N6480 X121.57 Y121.853 Z-1.293
N6490 X121.536 Y121.819 Z-1.273
N6500 X121.507 Y121.789 Z-1.241
N6510 X121.484 Y121.767 Z-1.2
N6520 X121.47 Y121.753 Z-1.152
N6530 X121.465 Y121.748 Z-1.1
N6540 G0 Z2
N6550 X121.748 Y121.465
N6560 G1 Z-0.2 F60
N6570 Z-1.2
N6580 X121.753 Y121.47 Z-1.252
N6590 X121.767 Y121.484 Z-1.3
N6600 X121.789 Y121.507 Z-1.341
N6610 X121.819 Y121.536 Z-1.373
N6620 X121.853 Y121.57 Z-1.393
N6630 X121.889 Y121.607 Z-1.4
N6640 X122.031 Y121.748
N6650 G3 Y122.031 I-0.141 J0.141
N6660 G2 Y126.981 I2.475 J2.475 F300
N6670 G1 X122.498 Y127.448
N6680 G3 X122.384 Y128.961 I-0.707 J0.707
N6690 X105.444 Y134.967 I-18.384 J-24.961
N6700 X104.844 Y134.989 Z-1 I-1.444 J-30.967
N6710 X102.844 Y134.979 I-0.844 J-30.989
N6720 X102.244 Y134.951 Z-1.4 I1.156 J-30.979 F60
N6730 X85.616 Y128.961 I1.756 J-30.951 F300
N6740 X85.502 Y127.448 I0.593 J-0.805
N6750 G1 X85.969 Y126.981
N6760 G2 Y122.031 I-2.475 J-2.475
N6770 X81.019 I-2.475 J2.475
N6780 G1 X80.552 Y122.498
N6790 G3 X79.04 Y122.384 I-0.707 J-0.707
N6800 X73.067 Y106.036 I24.96 J-18.384
N6810 X73.033 Y105.437 Z-1 I30.933 J-2.036
N6820 X73.005 Y103.437 I30.967 J-1.437
N6830 X73.022 Y102.836 Z-1.4 I30.995 J0.563 F60
N6840 X79.04 Y85.616 I30.978 J1.163 F300
N6850 X80.552 Y85.502 I0.805 J0.593
N6860 G1 X81.019 Y85.969
N6870 G2 X85.969 Y81.019 I2.475 J-2.475
N6880 G1 X85.502 Y80.552
N6890 G3 X85.616 Y79.04 I0.707 J-0.707
N6900 X101.98 Y73.066 I18.384 J24.96
N6910 X102.58 Y73.033 Z-1 I2.02 J30.934
N6920 X104.58 Y73.006 I1.42 J30.967
N6930 X105.18 Y73.023 Z-1.4 I-0.58 J30.994 F60
N6940 X122.384 Y79.04 I-1.18 J30.977 F300
N6950 X122.498 Y80.552 I-0.593 J0.805
N6960 G1 X122.031 Y81.019
N6970 G2 X126.981 Y85.969 I2.475 J2.475
N6980 G1 X127.448 Y85.502
N6990 G3 X128.961 Y85.616 I0.707 J0.707
N7000 X134.993 Y103.339 I-24.961 J18.384
N7010 X135 Y103.94 Z-1 I-30.993 J0.661
N7020 X134.94 Y105.939 I-31 J0.06
N7030 X134.896 Y106.538 Z-1.4 I-30.94 J-1.939 F60
N7040 X128.961 Y122.384 I-30.896 J-2.538 F300
N7050 X127.448 Y122.498 I-0.805 J-0.593
N7060 G1 X126.981 Y122.031
N7070 G2 X122.031 I-2.475 J2.475
N7080 G3 X121.748 I-0.141 J-0.141 F1000
N7090 G1 X121.607 Y121.889
N7100 X121.57 Y121.853 Z-1.393
N7110 X121.536 Y121.819 Z-1.373
N7120 X121.507 Y121.789 Z-1.341
N7130 X121.484 Y121.767 Z-1.3
N7140 X121.47 Y121.753 Z-1.252
N7150 X121.465 Y121.748 Z-1.2
N7160 G0 Z2
N7170 X121.748 Y121.465
N7180 G1 Z-0.3 F60
N7190 Z-1.3
N7200 X121.753 Y121.47 Z-1.352
N7210 X121.767 Y121.484 Z-1.4
N7220 X121.789 Y121.507 Z-1.441
N7230 X121.819 Y121.536 Z-1.473
N7240 X121.853 Y121.57 Z-1.493
N7250 X121.889 Y121.607 Z-1.5
N7260 X122.031 Y121.748
N7270 G3 Y122.031 I-0.141 J0.141
N7280 G2 Y126.981 I2.475 J2.475 F300
N7290 G1 X122.498 Y127.448
N7300 G3 X122.384 Y128.961 I-0.707 J0.707
N7310 X105.594 Y134.959 I-18.384 J-24.961
N7320 X104.844 Y134.989 Z-1 I-1.594 J-30.959
N7330 X102.844 Y134.979 I-0.844 J-30.989
N7340 X102.094 Y134.942 Z-1.5 I1.156 J-30.979 F60
N7350 X85.616 Y128.961 I1.906 J-30.942 F300
N7360 X85.502 Y127.448 I0.593 J-0.805
N7370 G1 X85.969 Y126.981
N7380 G2 Y122.031 I-2.475 J-2.475
N7390 X81.019 I-2.475 J2.475
N7400 G1 X80.552 Y122.498
N7410 G3 X79.04 Y122.384 I-0.707 J-0.707
N7420 X73.077 Y106.186 I24.96 J-18.384
N7430 X73.033 Y105.437 Z-1 I30.923 J-2.186
N7440 X73.005 Y103.437 I30.967 J-1.437
N7450 X73.028 Y102.686 Z-1.5 I30.995 J0.563 F60
N7460 X79.04 Y85.616 I30.972 J1.313 F300
N7470 X80.552 Y85.502 I0.805 J0.593
N7480 G1 X81.019 Y85.969
N7490 G2 X85.969 Y81.019 I2.475 J-2.475
N7500 G1 X85.502 Y80.552
N7510 G3 X85.616 Y79.04 I0.707 J-0.707
N7520 X101.83 Y73.076 I18.384 J24.96
N7530 X102.58 Y73.033 Z-1 I2.169 J30.924
N7540 X104.58 Y73.006 I1.42 J30.967
N7550 X105.33 Y73.029 Z-1.5 I-0.58 J30.994 F60
N7560 X122.384 Y79.04 I-1.33 J30.971 F300
N7570 X122.498 Y80.552 I-0.593 J0.805
N7580 G1 X122.031 Y81.019
N7590 G2 X126.981 Y85.969 I2.475 J2.475
N7600 G1 X127.448 Y85.502
N7610 G3 X128.961 Y85.616 I0.707 J0.707
N7620 X134.99 Y103.189 I-24.961 J18.384
N7630 X135 Y103.94 Z-1 I-30.99 J0.811
N7640 X134.94 Y105.939 I-31 J0.06
N7650 X134.884 Y106.687 Z-1.5 I-30.94 J-1.939 F60
N7660 X128.961 Y122.384 I-30.884 J-2.688 F300
N7670 X127.448 Y122.498 I-0.805 J-0.593
N7680 G1 X126.981 Y122.031
N7690 G2 X122.031 I-2.475 J2.475
N7700 G3 X121.748 I-0.141 J-0.141 F1000
N7710 G1 X121.607 Y121.889
N7720 X121.57 Y121.853 Z-1.493
N7730 X121.536 Y121.819 Z-1.473
N7740 X121.507 Y121.789 Z-1.441
N7750 X121.484 Y121.767 Z-1.4
N7760 X121.47 Y121.753 Z-1.352
N7770 X121.465 Y121.748 Z-1.3
N7780 G0 Z2
N7790 X107.18 Y148.369
N7800 G1 Z1.1 F60
N7810 Z0.1
N7820 X107.185 Y148.373 Z0.048
N7830 X107.202 Y148.384 Z0
N7840 X107.228 Y148.403 Z-0.041
N7850 X107.261 Y148.427 Z-0.073
N7860 X107.301 Y148.455 Z-0.093
N7870 X107.343 Y148.485 Z-0.1
N7880 X107.506 Y148.6
N7890 G3 X107.553 Y148.879 I-0.116 J0.163
N7900 G2 X107 Y150.615 I2.446 J1.736 F300
N7910 G1 Y151
N7920 Y152
N7930 G2 X110 Y155 I3 J0
N7940 G1 X142
N7950 G3 X143 Y156 I0 J1
N7960 G1 Y160
N7970 G3 X142 Y161 I-1 J0
N7980 G1 X66
N7990 G3 X65 Y160 I0 J-1
N8000 G1 Y156
N8010 G3 X66 Y155 I1 J0
N8020 G1 X98
N8030 G2 X101 Y152 I0 J-3
N8040 G1 Y150.615
N8050 G2 X98.383 Y147.64 I-3 J0
N8060 G3 X76.314 Y138.198 I5.618 J-43.64
N8070 X76.236 Y136.713 I0.629 J-0.777
N8080 G1 X79.082 Y133.868
N8090 G3 X80.41 Y133.791 I0.707 J0.707
N8100 G2 X127.584 Y133.796 I23.59 J-29.791
N8110 G3 X128.901 Y133.862 I0.621 J0.784
N8120 G1 X131.795 Y136.669
N8130 G3 X131.729 Y138.164 I-0.697 J0.718
N8140 X109.617 Y147.64 I-27.728 J-34.164
N8150 G2 X107.553 Y148.879 I0.382 J2.975
N8160 G3 X107.275 Y148.927 I-0.163 J-0.116 F1000
N8170 G1 X107.112 Y148.811
N8180 X107.069 Y148.781 Z-0.093
N8190 X107.03 Y148.753 Z-0.073
N8200 X106.996 Y148.729 Z-0.041
N8210 X106.97 Y148.711 Z0
N8220 X106.954 Y148.699 Z0.048
N8230 X106.948 Y148.695 Z0.1
N8240 G0 Z2
N8250 X106.4 Y150.415
N8260 G1 Z1 F60
N8270 Z0
N8280 G18 G2 X106.6 Z-0.2 I0.2 K0
N8290 G1 X106.8
N8300 G17 G3 X107 Y150.615 I0 J0.2
N8310 G1 Y151 F300
N8320 Y152
N8330 G2 X110 Y155 I3 J0
N8340 G1 X142
N8350 G3 X143 Y156 I0 J1
N8360 G1 Y160
N8370 G3 X142 Y161 I-1 J0
N8380 G1 X66
N8390 G3 X65 Y160 I0 J-1
N8400 G1 Y156
N8410 G3 X66 Y155 I1 J0
N8420 G1 X98
N8430 G2 X101 Y152 I0 J-3
N8440 G1 Y150.615
N8450 G2 X98.383 Y147.64 I-3 J0
N8460 G3 X76.314 Y138.198 I5.618 J-43.64
N8470 X76.236 Y136.713 I0.629 J-0.777
N8480 G1 X79.082 Y133.868
N8490 G3 X80.41 Y133.791 I0.707 J0.707
N8500 G2 X127.584 Y133.796 I23.59 J-29.791
N8510 G3 X128.901 Y133.862 I0.621 J0.784
N8520 G1 X131.795 Y136.669
N8530 G3 X131.729 Y138.164 I-0.697 J0.718
N8540 X109.617 Y147.64 I-27.728 J-34.164
N8550 G2 X107 Y150.615 I0.382 J2.975
N8560 G3 X106.8 Y150.815 I-0.2 J0 F1000
N8570 G1 X106.6
N8580 X106.548 Z-0.193
N8590 X106.5 Z-0.173
N8600 X106.459 Z-0.141
N8610 X106.427 Z-0.1
N8620 X106.407 Z-0.052
N8630 X106.4 Z0
N8640 G0 Z2
N8650 Y150.415
N8660 G1 Z0.9 F60
N8670 Z-0.1
N8680 G18 G2 X106.6 Z-0.3 I0.2 K0
N8690 G1 X106.8
N8700 G17 G3 X107 Y150.615 I0 J0.2
N8710 G1 Y151 F300
N8720 Y152
N8730 G2 X110 Y155 I3 J0
N8740 G1 X142
N8750 G3 X143 Y156 I0 J1
N8760 G1 Y160
N8770 G3 X142 Y161 I-1 J0
N8780 G1 X66
N8790 G3 X65 Y160 I0 J-1
N8800 G1 Y156
N8810 G3 X66 Y155 I1 J0
N8820 G1 X98
N8830 G2 X101 Y152 I0 J-3
N8840 G1 Y150.615
N8850 G2 X98.383 Y147.64 I-3 J0
N8860 G3 X76.314 Y138.198 I5.618 J-43.64
N8870 X76.236 Y136.713 I0.629 J-0.777
N8880 G1 X79.082 Y133.868
N8890 G3 X80.41 Y133.791 I0.707 J0.707
N8900 G2 X127.584 Y133.796 I23.59 J-29.791
N8910 G3 X128.901 Y133.862 I0.621 J0.784
N8920 G1 X131.795 Y136.669
N8930 G3 X131.729 Y138.164 I-0.697 J0.718
N8940 X109.617 Y147.64 I-27.728 J-34.164
N8950 G2 X107 Y150.615 I0.382 J2.975
N8960 G3 X106.8 Y150.815 I-0.2 J0 F1000
N8970 G1 X106.6
N8980 X106.548 Z-0.293
N8990 X106.5 Z-0.273
N9000 X106.459 Z-0.241
N9010 X106.427 Z-0.2
N9020 X106.407 Z-0.152
N9030 X106.4 Z-0.1
N9040 G0 Z2
N9050 Y150.415
N9060 G1 Z0.8 F60
N9070 Z-0.2
N9080 G18 G2 X106.6 Z-0.4 I0.2 K0
N9090 G1 X106.8
N9100 G17 G3 X107 Y150.615 I0 J0.2
N9110 G1 Y151 F300
N9120 Y152
N9130 G2 X110 Y155 I3 J0
N9140 G1 X142
N9150 G3 X143 Y156 I0 J1
N9160 G1 Y160
N9170 G3 X142 Y161 I-1 J0
N9180 G1 X66
N9190 G3 X65 Y160 I0 J-1
N9200 G1 Y156
N9210 G3 X66 Y155 I1 J0
N9220 G1 X98
N9230 G2 X101 Y152 I0 J-3
N9240 G1 Y150.615
N9250 G2 X98.383 Y147.64 I-3 J0
N9260 G3 X76.314 Y138.198 I5.618 J-43.64
N9270 X76.236 Y136.713 I0.629 J-0.777
N9280 G1 X79.082 Y133.868
N9290 G3 X80.41 Y133.791 I0.707 J0.707
N9300 G2 X127.584 Y133.796 I23.59 J-29.791
N9310 G3 X128.901 Y133.862 I0.621 J0.784
N9320 G1 X131.795 Y136.669
N9330 G3 X131.729 Y138.164 I-0.697 J0.718
N9340 X109.617 Y147.64 I-27.728 J-34.164
N9350 G2 X107 Y150.615 I0.382 J2.975
N9360 G3 X106.8 Y150.815 I-0.2 J0 F1000
N9370 G1 X106.6
N9380 X106.548 Z-0.393
N9390 X106.5 Z-0.373
N9400 X106.459 Z-0.341
N9410 X106.427 Z-0.3
N9420 X106.407 Z-0.252
N9430 X106.4 Z-0.2
N9440 G0 Z2
N9450 Y150.415
N9460 G1 Z0.7 F60
N9470 Z-0.3
N9480 G18 G2 X106.6 Z-0.5 I0.2 K0
N9490 G1 X106.8
N9500 G17 G3 X107 Y150.615 I0 J0.2
N9510 G1 Y151 F300
N9520 Y152
N9530 G2 X110 Y155 I3 J0
N9540 G1 X142
N9550 G3 X143 Y156 I0 J1
N9560 G1 Y160
N9570 G3 X142 Y161 I-1 J0
N9580 G1 X66
N9590 G3 X65 Y160 I0 J-1
N9600 G1 Y156
N9610 G3 X66 Y155 I1 J0
N9620 G1 X98
N9630 G2 X101 Y152 I0 J-3
N9640 G1 Y150.615
N9650 G2 X98.383 Y147.64 I-3 J0
N9660 G3 X76.314 Y138.198 I5.618 J-43.64
N9670 X76.236 Y136.713 I0.629 J-0.777
N9680 G1 X79.082 Y133.868
N9690 G3 X80.41 Y133.791 I0.707 J0.707
N9700 G2 X127.584 Y133.796 I23.59 J-29.791
N9710 G3 X128.901 Y133.862 I0.621 J0.784
N9720 G1 X131.795 Y136.669
N9730 G3 X131.729 Y138.164 I-0.697 J0.718
N9740 X109.617 Y147.64 I-27.728 J-34.164
N9750 G2 X107 Y150.615 I0.382 J2.975
N9760 G3 X106.8 Y150.815 I-0.2 J0 F1000
N9770 G1 X106.6
N9780 X106.548 Z-0.493
N9790 X106.5 Z-0.473
N9800 X106.459 Z-0.441
N9810 X106.427 Z-0.4
N9820 X106.407 Z-0.352
N9830 X106.4 Z-0.3
N9840 G0 Z2
N9850 Y150.415
N9860 G1 Z0.6 F60
N9870 Z-0.4
N9880 G18 G2 X106.6 Z-0.6 I0.2 K0
N9890 G1 X106.8
N9900 G17 G3 X107 Y150.615 I0 J0.2
N9910 G1 Y151 F300
N9920 Y152
N9930 G2 X110 Y155 I3 J0
N9940 G1 X142
N9950 G3 X143 Y156 I0 J1
N9960 G1 Y160
N9970 G3 X142 Y161 I-1 J0
N9980 G1 X66
N9990 G3 X65 Y160 I0 J-1
N10000 G1 Y156
N10010 G3 X66 Y155 I1 J0
N10020 G1 X98
N10030 G2 X101 Y152 I0 J-3
N10040 G1 Y150.615
N10050 G2 X98.383 Y147.64 I-3 J0
N10060 G3 X76.314 Y138.198 I5.618 J-43.64
N10070 X76.236 Y136.713 I0.629 J-0.777
N10080 G1 X79.082 Y133.868
N10090 G3 X80.41 Y133.791 I0.707 J0.707
N10100 G2 X127.584 Y133.796 I23.59 J-29.791
N10110 G3 X128.901 Y133.862 I0.621 J0.784
N10120 G1 X131.795 Y136.669
N10130 G3 X131.729 Y138.164 I-0.697 J0.718
N10140 X109.617 Y147.64 I-27.728 J-34.164
N10150 G2 X107 Y150.615 I0.382 J2.975
N10160 G3 X106.8 Y150.815 I-0.2 J0 F1000
N10170 G1 X106.6
N10180 X106.548 Z-0.593
N10190 X106.5 Z-0.573
N10200 X106.459 Z-0.541
N10210 X106.427 Z-0.5
N10220 X106.407 Z-0.452
N10230 X106.4 Z-0.4
N10240 G0 Z2
N10250 Y150.415
N10260 G1 Z0.5 F60
N10270 Z-0.5
N10280 G18 G2 X106.6 Z-0.7 I0.2 K0
N10290 G1 X106.8
N10300 G17 G3 X107 Y150.615 I0 J0.2
N10310 G1 Y151 F300
N10320 Y152
N10330 G2 X110 Y155 I3 J0
N10340 G1 X142
N10350 G3 X143 Y156 I0 J1
N10360 G1 Y160
N10370 G3 X142 Y161 I-1 J0
N10380 G1 X66
N10390 G3 X65 Y160 I0 J-1
N10400 G1 Y156
N10410 G3 X66 Y155 I1 J0
N10420 G1 X98
N10430 G2 X101 Y152 I0 J-3
N10440 G1 Y150.615
N10450 G2 X98.383 Y147.64 I-3 J0
N10460 G3 X76.314 Y138.198 I5.618 J-43.64
N10470 X76.236 Y136.713 I0.629 J-0.777
N10480 G1 X79.082 Y133.868
N10490 G3 X80.41 Y133.791 I0.707 J0.707
N10500 G2 X127.584 Y133.796 I23.59 J-29.791
N10510 G3 X128.901 Y133.862 I0.621 J0.784
N10520 G1 X131.795 Y136.669
N10530 G3 X131.729 Y138.164 I-0.697 J0.718
N10540 X109.617 Y147.64 I-27.728 J-34.164
N10550 G2 X107 Y150.615 I0.382 J2.975
N10560 G3 X106.8 Y150.815 I-0.2 J0 F1000
N10570 G1 X106.6
N10580 X106.548 Z-0.693
N10590 X106.5 Z-0.673
N10600 X106.459 Z-0.641
N10610 X106.427 Z-0.6
N10620 X106.407 Z-0.552
N10630 X106.4 Z-0.5
N10640 G0 Z2
N10650 Y150.415
N10660 G1 Z0.4 F60
N10670 Z-0.6
N10680 G18 G2 X106.6 Z-0.8 I0.2 K0
N10690 G1 X106.8
N10700 G17 G3 X107 Y150.615 I0 J0.2
N10710 G1 Y151 F300
N10720 Y152
N10730 G2 X110 Y155 I3 J0
N10740 G1 X142
N10750 G3 X143 Y156 I0 J1
N10760 G1 Y160
N10770 G3 X142 Y161 I-1 J0
N10780 G1 X66
N10790 G3 X65 Y160 I0 J-1
N10800 G1 Y156
N10810 G3 X66 Y155 I1 J0
N10820 G1 X98
N10830 G2 X101 Y152 I0 J-3
N10840 G1 Y150.615
N10850 G2 X98.383 Y147.64 I-3 J0
N10860 G3 X76.314 Y138.198 I5.618 J-43.64
N10870 X76.236 Y136.713 I0.629 J-0.777
N10880 G1 X79.082 Y133.868
N10890 G3 X80.41 Y133.791 I0.707 J0.707
N10900 G2 X127.584 Y133.796 I23.59 J-29.791
N10910 G3 X128.901 Y133.862 I0.621 J0.784
N10920 G1 X131.795 Y136.669
N10930 G3 X131.729 Y138.164 I-0.697 J0.718
N10940 X109.617 Y147.64 I-27.728 J-34.164
N10950 G2 X107 Y150.615 I0.382 J2.975
N10960 G3 X106.8 Y150.815 I-0.2 J0 F1000
N10970 G1 X106.6
N10980 X106.548 Z-0.793
N10990 X106.5 Z-0.773
N11000 X106.459 Z-0.741
N11010 X106.427 Z-0.7
N11020 X106.407 Z-0.652
N11030 X106.4 Z-0.6
N11040 G0 Z2
N11050 Y150.415
N11060 G1 Z0.3 F60
N11070 Z-0.7
N11080 G18 G2 X106.6 Z-0.9 I0.2 K0
N11090 G1 X106.8
N11100 G17 G3 X107 Y150.615 I0 J0.2
N11110 G1 Y151 F300
N11120 Y152
N11130 G2 X110 Y155 I3 J0
N11140 G1 X142
N11150 G3 X143 Y156 I0 J1
N11160 G1 Y160
N11170 G3 X142 Y161 I-1 J0
N11180 G1 X66
N11190 G3 X65 Y160 I0 J-1
N11200 G1 Y156
N11210 G3 X66 Y155 I1 J0
N11220 G1 X98
N11230 G2 X101 Y152 I0 J-3
N11240 G1 Y150.615
N11250 G2 X98.383 Y147.64 I-3 J0
N11260 G3 X76.314 Y138.198 I5.618 J-43.64
N11270 X76.236 Y136.713 I0.629 J-0.777
N11280 G1 X79.082 Y133.868
N11290 G3 X80.41 Y133.791 I0.707 J0.707
N11300 G2 X127.584 Y133.796 I23.59 J-29.791
N11310 G3 X128.901 Y133.862 I0.621 J0.784
N11320 G1 X131.795 Y136.669
N11330 G3 X131.729 Y138.164 I-0.697 J0.718
N11340 X109.617 Y147.64 I-27.728 J-34.164
N11350 G2 X107 Y150.615 I0.382 J2.975
N11360 G3 X106.8 Y150.815 I-0.2 J0 F1000
N11370 G1 X106.6
N11380 X106.548 Z-0.893
N11390 X106.5 Z-0.873
N11400 X106.459 Z-0.841
N11410 X106.427 Z-0.8
N11420 X106.407 Z-0.752
N11430 X106.4 Z-0.7
N11440 G0 Z2
N11450 Y150.415
N11460 G1 Z0.2 F60
N11470 Z-0.8
N11480 G18 G2 X106.6 Z-1 I0.2 K0
N11490 G1 X106.8
N11500 G17 G3 X107 Y150.615 I0 J0.2
N11510 G1 Y151 F300
N11520 Y152
N11530 G2 X110 Y155 I3 J0
N11540 G1 X142
N11550 G3 X143 Y156 I0 J1
N11560 G1 Y160
N11570 G3 X142 Y161 I-1 J0
N11580 G1 X66
N11590 G3 X65 Y160 I0 J-1
N11600 G1 Y156
N11610 G3 X66 Y155 I1 J0
N11620 G1 X98
N11630 G2 X101 Y152 I0 J-3
N11640 G1 Y150.615
N11650 G2 X98.383 Y147.64 I-3 J0
N11660 G3 X76.314 Y138.198 I5.618 J-43.64
N11670 X76.236 Y136.713 I0.629 J-0.777
N11680 G1 X79.082 Y133.868
N11690 G3 X80.41 Y133.791 I0.707 J0.707
N11700 G2 X127.584 Y133.796 I23.59 J-29.791
N11710 G3 X128.901 Y133.862 I0.621 J0.784
N11720 G1 X131.795 Y136.669
N11730 G3 X131.729 Y138.164 I-0.697 J0.718
N11740 X109.617 Y147.64 I-27.728 J-34.164
N11750 G2 X107 Y150.615 I0.382 J2.975
N11760 G3 X106.8 Y150.815 I-0.2 J0 F1000
N11770 G1 X106.6
N11780 X106.548 Z-0.993
N11790 X106.5 Z-0.973
N11800 X106.459 Z-0.941
N11810 X106.427 Z-0.9
N11820 X106.407 Z-0.852
N11830 X106.4 Z-0.8
N11840 G0 Z2
N11850 Y150.415
N11860 G1 Z0.1 F60
N11870 Z-0.9
N11880 G18 G2 X106.6 Z-1.1 I0.2 K0
N11890 G1 X106.8
N11900 G17 G3 X107 Y150.615 I0 J0.2
N11910 G1 Y151 F300
N11920 Y152
N11930 G2 X110 Y155 I3 J0
N11940 G1 X142
N11950 G3 X143 Y156 I0 J1
N11960 G1 Y160
N11970 G3 X142 Y161 I-1 J0
N11980 G1 X126.926
N11990 X126.776 Z-1
N12000 X124.776
N12010 X124.626 Z-1.1 F60
N12020 X80.439 F300
N12030 X80.289 Z-1
N12040 X78.289
N12050 X78.139 Z-1.1 F60
N12060 X66 F300
N12070 G3 X65 Y160 I0 J-1
N12080 G1 Y156
N12090 G3 X66 Y155 I1 J0
N12100 G1 X98
N12110 G2 X101 Y152 I0 J-3
N12120 G1 Y150.615
N12130 G2 X98.383 Y147.64 I-3 J0
N12140 G3 X76.314 Y138.198 I5.618 J-43.64
N12150 X76.236 Y136.713 I0.629 J-0.777
N12160 G1 X79.082 Y133.868
N12170 G3 X80.41 Y133.791 I0.707 J0.707
N12180 G2 X93.046 Y140.387 I23.59 J-29.791
N12190 G1 X93.19 Y140.43 Z-1
N12200 G2 X95.122 Y140.948 I10.81 J-36.43
N12210 G1 X95.268 Y140.983 Z-1.1 F60
N12220 G2 X115.391 Y140.253 I8.732 J-36.983 F300
N12230 G1 X115.534 Y140.207 Z-1
N12240 G2 X117.423 Y139.55 I-11.534 J-36.207
N12250 G1 X117.563 Y139.497 Z-1.1 F60
N12260 G2 X127.584 Y133.796 I-13.563 J-35.497 F300
N12270 G3 X128.901 Y133.862 I0.621 J0.784
N12280 G1 X131.795 Y136.669
N12290 G3 X131.729 Y138.164 I-0.697 J0.718
N12300 X109.617 Y147.64 I-27.728 J-34.164
N12310 G2 X107 Y150.615 I0.382 J2.975
N12320 G3 X106.8 Y150.815 I-0.2 J0 F1000
N12330 G1 X106.6
N12340 X106.548 Z-1.093
N12350 X106.5 Z-1.073
N12360 X106.459 Z-1.041
N12370 X106.427 Z-1
N12380 X106.407 Z-0.952
N12390 X106.4 Z-0.9
N12400 G0 Z2
N12410 Y150.415
N12420 G1 Z0 F60
N12430 Z-1
N12440 G18 G2 X106.6 Z-1.2 I0.2 K0
N12450 G1 X106.8
N12460 G17 G3 X107 Y150.615 I0 J0.2
N12470 G1 Y151 F300
N12480 Y152
N12490 G2 X110 Y155 I3 J0
N12500 G1 X142
N12510 G3 X143 Y156 I0 J1
N12520 G1 Y160
N12530 G3 X142 Y161 I-1 J0
N12540 G1 X127.076
N12550 X126.776 Z-1
N12560 X124.776
N12570 X124.476 Z-1.2 F60
N12580 X80.589 F300
N12590 X80.289 Z-1
N12600 X78.289
N12610 X77.989 Z-1.2 F60
N12620 X66 F300
N12630 G3 X65 Y160 I0 J-1
N12640 G1 Y156
N12650 G3 X66 Y155 I1 J0
N12660 G1 X98
N12670 G2 X101 Y152 I0 J-3
N12680 G1 Y150.615
N12690 G2 X98.383 Y147.64 I-3 J0
N12700 G3 X76.314 Y138.198 I5.618 J-43.64
N12710 X76.236 Y136.713 I0.629 J-0.777
N12720 G1 X79.082 Y133.868
N12730 G3 X80.41 Y133.791 I0.707 J0.707
N12740 G2 X92.903 Y140.343 I23.59 J-29.791
N12750 X93.19 Y140.43 Z-1 I11.097 J-36.343
N12760 X95.122 Y140.948 I10.81 J-36.43
N12770 X95.414 Y141.017 Z-1.2 I8.878 J-36.948 F60
N12780 X115.247 Y140.297 I8.586 J-37.017 F300
N12790 X115.534 Y140.207 Z-1 I-11.247 J-36.297
N12800 X117.423 Y139.55 I-11.534 J-36.207
N12810 X117.703 Y139.443 Z-1.2 I-13.423 J-35.55 F60
N12820 X127.584 Y133.796 I-13.703 J-35.443 F300
N12830 G3 X128.901 Y133.862 I0.621 J0.784
N12840 G1 X131.795 Y136.669
N12850 G3 X131.729 Y138.164 I-0.697 J0.718
N12860 X109.617 Y147.64 I-27.728 J-34.164
N12870 G2 X107 Y150.615 I0.382 J2.975
N12880 G3 X106.8 Y150.815 I-0.2 J0 F1000
N12890 G1 X106.6
N12900 X106.548 Z-1.193
N12910 X106.5 Z-1.173
N12920 X106.459 Z-1.141
N12930 X106.427 Z-1.1
N12940 X106.407 Z-1.052
N12950 X106.4 Z-1
N12960 G0 Z2
N12970 Y150.415
N12980 G1 Z-0.1 F60
N12990 Z-1.1
N13000 G18 G2 X106.6 Z-1.3 I0.2 K0
N13010 G1 X106.8
N13020 G17 G3 X107 Y150.615 I0 J0.2
N13030 G1 Y151 F300
N13040 Y152
N13050 G2 X110 Y155 I3 J0
N13060 G1 X142
N13070 G3 X143 Y156 I0 J1
N13080 G1 Y160
N13090 G3 X142 Y161 I-1 J0
N13100 G1 X127.226
N13110 X126.776 Z-1
N13120 X124.776
N13130 X124.326 Z-1.3 F60
N13140 X80.739 F300
N13150 X80.289 Z-1
N13160 X78.289
N13170 X77.839 Z-1.3 F60
N13180 X66 F300
N13190 G3 X65 Y160 I0 J-1
N13200 G1 Y156
N13210 G3 X66 Y155 I1 J0
N13220 G1 X98
N13230 G2 X101 Y152 I0 J-3
N13240 G1 Y150.615
N13250 G2 X98.383 Y147.64 I-3 J0
N13260 G3 X76.314 Y138.198 I5.618 J-43.64
N13270 X76.236 Y136.713 I0.629 J-0.777
N13280 G1 X79.082 Y133.868
N13290 G3 X80.41 Y133.791 I0.707 J0.707
N13300 G2 X92.759 Y140.299 I23.59 J-29.791
N13310 X93.19 Y140.43 Z-1 I11.241 J-36.299
N13320 X95.122 Y140.948 I10.81 J-36.43
N13330 X95.56 Y141.051 Z-1.3 I8.878 J-36.948 F60
N13340 X115.104 Y140.341 I8.44 J-37.051 F300
N13350 X115.534 Y140.207 Z-1 I-11.104 J-36.341
N13360 X117.423 Y139.55 I-11.534 J-36.207
N13370 X117.843 Y139.389 Z-1.3 I-13.423 J-35.55 F60
N13380 X127.584 Y133.796 I-13.843 J-35.389 F300
N13390 G3 X128.901 Y133.862 I0.621 J0.784
N13400 G1 X131.795 Y136.669
N13410 G3 X131.729 Y138.164 I-0.697 J0.718
N13420 X109.617 Y147.64 I-27.728 J-34.164
N13430 G2 X107 Y150.615 I0.382 J2.975
N13440 G3 X106.8 Y150.815 I-0.2 J0 F1000
N13450 G1 X106.6
N13460 X106.548 Z-1.293
N13470 X106.5 Z-1.273
N13480 X106.459 Z-1.241
N13490 X106.427 Z-1.2
N13500 X106.407 Z-1.152
N13510 X106.4 Z-1.1
N13520 G0 Z2
N13530 Y150.415
N13540 G1 Z-0.2 F60
N13550 Z-1.2
N13560 G18 G2 X106.6 Z-1.4 I0.2 K0
N13570 G1 X106.8
N13580 G17 G3 X107 Y150.615 I0 J0.2
N13590 G1 Y151 F300
N13600 Y152
N13610 G2 X110 Y155 I3 J0
N13620 G1 X142
N13630 G3 X143 Y156 I0 J1
N13640 G1 Y160
N13650 G3 X142 Y161 I-1 J0
N13660 G1 X127.376
N13670 X126.776 Z-1
N13680 X124.776
N13690 X124.176 Z-1.4 F60
N13700 X80.889 F300
N13710 X80.289 Z-1
N13720 X78.289
N13730 X77.689 Z-1.4 F60
N13740 X66 F300
N13750 G3 X65 Y160 I0 J-1
N13760 G1 Y156
N13770 G3 X66 Y155 I1 J0
N13780 G1 X98
N13790 G2 X101 Y152 I0 J-3
N13800 G1 Y150.615
N13810 G2 X98.383 Y147.64 I-3 J0
N13820 G3 X76.314 Y138.198 I5.618 J-43.64
N13830 X76.236 Y136.713 I0.629 J-0.777
N13840 G1 X79.082 Y133.868
N13850 G3 X80.41 Y133.791 I0.707 J0.707
N13860 G2 X92.616 Y140.255 I23.59 J-29.791
N13870 X93.19 Y140.43 Z-1 I11.384 J-36.255
N13880 X95.122 Y140.948 I10.81 J-36.43
N13890 X95.707 Y141.084 Z-1.4 I8.878 J-36.948 F60
N13900 X114.96 Y140.385 I8.293 J-37.084 F300
N13910 X115.534 Y140.207 Z-1 I-10.96 J-36.385
N13920 X117.423 Y139.55 I-11.534 J-36.207
N13930 X117.983 Y139.334 Z-1.4 I-13.423 J-35.55 F60
N13940 X127.584 Y133.796 I-13.983 J-35.334 F300
N13950 G3 X128.901 Y133.862 I0.621 J0.784
N13960 G1 X131.795 Y136.669
N13970 G3 X131.729 Y138.164 I-0.697 J0.718
N13980 X109.617 Y147.64 I-27.728 J-34.164
N13990 G2 X107 Y150.615 I0.382 J2.975
N14000 G3 X106.8 Y150.815 I-0.2 J0 F1000
N14010 G1 X106.6
N14020 X106.548 Z-1.393
N14030 X106.5 Z-1.373
N14040 X106.459 Z-1.341
N14050 X106.427 Z-1.3
N14060 X106.407 Z-1.252
N14070 X106.4 Z-1.2
N14080 G0 Z2
N14090 Y150.415
N14100 G1 Z-0.3 F60
N14110 Z-1.3
N14120 G18 G2 X106.6 Z-1.5 I0.2 K0
N14130 G1 X106.8
N14140 G17 G3 X107 Y150.615 I0 J0.2
N14150 G1 Y151 F300
N14160 Y152
N14170 G2 X110 Y155 I3 J0
N14180 G1 X142
N14190 G3 X143 Y156 I0 J1
N14200 G1 Y160
N14210 G3 X142 Y161 I-1 J0
N14220 G1 X127.526
N14230 X126.776 Z-1
N14240 X124.776
N14250 X124.026 Z-1.5 F60
N14260 X81.039 F300
N14270 X80.289 Z-1
N14280 X78.289
N14290 X77.539 Z-1.5 F60
N14300 X66 F300
N14310 G3 X65 Y160 I0 J-1
N14320 G1 Y156
N14330 G3 X66 Y155 I1 J0
N14340 G1 X98
N14350 G2 X101 Y152 I0 J-3
N14360 G1 Y150.615
N14370 G2 X98.383 Y147.64 I-3 J0
N14380 G3 X76.314 Y138.198 I5.618 J-43.64
N14390 X76.236 Y136.713 I0.629 J-0.777
N14400 G1 X79.082 Y133.868
N14410 G3 X80.41 Y133.791 I0.707 J0.707
N14420 G2 X92.473 Y140.209 I23.59 J-29.791
N14430 X93.19 Y140.43 Z-1 I11.527 J-36.209
N14440 X95.122 Y140.948 I10.81 J-36.43
N14450 X95.853 Y141.116 Z-1.5 I8.878 J-36.948 F60
N14460 X114.816 Y140.428 I8.147 J-37.116 F300
N14470 X115.534 Y140.207 Z-1 I-10.816 J-36.428
N14480 X117.423 Y139.55 I-11.534 J-36.207
N14490 X118.122 Y139.278 Z-1.5 I-13.423 J-35.55 F60
N14500 X127.584 Y133.796 I-14.122 J-35.278 F300
N14510 G3 X128.901 Y133.862 I0.621 J0.784
N14520 G1 X131.795 Y136.669
N14530 G3 X131.729 Y138.164 I-0.697 J0.718
N14540 X109.617 Y147.64 I-27.728 J-34.164
N14550 G2 X107 Y150.615 I0.382 J2.975
N14560 G3 X106.8 Y150.815 I-0.2 J0 F1000
N14570 G1 X106.6
N14580 X106.548 Z-1.493
N14590 X106.5 Z-1.473
N14600 X106.459 Z-1.441
N14610 X106.427 Z-1.4
N14620 X106.407 Z-1.352
N14630 X106.4 Z-1.3
N14640 G0 Z2
N14650 X137.326 Y144.43
N14660 G1 Z1.1 F60
N14670 Z0.1
N14680 X137.33 Y144.424 Z0.048
N14690 X137.34 Y144.407 Z0
N14700 X137.356 Y144.379 Z-0.041
N14710 X137.376 Y144.343 Z-0.073
N14720 X137.4 Y144.301 Z-0.093
N14730 X137.426 Y144.257 Z-0.1
N14740 X137.526 Y144.083
N14750 G3 X137.799 Y144.01 I0.173 J0.1
N14760 G1 X141.478 Y146.134 F300
N14770 G3 X140.978 Y148 I-0.5 J0.866
N14780 G1 X133.24
N14790 G3 X132.678 Y146.173 I0 J-1
N14800 G2 X136.001 Y143.711 I-28.675 J-42.175
N14810 G3 X137.129 Y143.623 I0.628 J0.778
N14820 G1 X137.799 Y144.01
N14830 G3 X137.873 Y144.283 I-0.1 J0.173 F1000
N14840 G1 X137.773 Y144.457
N14850 X137.747 Y144.501 Z-0.093
N14860 X137.723 Y144.543 Z-0.073
N14870 X137.702 Y144.579 Z-0.041
N14880 X137.686 Y144.607 Z0
N14890 X137.676 Y144.624 Z0.048
N14900 X137.673 Y144.63 Z0.1
N14910 G0 Z2
N14920 X137.326 Y144.43
N14930 G1 Z1 F60
N14940 Z0
N14950 X137.33 Y144.424 Z-0.052
N14960 X137.34 Y144.407 Z-0.1
N14970 X137.356 Y144.379 Z-0.141
N14980 X137.376 Y144.343 Z-0.173
N14990 X137.4 Y144.301 Z-0.193
N15000 X137.426 Y144.257 Z-0.2
N15010 X137.526 Y144.083
N15020 G3 X137.799 Y144.01 I0.173 J0.1
N15030 G1 X141.478 Y146.134 F300
N15040 G3 X140.978 Y148 I-0.5 J0.866
N15050 G1 X133.24
N15060 G3 X132.678 Y146.173 I0 J-1
N15070 G2 X136.001 Y143.711 I-28.675 J-42.175
N15080 G3 X137.129 Y143.623 I0.628 J0.778
N15090 G1 X137.799 Y144.01
N15100 G3 X137.873 Y144.283 I-0.1 J0.173 F1000
N15110 G1 X137.773 Y144.457
N15120 X137.747 Y144.501 Z-0.193
N15130 X137.723 Y144.543 Z-0.173
N15140 X137.702 Y144.579 Z-0.141
N15150 X137.686 Y144.607 Z-0.1
N15160 X137.676 Y144.624 Z-0.052
N15170 X137.673 Y144.63 Z0
N15180 G0 Z2
N15190 X137.326 Y144.43
N15200 G1 Z0.9 F60
N15210 Z-0.1
N15220 X137.33 Y144.424 Z-0.152
N15230 X137.34 Y144.407 Z-0.2
N15240 X137.356 Y144.379 Z-0.241
N15250 X137.376 Y144.343 Z-0.273
N15260 X137.4 Y144.301 Z-0.293
N15270 X137.426 Y144.257 Z-0.3
N15280 X137.526 Y144.083
N15290 G3 X137.799 Y144.01 I0.173 J0.1
N15300 G1 X141.478 Y146.134 F300
N15310 G3 X140.978 Y148 I-0.5 J0.866
N15320 G1 X133.24
N15330 G3 X132.678 Y146.173 I0 J-1
N15340 G2 X136.001 Y143.711 I-28.675 J-42.175
N15350 G3 X137.129 Y143.623 I0.628 J0.778
N15360 G1 X137.799 Y144.01
N15370 G3 X137.873 Y144.283 I-0.1 J0.173 F1000
N15380 G1 X137.773 Y144.457
N15390 X137.747 Y144.501 Z-0.293
N15400 X137.723 Y144.543 Z-0.273
N15410 X137.702 Y144.579 Z-0.241
N15420 X137.686 Y144.607 Z-0.2
N15430 X137.676 Y144.624 Z-0.152
N15440 X137.673 Y144.63 Z-0.1
N15450 G0 Z2
N15460 X137.326 Y144.43
N15470 G1 Z0.8 F60
N15480 Z-0.2
N15490 X137.33 Y144.424 Z-0.252
N15500 X137.34 Y144.407 Z-0.3
N15510 X137.356 Y144.379 Z-0.341
N15520 X137.376 Y144.343 Z-0.373
N15530 X137.4 Y144.301 Z-0.393
N15540 X137.426 Y144.257 Z-0.4
N15550 X137.526 Y144.083
N15560 G3 X137.799 Y144.01 I0.173 J0.1
N15570 G1 X141.478 Y146.134 F300
N15580 G3 X140.978 Y148 I-0.5 J0.866
N15590 G1 X133.24
N15600 G3 X132.678 Y146.173 I0 J-1
N15610 G2 X136.001 Y143.711 I-28.675 J-42.175
N15620 G3 X137.129 Y143.623 I0.628 J0.778
N15630 G1 X137.799 Y144.01
N15640 G3 X137.873 Y144.283 I-0.1 J0.173 F1000
N15650 G1 X137.773 Y144.457
N15660 X137.747 Y144.501 Z-0.393
N15670 X137.723 Y144.543 Z-0.373
N15680 X137.702 Y144.579 Z-0.341
N15690 X137.686 Y144.607 Z-0.3
N15700 X137.676 Y144.624 Z-0.252
N15710 X137.673 Y144.63 Z-0.2
N15720 G0 Z2
N15730 X137.326 Y144.43
N15740 G1 Z0.7 F60
N15750 Z-0.3
N15760 X137.33 Y144.424 Z-0.352
N15770 X137.34 Y144.407 Z-0.4
N15780 X137.356 Y144.379 Z-0.441
N15790 X137.376 Y144.343 Z-0.473
N15800 X137.4 Y144.301 Z-0.493
N15810 X137.426 Y144.257 Z-0.5
N15820 X137.526 Y144.083
N15830 G3 X137.799 Y144.01 I0.173 J0.1
N15840 G1 X141.478 Y146.134 F300
N15850 G3 X140.978 Y148 I-0.5 J0.866
N15860 G1 X133.24
N15870 G3 X132.678 Y146.173 I0 J-1
N15880 G2 X136.001 Y143.711 I-28.675 J-42.175
N15890 G3 X137.129 Y143.623 I0.628 J0.778
N15900 G1 X137.799 Y144.01
N15910 G3 X137.873 Y144.283 I-0.1 J0.173 F1000
N15920 G1 X137.773 Y144.457
N15930 X137.747 Y144.501 Z-0.493
N15940 X137.723 Y144.543 Z-0.473
N15950 X137.702 Y144.579 Z-0.441
N15960 X137.686 Y144.607 Z-0.4
N15970 X137.676 Y144.624 Z-0.352
N15980 X137.673 Y144.63 Z-0.3
N15990 G0 Z2
N16000 X137.326 Y144.43
N16010 G1 Z0.6 F60
N16020 Z-0.4
N16030 X137.33 Y144.424 Z-0.452
N16040 X137.34 Y144.407 Z-0.5
N16050 X137.356 Y144.379 Z-0.541
N16060 X137.376 Y144.343 Z-0.573
N16070 X137.4 Y144.301 Z-0.593
N16080 X137.426 Y144.257 Z-0.6
N16090 X137.526 Y144.083
N16100 G3 X137.799 Y144.01 I0.173 J0.1
N16110 G1 X141.478 Y146.134 F300
N16120 G3 X140.978 Y148 I-0.5 J0.866
N16130 G1 X133.24
N16140 G3 X132.678 Y146.173 I0 J-1
N16150 G2 X136.001 Y143.711 I-28.675 J-42.175
N16160 G3 X137.129 Y143.623 I0.628 J0.778
N16170 G1 X137.799 Y144.01
N16180 G3 X137.873 Y144.283 I-0.1 J0.173 F1000
N16190 G1 X137.773 Y144.457
N16200 X137.747 Y144.501 Z-0.593
N16210 X137.723 Y144.543 Z-0.573
N16220 X137.702 Y144.579 Z-0.541
N16230 X137.686 Y144.607 Z-0.5
N16240 X137.676 Y144.624 Z-0.452
N16250 X137.673 Y144.63 Z-0.4
N16260 G0 Z2
N16270 X137.326 Y144.43
N16280 G1 Z0.5 F60
N16290 Z-0.5
N16300 X137.33 Y144.424 Z-0.552
N16310 X137.34 Y144.407 Z-0.6
N16320 X137.356 Y144.379 Z-0.641
N16330 X137.376 Y144.343 Z-0.673
N16340 X137.4 Y144.301 Z-0.693
N16350 X137.426 Y144.257 Z-0.7
N16360 X137.526 Y144.083
N16370 G3 X137.799 Y144.01 I0.173 J0.1
N16380 G1 X141.478 Y146.134 F300
N16390 G3 X140.978 Y148 I-0.5 J0.866
N16400 G1 X133.24
N16410 G3 X132.678 Y146.173 I0 J-1
N16420 G2 X136.001 Y143.711 I-28.675 J-42.175
N16430 G3 X137.129 Y143.623 I0.628 J0.778
N16440 G1 X137.799 Y144.01
N16450 G3 X137.873 Y144.283 I-0.1 J0.173 F1000
N16460 G1 X137.773 Y144.457
N16470 X137.747 Y144.501 Z-0.693
N16480 X137.723 Y144.543 Z-0.673
N16490 X137.702 Y144.579 Z-0.641
N16500 X137.686 Y144.607 Z-0.6
N16510 X137.676 Y144.624 Z-0.552
N16520 X137.673 Y144.63 Z-0.5
N16530 G0 Z2
N16540 X137.326 Y144.43
N16550 G1 Z0.4 F60
N16560 Z-0.6
N16570 X137.33 Y144.424 Z-0.652
N16580 X137.34 Y144.407 Z-0.7
N16590 X137.356 Y144.379 Z-0.741
N16600 X137.376 Y144.343 Z-0.773
N16610 X137.4 Y144.301 Z-0.793
N16620 X137.426 Y144.257 Z-0.8
N16630 X137.526 Y144.083
N16640 G3 X137.799 Y144.01 I0.173 J0.1
N16650 G1 X141.478 Y146.134 F300
N16660 G3 X140.978 Y148 I-0.5 J0.866
N16670 G1 X133.24
N16680 G3 X132.678 Y146.173 I0 J-1
N16690 G2 X136.001 Y143.711 I-28.675 J-42.175
N16700 G3 X137.129 Y143.623 I0.628 J0.778
N16710 G1 X137.799 Y144.01
N16720 G3 X137.873 Y144.283 I-0.1 J0.173 F1000
N16730 G1 X137.773 Y144.457
N16740 X137.747 Y144.501 Z-0.793
N16750 X137.723 Y144.543 Z-0.773
N16760 X137.702 Y144.579 Z-0.741
N16770 X137.686 Y144.607 Z-0.7
N16780 X137.676 Y144.624 Z-0.652
N16790 X137.673 Y144.63 Z-0.6
N16800 G0 Z2
N16810 X137.326 Y144.43
N16820 G1 Z0.3 F60
N16830 Z-0.7
N16840 X137.33 Y144.424 Z-0.752
N16850 X137.34 Y144.407 Z-0.8
N16860 X137.356 Y144.379 Z-0.841
N16870 X137.376 Y144.343 Z-0.873
N16880 X137.4 Y144.301 Z-0.893
N16890 X137.426 Y144.257 Z-0.9
N16900 X137.526 Y144.083
N16910 G3 X137.799 Y144.01 I0.173 J0.1
N16920 G1 X141.478 Y146.134 F300
N16930 G3 X140.978 Y148 I-0.5 J0.866
N16940 G1 X133.24
N16950 G3 X132.678 Y146.173 I0 J-1
N16960 G2 X136.001 Y143.711 I-28.675 J-42.175
N16970 G3 X137.129 Y143.623 I0.628 J0.778
N16980 G1 X137.799 Y144.01
N16990 G3 X137.873 Y144.283 I-0.1 J0.173 F1000
N17000 G1 X137.773 Y144.457
N17010 X137.747 Y144.501 Z-0.893
N17020 X137.723 Y144.543 Z-0.873
N17030 X137.702 Y144.579 Z-0.841
N17040 X137.686 Y144.607 Z-0.8
N17050 X137.676 Y144.624 Z-0.752
N17060 X137.673 Y144.63 Z-0.7
N17070 G0 Z2
N17080 X137.326 Y144.43
N17090 G1 Z0.2 F60
N17100 Z-0.8
N17110 X137.33 Y144.424 Z-0.852
N17120 X137.34 Y144.407 Z-0.9
N17130 X137.356 Y144.379 Z-0.941
N17140 X137.376 Y144.343 Z-0.973
N17150 X137.4 Y144.301 Z-0.993
N17160 X137.426 Y144.257 Z-1
N17170 X137.526 Y144.083
N17180 G3 X137.799 Y144.01 I0.173 J0.1
N17190 G1 X141.478 Y146.134 F300
N17200 G3 X140.978 Y148 I-0.5 J0.866
N17210 G1 X133.24
N17220 G3 X132.678 Y146.173 I0 J-1
N17230 G2 X136.001 Y143.711 I-28.675 J-42.175
N17240 G3 X137.129 Y143.623 I0.628 J0.778
N17250 G1 X137.799 Y144.01
N17260 G3 X137.873 Y144.283 I-0.1 J0.173 F1000
N17270 G1 X137.773 Y144.457
N17280 X137.747 Y144.501 Z-0.993
N17290 X137.723 Y144.543 Z-0.973
N17300 X137.702 Y144.579 Z-0.941
N17310 X137.686 Y144.607 Z-0.9
N17320 X137.676 Y144.624 Z-0.852
N17330 X137.673 Y144.63 Z-0.8
N17340 G0 Z2
N17350 X137.326 Y144.43
N17360 G1 Z0.1 F60
N17370 Z-0.9
N17380 X137.33 Y144.424 Z-0.952
N17390 X137.34 Y144.407 Z-1
N17400 X137.356 Y144.379 Z-1.041
N17410 X137.376 Y144.343 Z-1.073
N17420 X137.4 Y144.301 Z-1.093
N17430 X137.426 Y144.257 Z-1.1
N17440 X137.526 Y144.083
N17450 G3 X137.799 Y144.01 I0.173 J0.1
N17460 G1 X141.478 Y146.134 F300
N17470 G3 X140.978 Y148 I-0.5 J0.866
N17480 G1 X138.415
N17490 X138.265 Z-1
N17500 X136.265
N17510 X136.115 Z-1.1 F60
N17520 X133.24 F300
N17530 G3 X132.678 Y146.173 I0 J-1
N17540 G2 X136.001 Y143.711 I-28.675 J-42.175
N17550 G3 X137.129 Y143.623 I0.628 J0.778
N17560 G1 X137.799 Y144.01
N17570 G3 X137.873 Y144.283 I-0.1 J0.173 F1000
N17580 G1 X137.773 Y144.457
N17590 X137.747 Y144.501 Z-1.093
N17600 X137.723 Y144.543 Z-1.073
N17610 X137.702 Y144.579 Z-1.041
N17620 X137.686 Y144.607 Z-1
N17630 X137.676 Y144.624 Z-0.952
N17640 X137.673 Y144.63 Z-0.9
N17650 G0 Z2
N17660 X137.326 Y144.43
N17670 G1 Z0 F60
N17680 Z-1
N17690 X137.33 Y144.424 Z-1.052
N17700 X137.34 Y144.407 Z-1.1
N17710 X137.356 Y144.379 Z-1.141
N17720 X137.376 Y144.343 Z-1.173
N17730 X137.4 Y144.301 Z-1.193
N17740 X137.426 Y144.257 Z-1.2
N17750 X137.526 Y144.083
N17760 G3 X137.799 Y144.01 I0.173 J0.1
N17770 G1 X141.478 Y146.134 F300
N17780 G3 X140.978 Y148 I-0.5 J0.866
N17790 G1 X138.565
N17800 X138.265 Z-1
N17810 X136.265
N17820 X135.965 Z-1.2 F60
N17830 X133.24 F300
N17840 G3 X132.678 Y146.173 I0 J-1
N17850 G2 X136.001 Y143.711 I-28.675 J-42.175
N17860 G3 X137.129 Y143.623 I0.628 J0.778
N17870 G1 X137.799 Y144.01
N17880 G3 X137.873 Y144.283 I-0.1 J0.173 F1000
N17890 G1 X137.773 Y144.457
N17900 X137.747 Y144.501 Z-1.193
N17910 X137.723 Y144.543 Z-1.173
N17920 X137.702 Y144.579 Z-1.141
N17930 X137.686 Y144.607 Z-1.1
N17940 X137.676 Y144.624 Z-1.052
N17950 X137.673 Y144.63 Z-1
N17960 G0 Z2
N17970 X137.326 Y144.43
N17980 G1 Z-0.1 F60
N17990 Z-1.1
N18000 X137.33 Y144.424 Z-1.152
N18010 X137.34 Y144.407 Z-1.2
N18020 X137.356 Y144.379 Z-1.241
N18030 X137.376 Y144.343 Z-1.273
N18040 X137.4 Y144.301 Z-1.293
N18050 X137.426 Y144.257 Z-1.3
N18060 X137.526 Y144.083
N18070 G3 X137.799 Y144.01 I0.173 J0.1
N18080 G1 X141.478 Y146.134 F300
N18090 G3 X140.978 Y148 I-0.5 J0.866
N18100 G1 X138.715
N18110 X138.265 Z-1
N18120 X136.265
N18130 X135.815 Z-1.3 F60
N18140 X133.24 F300
N18150 G3 X132.678 Y146.173 I0 J-1
N18160 G2 X136.001 Y143.711 I-28.675 J-42.175
N18170 G3 X137.129 Y143.623 I0.628 J0.778
N18180 G1 X137.799 Y144.01
N18190 G3 X137.873 Y144.283 I-0.1 J0.173 F1000
N18200 G1 X137.773 Y144.457
N18210 X137.747 Y144.501 Z-1.293
N18220 X137.723 Y144.543 Z-1.273
N18230 X137.702 Y144.579 Z-1.241
N18240 X137.686 Y144.607 Z-1.2
N18250 X137.676 Y144.624 Z-1.152
N18260 X137.673 Y144.63 Z-1.1
N18270 G0 Z2
N18280 X137.326 Y144.43
N18290 G1 Z-0.2 F60
N18300 Z-1.2
N18310 X137.33 Y144.424 Z-1.252
N18320 X137.34 Y144.407 Z-1.3
N18330 X137.356 Y144.379 Z-1.341
N18340 X137.376 Y144.343 Z-1.373
N18350 X137.4 Y144.301 Z-1.393
N18360 X137.426 Y144.257 Z-1.4
N18370 X137.526 Y144.083
N18380 G3 X137.799 Y144.01 I0.173 J0.1
N18390 G1 X141.478 Y146.134 F300
N18400 G3 X140.978 Y148 I-0.5 J0.866
N18410 G1 X138.865
N18420 X138.265 Z-1
N18430 X136.265
N18440 X135.665 Z-1.4 F60
N18450 X133.24 F300
N18460 G3 X132.678 Y146.173 I0 J-1
N18470 G2 X136.001 Y143.711 I-28.675 J-42.175
N18480 G3 X137.129 Y143.623 I0.628 J0.778
N18490 G1 X137.799 Y144.01
N18500 G3 X137.873 Y144.283 I-0.1 J0.173 F1000
N18510 G1 X137.773 Y144.457
N18520 X137.747 Y144.501 Z-1.393
N18530 X137.723 Y144.543 Z-1.373
N18540 X137.702 Y144.579 Z-1.341
N18550 X137.686 Y144.607 Z-1.3
N18560 X137.676 Y144.624 Z-1.252
N18570 X137.673 Y144.63 Z-1.2
N18580 G0 Z2
N18590 X137.326 Y144.43
N18600 G1 Z-0.3 F60
N18610 Z-1.3
N18620 X137.33 Y144.424 Z-1.352
N18630 X137.34 Y144.407 Z-1.4
N18640 X137.356 Y144.379 Z-1.441
N18650 X137.376 Y144.343 Z-1.473
N18660 X137.4 Y144.301 Z-1.493
N18670 X137.426 Y144.257 Z-1.5
N18680 X137.526 Y144.083
N18690 G3 X137.799 Y144.01 I0.173 J0.1
N18700 G1 X141.478 Y146.134 F300
N18710 G3 X140.978 Y148 I-0.5 J0.866
N18720 G1 X139.015
N18730 X138.265 Z-1
N18740 X136.265
N18750 X135.515 Z-1.5 F60
N18760 X133.24 F300
N18770 G3 X132.678 Y146.173 I0 J-1
N18780 G2 X136.001 Y143.711 I-28.675 J-42.175
N18790 G3 X137.129 Y143.623 I0.628 J0.778
N18800 G1 X137.799 Y144.01
N18810 G3 X137.873 Y144.283 I-0.1 J0.173 F1000
N18820 G1 X137.773 Y144.457
N18830 X137.747 Y144.501 Z-1.493
N18840 X137.723 Y144.543 Z-1.473
N18850 X137.702 Y144.579 Z-1.441
N18860 X137.686 Y144.607 Z-1.4
N18870 X137.676 Y144.624 Z-1.352
N18880 X137.673 Y144.63 Z-1.3
N18890 G0 Z2
N18900 X160.671 Y126.442
N18910 G1 Z1.1 F60
N18920 Z0.1
N18930 X160.675 Y126.437 Z0.048
N18940 X160.685 Y126.419 Z0
N18950 X160.701 Y126.392 Z-0.041
N18960 X160.721 Y126.356 Z-0.073
N18970 X160.745 Y126.314 Z-0.093
N18980 X160.771 Y126.269 Z-0.1
N18990 X160.871 Y126.096
N19000 G3 X161.145 Y126.023 I0.173 J0.1
N19010 G1 X172.316 Y132.473 F300
N19020 G3 X172.682 Y133.839 I-0.5 J0.866
N19030 G1 X164.182 Y148.561
N19040 G3 X162.816 Y148.927 I-0.866 J-0.5
N19050 G1 X143.678 Y137.878
N19060 G3 X143.405 Y136.377 I0.5 J-0.866
N19070 G2 X151.741 Y121.938 I-39.405 J-32.376
N19080 G3 X153.178 Y121.423 I0.937 J0.351
N19090 G1 X161.145 Y126.023
N19100 G3 X161.218 Y126.296 I-0.1 J0.173 F1000
N19110 G1 X161.118 Y126.469
N19120 X161.092 Y126.514 Z-0.093
N19130 X161.068 Y126.556 Z-0.073
N19140 X161.047 Y126.592 Z-0.041
N19150 X161.031 Y126.619 Z0
N19160 X161.021 Y126.637 Z0.048
N19170 X161.018 Y126.642 Z0.1
N19180 G0 Z2
N19190 X160.671 Y126.442
N19200 G1 Z1 F60
N19210 Z0
N19220 X160.675 Y126.437 Z-0.052
N19230 X160.685 Y126.419 Z-0.1
N19240 X160.701 Y126.392 Z-0.141
N19250 X160.721 Y126.356 Z-0.173
N19260 X160.745 Y126.314 Z-0.193
N19270 X160.771 Y126.269 Z-0.2
N19280 X160.871 Y126.096
N19290 G3 X161.145 Y126.023 I0.173 J0.1
N19300 G1 X172.316 Y132.473 F300
N19310 G3 X172.682 Y133.839 I-0.5 J0.866
N19320 G1 X164.182 Y148.561
N19330 G3 X162.816 Y148.927 I-0.866 J-0.5
N19340 G1 X143.678 Y137.878
N19350 G3 X143.405 Y136.377 I0.5 J-0.866
N19360 G2 X151.741 Y121.938 I-39.405 J-32.376
N19370 G3 X153.178 Y121.423 I0.937 J0.351
N19380 G1 X161.145 Y126.023
N19390 G3 X161.218 Y126.296 I-0.1 J0.173 F1000
N19400 G1 X161.118 Y126.469
N19410 X161.092 Y126.514 Z-0.193
N19420 X161.068 Y126.556 Z-0.173
N19430 X161.047 Y126.592 Z-0.141
N19440 X161.031 Y126.619 Z-0.1
N19450 X161.021 Y126.637 Z-0.052
N19460 X161.018 Y126.642 Z0
N19470 G0 Z2
N19480 X160.671 Y126.442
N19490 G1 Z0.9 F60
N19500 Z-0.1
N19510 X160.675 Y126.437 Z-0.152
N19520 X160.685 Y126.419 Z-0.2
N19530 X160.701 Y126.392 Z-0.241
N19540 X160.721 Y126.356 Z-0.273
N19550 X160.745 Y126.314 Z-0.293
N19560 X160.771 Y126.269 Z-0.3
N19570 X160.871 Y126.096
N19580 G3 X161.145 Y126.023 I0.173 J0.1
N19590 G1 X172.316 Y132.473 F300
N19600 G3 X172.682 Y133.839 I-0.5 J0.866
N19610 G1 X164.182 Y148.561
N19620 G3 X162.816 Y148.927 I-0.866 J-0.5
N19630 G1 X143.678 Y137.878
N19640 G3 X143.405 Y136.377 I0.5 J-0.866
N19650 G2 X151.741 Y121.938 I-39.405 J-32.376
N19660 G3 X153.178 Y121.423 I0.937 J0.351
N19670 G1 X161.145 Y126.023
N19680 G3 X161.218 Y126.296 I-0.1 J0.173 F1000
N19690 G1 X161.118 Y126.469
N19700 X161.092 Y126.514 Z-0.293
N19710 X161.068 Y126.556 Z-0.273
N19720 X161.047 Y126.592 Z-0.241
N19730 X161.031 Y126.619 Z-0.2
N19740 X161.021 Y126.637 Z-0.152
N19750 X161.018 Y126.642 Z-0.1
N19760 G0 Z2
N19770 X160.671 Y126.442
N19780 G1 Z0.8 F60
N19790 Z-0.2
N19800 X160.675 Y126.437 Z-0.252
N19810 X160.685 Y126.419 Z-0.3
N19820 X160.701 Y126.392 Z-0.341
N19830 X160.721 Y126.356 Z-0.373
N19840 X160.745 Y126.314 Z-0.393
N19850 X160.771 Y126.269 Z-0.4
N19860 X160.871 Y126.096
N19870 G3 X161.145 Y126.023 I0.173 J0.1
N19880 G1 X172.316 Y132.473 F300
N19890 G3 X172.682 Y133.839 I-0.5 J0.866
N19900 G1 X164.182 Y148.561
N19910 G3 X162.816 Y148.927 I-0.866 J-0.5
N19920 G1 X143.678 Y137.878
N19930 G3 X143.405 Y136.377 I0.5 J-0.866
N19940 G2 X151.741 Y121.938 I-39.405 J-32.376
N19950 G3 X153.178 Y121.423 I0.937 J0.351
N19960 G1 X161.145 Y126.023
N19970 G3 X161.218 Y126.296 I-0.1 J0.173 F1000
N19980 G1 X161.118 Y126.469
N19990 X161.092 Y126.514 Z-0.393
N20000 X161.068 Y126.556 Z-0.373
N20010 X161.047 Y126.592 Z-0.341
N20020 X161.031 Y126.619 Z-0.3
N20030 X161.021 Y126.637 Z-0.252
N20040 X161.018 Y126.642 Z-0.2
N20050 G0 Z2
N20060 X160.671 Y126.442
N20070 G1 Z0.7 F60
N20080 Z-0.3
N20090 X160.675 Y126.437 Z-0.352
N20100 X160.685 Y126.419 Z-0.4
N20110 X160.701 Y126.392 Z-0.441
N20120 X160.721 Y126.356 Z-0.473
N20130 X160.745 Y126.314 Z-0.493
N20140 X160.771 Y126.269 Z-0.5
N20150 X160.871 Y126.096
N20160 G3 X161.145 Y126.023 I0.173 J0.1
N20170 G1 X172.316 Y132.473 F300
N20180 G3 X172.682 Y133.839 I-0.5 J0.866
N20190 G1 X164.182 Y148.561
N20200 G3 X162.816 Y148.927 I-0.866 J-0.5
N20210 G1 X143.678 Y137.878
N20220 G3 X143.405 Y136.377 I0.5 J-0.866
N20230 G2 X151.741 Y121.938 I-39.405 J-32.376
N20240 G3 X153.178 Y121.423 I0.937 J0.351
N20250 G1 X161.145 Y126.023
N20260 G3 X161.218 Y126.296 I-0.1 J0.173 F1000
N20270 G1 X161.118 Y126.469
N20280 X161.092 Y126.514 Z-0.493
N20290 X161.068 Y126.556 Z-0.473
N20300 X161.047 Y126.592 Z-0.441
N20310 X161.031 Y126.619 Z-0.4
N20320 X161.021 Y126.637 Z-0.352
N20330 X161.018 Y126.642 Z-0.3
N20340 G0 Z2
N20350 X160.671 Y126.442
N20360 G1 Z0.6 F60
N20370 Z-0.4
N20380 X160.675 Y126.437 Z-0.452
N20390 X160.685 Y126.419 Z-0.5
N20400 X160.701 Y126.392 Z-0.541
N20410 X160.721 Y126.356 Z-0.573
N20420 X160.745 Y126.314 Z-0.593
N20430 X160.771 Y126.269 Z-0.6
N20440 X160.871 Y126.096
N20450 G3 X161.145 Y126.023 I0.173 J0.1
N20460 G1 X172.316 Y132.473 F300
N20470 G3 X172.682 Y133.839 I-0.5 J0.866
N20480 G1 X164.182 Y148.561
N20490 G3 X162.816 Y148.927 I-0.866 J-0.5
N20500 G1 X143.678 Y137.878
N20510 G3 X143.405 Y136.377 I0.5 J-0.866
N20520 G2 X151.741 Y121.938 I-39.405 J-32.376
N20530 G3 X153.178 Y121.423 I0.937 J0.351
N20540 G1 X161.145 Y126.023
N20550 G3 X161.218 Y126.296 I-0.1 J0.173 F1000
N20560 G1 X161.118 Y126.469
N20570 X161.092 Y126.514 Z-0.593
N20580 X161.068 Y126.556 Z-0.573
N20590 X161.047 Y126.592 Z-0.541
N20600 X161.031 Y126.619 Z-0.5
N20610 X161.021 Y126.637 Z-0.452
N20620 X161.018 Y126.642 Z-0.4
N20630 G0 Z2
N20640 X160.671 Y126.442
N20650 G1 Z0.5 F60
N20660 Z-0.5
N20670 X160.675 Y126.437 Z-0.552
N20680 X160.685 Y126.419 Z-0.6
N20690 X160.701 Y126.392 Z-0.641
N20700 X160.721 Y126.356 Z-0.673
N20710 X160.745 Y126.314 Z-0.693
N20720 X160.771 Y126.269 Z-0.7
N20730 X160.871 Y126.096
N20740 G3 X161.145 Y126.023 I0.173 J0.1
N20750 G1 X172.316 Y132.473 F300
N20760 G3 X172.682 Y133.839 I-0.5 J0.866
N20770 G1 X164.182 Y148.561
N20780 G3 X162.816 Y148.927 I-0.866 J-0.5
N20790 G1 X143.678 Y137.878
N20800 G3 X143.405 Y136.377 I0.5 J-0.866
N20810 G2 X151.741 Y121.938 I-39.405 J-32.376
N20820 G3 X153.178 Y121.423 I0.937 J0.351
N20830 G1 X161.145 Y126.023
N20840 G3 X161.218 Y126.296 I-0.1 J0.173 F1000
N20850 G1 X161.118 Y126.469
N20860 X161.092 Y126.514 Z-0.693
N20870 X161.068 Y126.556 Z-0.673
N20880 X161.047 Y126.592 Z-0.641
N20890 X161.031 Y126.619 Z-0.6
N20900 X161.021 Y126.637 Z-0.552
N20910 X161.018 Y126.642 Z-0.5
N20920 G0 Z2
N20930 X160.671 Y126.442
N20940 G1 Z0.4 F60
N20950 Z-0.6
N20960 X160.675 Y126.437 Z-0.652
N20970 X160.685 Y126.419 Z-0.7
N20980 X160.701 Y126.392 Z-0.741
N20990 X160.721 Y126.356 Z-0.773
N21000 X160.745 Y126.314 Z-0.793
N21010 X160.771 Y126.269 Z-0.8
N21020 X160.871 Y126.096
N21030 G3 X161.145 Y126.023 I0.173 J0.1
N21040 G1 X172.316 Y132.473 F300
N21050 G3 X172.682 Y133.839 I-0.5 J0.866
N21060 G1 X164.182 Y148.561
N21070 G3 X162.816 Y148.927 I-0.866 J-0.5
N21080 G1 X143.678 Y137.878
N21090 G3 X143.405 Y136.377 I0.5 J-0.866
N21100 G2 X151.741 Y121.938 I-39.405 J-32.376
N21110 G3 X153.178 Y121.423 I0.937 J0.351
N21120 G1 X161.145 Y126.023
N21130 G3 X161.218 Y126.296 I-0.1 J0.173 F1000
N21140 G1 X161.118 Y126.469
N21150 X161.092 Y126.514 Z-0.793
N21160 X161.068 Y126.556 Z-0.773
N21170 X161.047 Y126.592 Z-0.741
N21180 X161.031 Y126.619 Z-0.7
N21190 X161.021 Y126.637 Z-0.652
N21200 X161.018 Y126.642 Z-0.6
N21210 G0 Z2
N21220 X160.671 Y126.442
N21230 G1 Z0.3 F60
N21240 Z-0.7
N21250 X160.675 Y126.437 Z-0.752
N21260 X160.685 Y126.419 Z-0.8
N21270 X160.701 Y126.392 Z-0.841
N21280 X160.721 Y126.356 Z-0.873
N21290 X160.745 Y126.314 Z-0.893
N21300 X160.771 Y126.269 Z-0.9
N21310 X160.871 Y126.096
N21320 G3 X161.145 Y126.023 I0.173 J0.1
N21330 G1 X172.316 Y132.473 F300
N21340 G3 X172.682 Y133.839 I-0.5 J0.866
N21350 G1 X164.182 Y148.561
N21360 G3 X162.816 Y148.927 I-0.866 J-0.5
N21370 G1 X143.678 Y137.878
N21380 G3 X143.405 Y136.377 I0.5 J-0.866
N21390 G2 X151.741 Y121.938 I-39.405 J-32.376
N21400 G3 X153.178 Y121.423 I0.937 J0.351
N21410 G1 X161.145 Y126.023
N21420 G3 X161.218 Y126.296 I-0.1 J0.173 F1000
N21430 G1 X161.118 Y126.469
N21440 X161.092 Y126.514 Z-0.893
N21450 X161.068 Y126.556 Z-0.873
N21460 X161.047 Y126.592 Z-0.841
N21470 X161.031 Y126.619 Z-0.8
N21480 X161.021 Y126.637 Z-0.752
N21490 X161.018 Y126.642 Z-0.7
N21500 G0 Z2
N21510 X160.671 Y126.442
N21520 G1 Z0.2 F60
N21530 Z-0.8
N21540 X160.675 Y126.437 Z-0.852
N21550 X160.685 Y126.419 Z-0.9
N21560 X160.701 Y126.392 Z-0.941
N21570 X160.721 Y126.356 Z-0.973
N21580 X160.745 Y126.314 Z-0.993
N21590 X160.771 Y126.269 Z-1
N21600 X160.871 Y126.096
N21610 G3 X161.145 Y126.023 I0.173 J0.1
N21620 G1 X172.316 Y132.473 F300
N21630 G3 X172.682 Y133.839 I-0.5 J0.866
N21640 G1 X164.182 Y148.561
N21650 G3 X162.816 Y148.927 I-0.866 J-0.5
N21660 G1 X143.678 Y137.878
N21670 G3 X143.405 Y136.377 I0.5 J-0.866
N21680 G2 X151.741 Y121.938 I-39.405 J-32.376
N21690 G3 X153.178 Y121.423 I0.937 J0.351
N21700 G1 X161.145 Y126.023
N21710 G3 X161.218 Y126.296 I-0.1 J0.173 F1000
N21720 G1 X161.118 Y126.469
N21730 X161.092 Y126.514 Z-0.993
N21740 X161.068 Y126.556 Z-0.973
N21750 X161.047 Y126.592 Z-0.941
N21760 X161.031 Y126.619 Z-0.9
N21770 X161.021 Y126.637 Z-0.852
N21780 X161.018 Y126.642 Z-0.8
N21790 G0 Z2
N21800 X160.671 Y126.442
N21810 G1 Z0.1 F60
N21820 Z-0.9
N21830 X160.675 Y126.437 Z-0.952
N21840 X160.685 Y126.419 Z-1
N21850 X160.701 Y126.392 Z-1.041
N21860 X160.721 Y126.356 Z-1.073
N21870 X160.745 Y126.314 Z-1.093
N21880 X160.771 Y126.269 Z-1.1
N21890 X160.871 Y126.096
N21900 G3 X161.145 Y126.023 I0.173 J0.1
N21910 G1 X161.758 Y126.377 F300
N21920 X161.888 Y126.452 Z-1
N21930 X163.62 Y127.452
N21940 X163.75 Y127.527 Z-1.1 F60
N21950 X172.316 Y132.473 F300
N21960 G3 X172.682 Y133.839 I-0.5 J0.866
N21970 G1 X164.182 Y148.561
N21980 G3 X162.816 Y148.927 I-0.866 J-0.5
N21990 G1 X154.395 Y144.065
N22000 X154.265 Y143.99 Z-1
N22010 X152.533 Y142.99
N22020 X152.403 Y142.915 Z-1.1 F60
N22030 X143.678 Y137.878 F300
N22040 G3 X143.405 Y136.377 I0.5 J-0.866
N22050 G2 X151.741 Y121.938 I-39.405 J-32.376
N22060 G3 X153.178 Y121.423 I0.937 J0.351
N22070 G1 X161.145 Y126.023
N22080 G3 X161.218 Y126.296 I-0.1 J0.173 F1000
N22090 G1 X161.118 Y126.469
N22100 X161.092 Y126.514 Z-1.093
N22110 X161.068 Y126.556 Z-1.073
N22120 X161.047 Y126.592 Z-1.041
N22130 X161.031 Y126.619 Z-1
N22140 X161.021 Y126.637 Z-0.952
N22150 X161.018 Y126.642 Z-0.9
N22160 G0 Z2
N22170 X160.671 Y126.442
N22180 G1 Z0 F60
N22190 Z-1
N22200 X160.675 Y126.437 Z-1.052
N22210 X160.685 Y126.419 Z-1.1
N22220 X160.701 Y126.392 Z-1.141
N22230 X160.721 Y126.356 Z-1.173
N22240 X160.745 Y126.314 Z-1.193
N22250 X160.771 Y126.269 Z-1.2
N22260 X160.871 Y126.096
N22270 G3 X161.145 Y126.023 I0.173 J0.1
N22280 G1 X161.628 Y126.302 F300
N22290 X161.888 Y126.452 Z-1
N22300 X163.62 Y127.452
N22310 X163.88 Y127.602 Z-1.2 F60
N22320 X172.316 Y132.473 F300
N22330 G3 X172.682 Y133.839 I-0.5 J0.866
N22340 G1 X164.182 Y148.561
N22350 G3 X162.816 Y148.927 I-0.866 J-0.5
N22360 G1 X154.525 Y144.14
N22370 X154.265 Y143.99 Z-1
N22380 X152.533 Y142.99
N22390 X152.273 Y142.84 Z-1.2 F60
N22400 X143.678 Y137.878 F300
N22410 G3 X143.405 Y136.377 I0.5 J-0.866
N22420 G2 X151.741 Y121.938 I-39.405 J-32.376
N22430 G3 X153.178 Y121.423 I0.937 J0.351
N22440 G1 X161.145 Y126.023
N22450 G3 X161.218 Y126.296 I-0.1 J0.173 F1000
N22460 G1 X161.118 Y126.469
N22470 X161.092 Y126.514 Z-1.193
N22480 X161.068 Y126.556 Z-1.173
N22490 X161.047 Y126.592 Z-1.141
N22500 X161.031 Y126.619 Z-1.1
N22510 X161.021 Y126.637 Z-1.052
N22520 X161.018 Y126.642 Z-1
N22530 G0 Z2
N22540 X160.671 Y126.442
N22550 G1 Z-0.1 F60
N22560 Z-1.1
N22570 X160.675 Y126.437 Z-1.152
N22580 X160.685 Y126.419 Z-1.2
N22590 X160.701 Y126.392 Z-1.241
N22600 X160.721 Y126.356 Z-1.273
N22610 X160.745 Y126.314 Z-1.293
N22620 X160.771 Y126.269 Z-1.3
N22630 X160.871 Y126.096
N22640 G3 X161.145 Y126.023 I0.173 J0.1
N22650 G1 X161.498 Y126.227 F300
N22660 X161.888 Y126.452 Z-1
N22670 X163.62 Y127.452
N22680 X164.01 Y127.677 Z-1.3 F60
N22690 X172.316 Y132.473 F300
N22700 G3 X172.682 Y133.839 I-0.5 J0.866
N22710 G1 X164.182 Y148.561
N22720 G3 X162.816 Y148.927 I-0.866 J-0.5
N22730 G1 X154.655 Y144.215
N22740 X154.265 Y143.99 Z-1
N22750 X152.533 Y142.99
N22760 X152.143 Y142.765 Z-1.3 F60
N22770 X143.678 Y137.878 F300
N22780 G3 X143.405 Y136.377 I0.5 J-0.866
N22790 G2 X151.741 Y121.938 I-39.405 J-32.376
N22800 G3 X153.178 Y121.423 I0.937 J0.351
N22810 G1 X161.145 Y126.023
N22820 G3 X161.218 Y126.296 I-0.1 J0.173 F1000
N22830 G1 X161.118 Y126.469
N22840 X161.092 Y126.514 Z-1.293
N22850 X161.068 Y126.556 Z-1.273
N22860 X161.047 Y126.592 Z-1.241
N22870 X161.031 Y126.619 Z-1.2
N22880 X161.021 Y126.637 Z-1.152
N22890 X161.018 Y126.642 Z-1.1
N22900 G0 Z2
N22910 X160.671 Y126.442
N22920 G1 Z-0.2 F60
N22930 Z-1.2
N22940 X160.675 Y126.437 Z-1.252
N22950 X160.685 Y126.419 Z-1.3
N22960 X160.701 Y126.392 Z-1.341
N22970 X160.721 Y126.356 Z-1.373
N22980 X160.745 Y126.314 Z-1.393
N22990 X160.771 Y126.269 Z-1.4
N23000 X160.871 Y126.096
N23010 G3 X161.145 Y126.023 I0.173 J0.1
N23020 G1 X161.368 Y126.152 F300
N23030 X161.888 Y126.452 Z-1
N23040 X163.62 Y127.452
N23050 X164.14 Y127.752 Z-1.4 F60
N23060 X172.316 Y132.473 F300
N23070 G3 X172.682 Y133.839 I-0.5 J0.866
N23080 G1 X164.182 Y148.561
N23090 G3 X162.816 Y148.927 I-0.866 J-0.5
N23100 G1 X154.785 Y144.29
N23110 X154.265 Y143.99 Z-1
N23120 X152.533 Y142.99
N23130 X152.013 Y142.69 Z-1.4 F60
N23140 X143.678 Y137.878 F300
N23150 G3 X143.405 Y136.377 I0.5 J-0.866
N23160 G2 X151.741 Y121.938 I-39.405 J-32.376
N23170 G3 X153.178 Y121.423 I0.937 J0.351
N23180 G1 X161.145 Y126.023
N23190 G3 X161.218 Y126.296 I-0.1 J0.173 F1000
N23200 G1 X161.118 Y126.469
N23210 X161.092 Y126.514 Z-1.393
N23220 X161.068 Y126.556 Z-1.373
N23230 X161.047 Y126.592 Z-1.341
N23240 X161.031 Y126.619 Z-1.3
N23250 X161.021 Y126.637 Z-1.252
N23260 X161.018 Y126.642 Z-1.2
N23270 G0 Z2
N23280 X160.671 Y126.442
N23290 G1 Z-0.3 F60
N23300 Z-1.3
N23310 X160.675 Y126.437 Z-1.352
N23320 X160.685 Y126.419 Z-1.4
N23330 X160.701 Y126.392 Z-1.441
N23340 X160.721 Y126.356 Z-1.473
N23350 X160.745 Y126.314 Z-1.493
N23360 X160.771 Y126.269 Z-1.5
N23370 X160.871 Y126.096
N23380 G3 X161.145 Y126.023 I0.173 J0.1
N23390 G1 X161.238 Y126.077 F300
N23400 X161.888 Y126.452 Z-1
N23410 X163.62 Y127.452
N23420 X164.27 Y127.827 Z-1.5 F60
N23430 X172.316 Y132.473 F300
N23440 G3 X172.682 Y133.839 I-0.5 J0.866
N23450 G1 X164.182 Y148.561
N23460 G3 X162.816 Y148.927 I-0.866 J-0.5
N23470 G1 X154.914 Y144.365
N23480 X154.265 Y143.99 Z-1
N23490 X152.533 Y142.99
N23500 X151.883 Y142.615 Z-1.5 F60
N23510 X143.678 Y137.878 F300
N23520 G3 X143.405 Y136.377 I0.5 J-0.866
N23530 G2 X151.741 Y121.938 I-39.405 J-32.376
N23540 G3 X153.178 Y121.423 I0.937 J0.351
N23550 G1 X161.145 Y126.023
N23560 X161.176 Y126.045 F1000
N23570 X161.202 Y126.073
N23580 X161.223 Y126.105
N23590 X161.238 Y126.144 Z-1.483
N23600 X161.244 Y126.186 Z-1.465
N23610 X161.242 Y126.228 Z-1.448
N23620 X161.233 Y126.263 Z-1.443
N23630 X161.218 Y126.296 Z-1.439
N23640 X161.118 Y126.469 F60
N23650 X161.046 Y126.594
N23660 X161.031 Y126.62 Z-1.398 F1000
N23670 X161.021 Y126.637 Z-1.351
N23680 X161.018 Y126.642 Z-1.3
N23690 G0 Z2
N23700 X174.754 Y119.733
N23710 G1 Z1.1 F60
N23720 Z0.1
N23730 X174.758 Y119.738 Z0.048
N23740 X174.771 Y119.754 Z0
N23750 X174.792 Y119.778 Z-0.041
N23760 X174.819 Y119.81 Z-0.073
N23770 X174.85 Y119.846 Z-0.093
N23780 X174.883 Y119.886 Z-0.1
N23790 X175.012 Y120.039
N23800 G3 X174.988 Y120.321 I-0.153 J0.129
N23810 G2 X174.102 Y121.379 I2.578 J3.058 F300
N23820 G3 X172.736 Y121.746 I-0.867 J-0.5
N23830 G1 X162.605 Y115.897
N23840 G3 X163.103 Y114.03 I0.5 J-0.867
N23850 G1 X182.406 Y113.993
N23860 G3 X183.274 Y115.493 I0.002 J1
N23870 G1 X180.932 Y119.549
N23880 G3 X179.566 Y119.915 I-0.866 J-0.5
N23890 G2 X174.988 Y120.321 I-2 J3.464
N23900 G3 X174.706 Y120.297 I-0.129 J-0.153 F1000
N23910 G1 X174.577 Y120.144
N23920 X174.544 Y120.104 Z-0.093
N23930 X174.513 Y120.067 Z-0.073
N23940 X174.486 Y120.036 Z-0.041
N23950 X174.466 Y120.011 Z0
N23960 X174.453 Y119.996 Z0.048
N23970 X174.448 Y119.991 Z0.1
N23980 G0 Z2
N23990 X174.754 Y119.733
N24000 G1 Z1 F60
N24010 Z0
N24020 X174.758 Y119.738 Z-0.052
N24030 X174.771 Y119.754 Z-0.1
N24040 X174.792 Y119.778 Z-0.141
N24050 X174.819 Y119.81 Z-0.173
N24060 X174.85 Y119.846 Z-0.193
N24070 X174.883 Y119.886 Z-0.2
N24080 X175.012 Y120.039
N24090 G3 X174.988 Y120.321 I-0.153 J0.129
N24100 G2 X174.102 Y121.379 I2.578 J3.058 F300
N24110 G3 X172.736 Y121.746 I-0.867 J-0.5
N24120 G1 X162.605 Y115.897
N24130 G3 X163.103 Y114.03 I0.5 J-0.867
N24140 G1 X182.406 Y113.993
N24150 G3 X183.274 Y115.493 I0.002 J1
N24160 G1 X180.932 Y119.549
N24170 G3 X179.566 Y119.915 I-0.866 J-0.5
N24180 G2 X174.988 Y120.321 I-2 J3.464
N24190 G3 X174.706 Y120.297 I-0.129 J-0.153 F1000
N24200 G1 X174.577 Y120.144
N24210 X174.544 Y120.104 Z-0.193
N24220 X174.513 Y120.067 Z-0.173
N24230 X174.486 Y120.036 Z-0.141
N24240 X174.466 Y120.011 Z-0.1
N24250 X174.453 Y119.996 Z-0.052
N24260 X174.448 Y119.991 Z0
N24270 G0 Z2
N24280 X174.754 Y119.733
N24290 G1 Z0.9 F60
N24300 Z-0.1
N24310 X174.758 Y119.738 Z-0.152
N24320 X174.771 Y119.754 Z-0.2
N24330 X174.792 Y119.778 Z-0.241
N24340 X174.819 Y119.81 Z-0.273
N24350 X174.85 Y119.846 Z-0.293
N24360 X174.883 Y119.886 Z-0.3
N24370 X175.012 Y120.039
N24380 G3 X174.988 Y120.321 I-0.153 J0.129
N24390 G2 X174.102 Y121.379 I2.578 J3.058 F300
N24400 G3 X172.736 Y121.746 I-0.867 J-0.5
N24410 G1 X162.605 Y115.897
N24420 G3 X163.103 Y114.03 I0.5 J-0.867
N24430 G1 X182.406 Y113.993
N24440 G3 X183.274 Y115.493 I0.002 J1
N24450 G1 X180.932 Y119.549
N24460 G3 X179.566 Y119.915 I-0.866 J-0.5
N24470 G2 X174.988 Y120.321 I-2 J3.464
N24480 G3 X174.706 Y120.297 I-0.129 J-0.153 F1000
N24490 G1 X174.577 Y120.144
N24500 X174.544 Y120.104 Z-0.293
N24510 X174.513 Y120.067 Z-0.273
N24520 X174.486 Y120.036 Z-0.241
N24530 X174.466 Y120.011 Z-0.2
N24540 X174.453 Y119.996 Z-0.152
N24550 X174.448 Y119.991 Z-0.1
N24560 G0 Z2
N24570 X174.754 Y119.733
N24580 G1 Z0.8 F60
N24590 Z-0.2
N24600 X174.758 Y119.738 Z-0.252
N24610 X174.771 Y119.754 Z-0.3
N24620 X174.792 Y119.778 Z-0.341
N24630 X174.819 Y119.81 Z-0.373
N24640 X174.85 Y119.846 Z-0.393
N24650 X174.883 Y119.886 Z-0.4
N24660 X175.012 Y120.039
N24670 G3 X174.988 Y120.321 I-0.153 J0.129
N24680 G2 X174.102 Y121.379 I2.578 J3.058 F300
N24690 G3 X172.736 Y121.746 I-0.867 J-0.5
N24700 G1 X162.605 Y115.897
N24710 G3 X163.103 Y114.03 I0.5 J-0.867
N24720 G1 X182.406 Y113.993
N24730 G3 X183.274 Y115.493 I0.002 J1
N24740 G1 X180.932 Y119.549
N24750 G3 X179.566 Y119.915 I-0.866 J-0.5
N24760 G2 X174.988 Y120.321 I-2 J3.464
N24770 G3 X174.706 Y120.297 I-0.129 J-0.153 F1000
N24780 G1 X174.577 Y120.144
N24790 X174.544 Y120.104 Z-0.393
N24800 X174.513 Y120.067 Z-0.373
N24810 X174.486 Y120.036 Z-0.341
N24820 X174.466 Y120.011 Z-0.3
N24830 X174.453 Y119.996 Z-0.252
N24840 X174.448 Y119.991 Z-0.2
N24850 G0 Z2
N24860 X174.754 Y119.733
N24870 G1 Z0.7 F60
N24880 Z-0.3
N24890 X174.758 Y119.738 Z-0.352
N24900 X174.771 Y119.754 Z-0.4
N24910 X174.792 Y119.778 Z-0.441
N24920 X174.819 Y119.81 Z-0.473
N24930 X174.85 Y119.846 Z-0.493
N24940 X174.883 Y119.886 Z-0.5
N24950 X175.012 Y120.039
N24960 G3 X174.988 Y120.321 I-0.153 J0.129
N24970 G2 X174.102 Y121.379 I2.578 J3.058 F300
N24980 G3 X172.736 Y121.746 I-0.867 J-0.5
N24990 G1 X162.605 Y115.897
N25000 G3 X163.103 Y114.03 I0.5 J-0.867
N25010 G1 X182.406 Y113.993
N25020 G3 X183.274 Y115.493 I0.002 J1
N25030 G1 X180.932 Y119.549
N25040 G3 X179.566 Y119.915 I-0.866 J-0.5
N25050 G2 X174.988 Y120.321 I-2 J3.464
N25060 G3 X174.706 Y120.297 I-0.129 J-0.153 F1000
N25070 G1 X174.577 Y120.144
N25080 X174.544 Y120.104 Z-0.493
N25090 X174.513 Y120.067 Z-0.473
N25100 X174.486 Y120.036 Z-0.441
N25110 X174.466 Y120.011 Z-0.4
N25120 X174.453 Y119.996 Z-0.352
N25130 X174.448 Y119.991 Z-0.3
N25140 G0 Z2
N25150 X174.754 Y119.733
N25160 G1 Z0.6 F60
N25170 Z-0.4
N25180 X174.758 Y119.738 Z-0.452
N25190 X174.771 Y119.754 Z-0.5
N25200 X174.792 Y119.778 Z-0.541
N25210 X174.819 Y119.81 Z-0.573
N25220 X174.85 Y119.846 Z-0.593
N25230 X174.883 Y119.886 Z-0.6
N25240 X175.012 Y120.039
N25250 G3 X174.988 Y120.321 I-0.153 J0.129
N25260 G2 X174.102 Y121.379 I2.578 J3.058 F300
N25270 G3 X172.736 Y121.746 I-0.867 J-0.5
N25280 G1 X162.605 Y115.897
N25290 G3 X163.103 Y114.03 I0.5 J-0.867
N25300 G1 X182.406 Y113.993
N25310 G3 X183.274 Y115.493 I0.002 J1
N25320 G1 X180.932 Y119.549
N25330 G3 X179.566 Y119.915 I-0.866 J-0.5
N25340 G2 X174.988 Y120.321 I-2 J3.464
N25350 G3 X174.706 Y120.297 I-0.129 J-0.153 F1000
N25360 G1 X174.577 Y120.144
N25370 X174.544 Y120.104 Z-0.593
N25380 X174.513 Y120.067 Z-0.573
N25390 X174.486 Y120.036 Z-0.541
N25400 X174.466 Y120.011 Z-0.5
N25410 X174.453 Y119.996 Z-0.452
N25420 X174.448 Y119.991 Z-0.4
N25430 G0 Z2
N25440 X174.754 Y119.733
N25450 G1 Z0.5 F60
N25460 Z-0.5
N25470 X174.758 Y119.738 Z-0.552
N25480 X174.771 Y119.754 Z-0.6
N25490 X174.792 Y119.778 Z-0.641
N25500 X174.819 Y119.81 Z-0.673
N25510 X174.85 Y119.846 Z-0.693
N25520 X174.883 Y119.886 Z-0.7
N25530 X175.012 Y120.039
N25540 G3 X174.988 Y120.321 I-0.153 J0.129
N25550 G2 X174.102 Y121.379 I2.578 J3.058 F300
N25560 G3 X172.736 Y121.746 I-0.867 J-0.5
N25570 G1 X162.605 Y115.897
N25580 G3 X163.103 Y114.03 I0.5 J-0.867
N25590 G1 X182.406 Y113.993
N25600 G3 X183.274 Y115.493 I0.002 J1
N25610 G1 X180.932 Y119.549
N25620 G3 X179.566 Y119.915 I-0.866 J-0.5
N25630 G2 X174.988 Y120.321 I-2 J3.464
N25640 G3 X174.706 Y120.297 I-0.129 J-0.153 F1000
N25650 G1 X174.577 Y120.144
N25660 X174.544 Y120.104 Z-0.693
N25670 X174.513 Y120.067 Z-0.673
N25680 X174.486 Y120.036 Z-0.641
N25690 X174.466 Y120.011 Z-0.6
N25700 X174.453 Y119.996 Z-0.552
N25710 X174.448 Y119.991 Z-0.5
N25720 G0 Z2
N25730 X174.754 Y119.733
N25740 G1 Z0.4 F60
N25750 Z-0.6
N25760 X174.758 Y119.738 Z-0.652
N25770 X174.771 Y119.754 Z-0.7
N25780 X174.792 Y119.778 Z-0.741
N25790 X174.819 Y119.81 Z-0.773
N25800 X174.85 Y119.846 Z-0.793
N25810 X174.883 Y119.886 Z-0.8
N25820 X175.012 Y120.039
N25830 G3 X174.988 Y120.321 I-0.153 J0.129
N25840 G2 X174.102 Y121.379 I2.578 J3.058 F300
N25850 G3 X172.736 Y121.746 I-0.867 J-0.5
N25860 G1 X162.605 Y115.897
N25870 G3 X163.103 Y114.03 I0.5 J-0.867
N25880 G1 X182.406 Y113.993
N25890 G3 X183.274 Y115.493 I0.002 J1
N25900 G1 X180.932 Y119.549
N25910 G3 X179.566 Y119.915 I-0.866 J-0.5
N25920 G2 X174.988 Y120.321 I-2 J3.464
N25930 G3 X174.706 Y120.297 I-0.129 J-0.153 F1000
N25940 G1 X174.577 Y120.144
N25950 X174.544 Y120.104 Z-0.793
N25960 X174.513 Y120.067 Z-0.773
N25970 X174.486 Y120.036 Z-0.741
N25980 X174.466 Y120.011 Z-0.7
N25990 X174.453 Y119.996 Z-0.652
N26000 X174.448 Y119.991 Z-0.6
N26010 G0 Z2
N26020 X174.754 Y119.733
N26030 G1 Z0.3 F60
N26040 Z-0.7
N26050 X174.758 Y119.738 Z-0.752
N26060 X174.771 Y119.754 Z-0.8
N26070 X174.792 Y119.778 Z-0.841
N26080 X174.819 Y119.81 Z-0.873
N26090 X174.85 Y119.846 Z-0.893
N26100 X174.883 Y119.886 Z-0.9
N26110 X175.012 Y120.039
N26120 G3 X174.988 Y120.321 I-0.153 J0.129
N26130 G2 X174.102 Y121.379 I2.578 J3.058 F300
N26140 G3 X172.736 Y121.746 I-0.867 J-0.5
N26150 G1 X162.605 Y115.897
N26160 G3 X163.103 Y114.03 I0.5 J-0.867
N26170 G1 X182.406 Y113.993
N26180 G3 X183.274 Y115.493 I0.002 J1
N26190 G1 X180.932 Y119.549
N26200 G3 X179.566 Y119.915 I-0.866 J-0.5
N26210 G2 X174.988 Y120.321 I-2 J3.464
N26220 G3 X174.706 Y120.297 I-0.129 J-0.153 F1000
N26230 G1 X174.577 Y120.144
N26240 X174.544 Y120.104 Z-0.893
N26250 X174.513 Y120.067 Z-0.873
N26260 X174.486 Y120.036 Z-0.841
N26270 X174.466 Y120.011 Z-0.8
N26280 X174.453 Y119.996 Z-0.752
N26290 X174.448 Y119.991 Z-0.7
N26300 G0 Z2
N26310 X174.754 Y119.733
N26320 G1 Z0.2 F60
N26330 Z-0.8
N26340 X174.758 Y119.738 Z-0.852
N26350 X174.771 Y119.754 Z-0.9
N26360 X174.792 Y119.778 Z-0.941
N26370 X174.819 Y119.81 Z-0.973
N26380 X174.85 Y119.846 Z-0.993
N26390 X174.883 Y119.886 Z-1
N26400 X175.012 Y120.039
N26410 G3 X174.988 Y120.321 I-0.153 J0.129
N26420 G2 X174.102 Y121.379 I2.578 J3.058 F300
N26430 G3 X172.736 Y121.746 I-0.867 J-0.5
N26440 G1 X162.605 Y115.897
N26450 G3 X163.103 Y114.03 I0.5 J-0.867
N26460 G1 X182.406 Y113.993
N26470 G3 X183.274 Y115.493 I0.002 J1
N26480 G1 X180.932 Y119.549
N26490 G3 X179.566 Y119.915 I-0.866 J-0.5
N26500 G2 X174.988 Y120.321 I-2 J3.464
N26510 G3 X174.706 Y120.297 I-0.129 J-0.153 F1000
N26520 G1 X174.577 Y120.144
N26530 X174.544 Y120.104 Z-0.993
N26540 X174.513 Y120.067 Z-0.973
N26550 X174.486 Y120.036 Z-0.941
N26560 X174.466 Y120.011 Z-0.9
N26570 X174.453 Y119.996 Z-0.852
N26580 X174.448 Y119.991 Z-0.8
N26590 G0 Z2
N26600 X174.754 Y119.733
N26610 G1 Z0.1 F60
N26620 Z-0.9
N26630 X174.758 Y119.738 Z-0.952
N26640 X174.771 Y119.754 Z-1
N26650 X174.792 Y119.778 Z-1.041
N26660 X174.819 Y119.81 Z-1.073
N26670 X174.85 Y119.846 Z-1.093
N26680 X174.883 Y119.886 Z-1.1
N26690 X175.012 Y120.039
N26700 G3 X174.988 Y120.321 I-0.153 J0.129
N26710 G2 X174.102 Y121.379 I2.578 J3.058 F300
N26720 G3 X172.736 Y121.746 I-0.867 J-0.5
N26730 G1 X169.51 Y119.883
N26740 X169.38 Y119.808 Z-1
N26750 X167.648 Y118.808
N26760 X167.518 Y118.733 Z-1.1 F60
N26770 X162.605 Y115.897 F300
N26780 G3 X163.103 Y114.03 I0.5 J-0.867
N26790 G1 X182.406 Y113.993
N26800 G3 X183.274 Y115.493 I0.002 J1
N26810 G1 X180.932 Y119.549
N26820 G3 X179.566 Y119.915 I-0.866 J-0.5
N26830 G2 X174.988 Y120.321 I-2 J3.464
N26840 G3 X174.706 Y120.297 I-0.129 J-0.153 F1000
N26850 G1 X174.577 Y120.144
N26860 X174.544 Y120.104 Z-1.093
N26870 X174.513 Y120.067 Z-1.073
N26880 X174.486 Y120.036 Z-1.041
N26890 X174.466 Y120.011 Z-1
N26900 X174.453 Y119.996 Z-0.952
N26910 X174.448 Y119.991 Z-0.9
N26920 G0 Z2
N26930 X174.754 Y119.733
N26940 G1 Z0 F60
N26950 Z-1
N26960 X174.758 Y119.738 Z-1.052
N26970 X174.771 Y119.754 Z-1.1
N26980 X174.792 Y119.778 Z-1.141
N26990 X174.819 Y119.81 Z-1.173
N27000 X174.85 Y119.846 Z-1.193
N27010 X174.883 Y119.886 Z-1.2
N27020 X175.012 Y120.039
N27030 G3 X174.988 Y120.321 I-0.153 J0.129
N27040 G2 X174.102 Y121.379 I2.578 J3.058 F300
N27050 G3 X172.736 Y121.746 I-0.867 J-0.5
N27060 G1 X169.64 Y119.958
N27070 X169.38 Y119.808 Z-1
N27080 X167.648 Y118.808
N27090 X167.388 Y118.658 Z-1.2 F60
N27100 X162.605 Y115.897 F300
N27110 G3 X163.103 Y114.03 I0.5 J-0.867
N27120 G1 X182.406 Y113.993
N27130 G3 X183.274 Y115.493 I0.002 J1
N27140 G1 X180.932 Y119.549
N27150 G3 X179.566 Y119.915 I-0.866 J-0.5
N27160 G2 X174.988 Y120.321 I-2 J3.464
N27170 G3 X174.706 Y120.297 I-0.129 J-0.153 F1000
N27180 G1 X174.577 Y120.144
N27190 X174.544 Y120.104 Z-1.193
N27200 X174.513 Y120.067 Z-1.173
N27210 X174.486 Y120.036 Z-1.141
N27220 X174.466 Y120.011 Z-1.1
N27230 X174.453 Y119.996 Z-1.052
N27240 X174.448 Y119.991 Z-1
N27250 G0 Z2
N27260 X174.754 Y119.733
N27270 G1 Z-0.1 F60
N27280 Z-1.1
N27290 X174.758 Y119.738 Z-1.152
N27300 X174.771 Y119.754 Z-1.2
N27310 X174.792 Y119.778 Z-1.241
N27320 X174.819 Y119.81 Z-1.273
N27330 X174.85 Y119.846 Z-1.293
N27340 X174.883 Y119.886 Z-1.3
N27350 X175.012 Y120.039
N27360 G3 X174.988 Y120.321 I-0.153 J0.129
N27370 G2 X174.102 Y121.379 I2.578 J3.058 F300
N27380 G3 X172.736 Y121.746 I-0.867 J-0.5
N27390 G1 X169.77 Y120.033
N27400 X169.38 Y119.808 Z-1
N27410 X167.648 Y118.808
N27420 X167.258 Y118.583 Z-1.3 F60
N27430 X162.605 Y115.897 F300
N27440 G3 X163.103 Y114.03 I0.5 J-0.867
N27450 G1 X182.406 Y113.993
N27460 G3 X183.274 Y115.493 I0.002 J1
N27470 G1 X180.932 Y119.549
N27480 G3 X179.566 Y119.915 I-0.866 J-0.5
N27490 G2 X174.988 Y120.321 I-2 J3.464
N27500 G3 X174.706 Y120.297 I-0.129 J-0.153 F1000
N27510 G1 X174.577 Y120.144
N27520 X174.544 Y120.104 Z-1.293
N27530 X174.513 Y120.067 Z-1.273
N27540 X174.486 Y120.036 Z-1.241
N27550 X174.466 Y120.011 Z-1.2
N27560 X174.453 Y119.996 Z-1.152
N27570 X174.448 Y119.991 Z-1.1
N27580 G0 Z2
N27590 X174.754 Y119.733
N27600 G1 Z-0.2 F60
N27610 Z-1.2
N27620 X174.758 Y119.738 Z-1.252
N27630 X174.771 Y119.754 Z-1.3
N27640 X174.792 Y119.778 Z-1.341
N27650 X174.819 Y119.81 Z-1.373
N27660 X174.85 Y119.846 Z-1.393
N27670 X174.883 Y119.886 Z-1.4
N27680 X175.012 Y120.039
N27690 G3 X174.988 Y120.321 I-0.153 J0.129
N27700 G2 X174.102 Y121.379 I2.578 J3.058 F300
N27710 G3 X172.736 Y121.746 I-0.867 J-0.5
N27720 G1 X169.899 Y120.108
N27730 X169.38 Y119.808 Z-1
N27740 X167.648 Y118.808
N27750 X167.128 Y118.508 Z-1.4 F60
N27760 X162.605 Y115.897 F300
N27770 G3 X163.103 Y114.03 I0.5 J-0.867
N27780 G1 X182.406 Y113.993
N27790 G3 X183.274 Y115.493 I0.002 J1
N27800 G1 X180.932 Y119.549
N27810 G3 X179.566 Y119.915 I-0.866 J-0.5
N27820 G2 X174.988 Y120.321 I-2 J3.464
N27830 G3 X174.706 Y120.297 I-0.129 J-0.153 F1000
N27840 G1 X174.577 Y120.144
N27850 X174.544 Y120.104 Z-1.393
N27860 X174.513 Y120.067 Z-1.373
N27870 X174.486 Y120.036 Z-1.341
N27880 X174.466 Y120.011 Z-1.3
N27890 X174.453 Y119.996 Z-1.252
N27900 X174.448 Y119.991 Z-1.2
N27910 G0 Z2
N27920 X174.754 Y119.733
N27930 G1 Z-0.3 F60
N27940 Z-1.3
N27950 X174.758 Y119.738 Z-1.352
N27960 X174.771 Y119.754 Z-1.4
N27970 X174.792 Y119.778 Z-1.441
N27980 X174.819 Y119.81 Z-1.473
N27990 X174.85 Y119.846 Z-1.493
N28000 X174.883 Y119.886 Z-1.5
N28010 X175.012 Y120.039
N28020 G3 X174.988 Y120.321 I-0.153 J0.129
N28030 G2 X174.102 Y121.379 I2.578 J3.058 F300
N28040 G3 X172.736 Y121.746 I-0.867 J-0.5
N28050 G1 X170.029 Y120.183
N28060 X169.38 Y119.808 Z-1
N28070 X167.648 Y118.808
N28080 X166.998 Y118.433 Z-1.5 F60
N28090 X162.605 Y115.897 F300
N28100 G3 X163.103 Y114.03 I0.5 J-0.867
N28110 G1 X182.406 Y113.993
N28120 G3 X183.274 Y115.493 I0.002 J1
N28130 G1 X180.932 Y119.549
N28140 G3 X179.566 Y119.915 I-0.866 J-0.5
N28150 G2 X174.988 Y120.321 I-2 J3.464
N28160 G3 X174.706 Y120.297 I-0.129 J-0.153 F1000
N28170 G1 X174.577 Y120.144
N28180 X174.544 Y120.104 Z-1.493
N28190 X174.513 Y120.067 Z-1.473
N28200 X174.486 Y120.036 Z-1.441
N28210 X174.466 Y120.011 Z-1.4
N28220 X174.453 Y119.996 Z-1.352
N28230 X174.448 Y119.991 Z-1.3
N28240 G0 Z2
N28250 X150.415 Y101.6
N28260 G1 Z1.1 F60
N28270 Z0.1
N28280 G19 G2 Y101.4 Z-0.1 J-0.2 K0
N28290 G1 Y101.2
N28300 G17 G3 X150.615 Y101 I0.2 J0
N28310 G1 X200.979 F300
N28320 G3 X201.979 Y101.98 I0 J1
N28330 Y106.02 I-97.979 J2.02
N28340 X200.979 Y107 I-1 J-0.021
N28350 G1 X150.615
N28360 G2 X147.64 Y109.617 I0 J3
N28370 G3 X138.198 Y131.686 I-43.64 J-5.618
N28380 X136.713 Y131.764 I-0.777 J-0.629
N28390 G1 X133.868 Y128.918
N28400 G3 X133.791 Y127.59 I0.707 J-0.707
N28410 G2 X133.82 Y80.446 I-29.791 J-23.59
N28420 G3 X133.886 Y79.129 I0.784 J-0.62
N28430 G1 X136.693 Y76.235
N28440 G3 X138.188 Y76.302 I0.718 J0.696
N28450 X147.64 Y98.383 I-34.188 J27.698
N28460 G2 X150.615 Y101 I2.975 J-0.383
N28470 G3 X150.815 Y101.2 I0 J0.2 F1000
N28480 G1 Y101.4
N28490 Y101.452 Z-0.093
N28500 Y101.5 Z-0.073
N28510 Y101.541 Z-0.041
N28520 Y101.573 Z0
N28530 Y101.593 Z0.048
N28540 Y101.6 Z0.1
N28550 G0 Z2
N28560 X150.415
N28570 G1 Z1 F60
N28580 Z0
N28590 G19 G2 Y101.4 Z-0.2 J-0.2 K0
N28600 G1 Y101.2
N28610 G17 G3 X150.615 Y101 I0.2 J0
N28620 G1 X200.979 F300
N28630 G3 X201.979 Y101.98 I0 J1
N28640 Y106.02 I-97.979 J2.02
N28650 X200.979 Y107 I-1 J-0.021
N28660 G1 X150.615
N28670 G2 X147.64 Y109.617 I0 J3
N28680 G3 X138.198 Y131.686 I-43.64 J-5.618
N28690 X136.713 Y131.764 I-0.777 J-0.629
N28700 G1 X133.868 Y128.918
N28710 G3 X133.791 Y127.59 I0.707 J-0.707
N28720 G2 X133.82 Y80.446 I-29.791 J-23.59
N28730 G3 X133.886 Y79.129 I0.784 J-0.62
N28740 G1 X136.693 Y76.235
N28750 G3 X138.188 Y76.302 I0.718 J0.696
N28760 X147.64 Y98.383 I-34.188 J27.698
N28770 G2 X150.615 Y101 I2.975 J-0.383
N28780 G3 X150.815 Y101.2 I0 J0.2 F1000
N28790 G1 Y101.4
N28800 Y101.452 Z-0.193
N28810 Y101.5 Z-0.173
N28820 Y101.541 Z-0.141
N28830 Y101.573 Z-0.1
N28840 Y101.593 Z-0.052
N28850 Y101.6 Z0
N28860 G0 Z2
N28870 X150.415
N28880 G1 Z0.9 F60
N28890 Z-0.1
N28900 G19 G2 Y101.4 Z-0.3 J-0.2 K0
N28910 G1 Y101.2
N28920 G17 G3 X150.615 Y101 I0.2 J0
N28930 G1 X200.979 F300
N28940 G3 X201.979 Y101.98 I0 J1
N28950 Y106.02 I-97.979 J2.02
N28960 X200.979 Y107 I-1 J-0.021
N28970 G1 X150.615
N28980 G2 X147.64 Y109.617 I0 J3
N28990 G3 X138.198 Y131.686 I-43.64 J-5.618
N29000 X136.713 Y131.764 I-0.777 J-0.629
N29010 G1 X133.868 Y128.918
N29020 G3 X133.791 Y127.59 I0.707 J-0.707
N29030 G2 X133.82 Y80.446 I-29.791 J-23.59
N29040 G3 X133.886 Y79.129 I0.784 J-0.62
N29050 G1 X136.693 Y76.235
N29060 G3 X138.188 Y76.302 I0.718 J0.696
N29070 X147.64 Y98.383 I-34.188 J27.698
N29080 G2 X150.615 Y101 I2.975 J-0.383
N29090 G3 X150.815 Y101.2 I0 J0.2 F1000
N29100 G1 Y101.4
N29110 Y101.452 Z-0.293
N29120 Y101.5 Z-0.273
N29130 Y101.541 Z-0.241
N29140 Y101.573 Z-0.2
N29150 Y101.593 Z-0.152
N29160 Y101.6 Z-0.1
N29170 G0 Z2
N29180 X150.415
N29190 G1 Z0.8 F60
N29200 Z-0.2
N29210 G19 G2 Y101.4 Z-0.4 J-0.2 K0
N29220 G1 Y101.2
N29230 G17 G3 X150.615 Y101 I0.2 J0
N29240 G1 X200.979 F300
N29250 G3 X201.979 Y101.98 I0 J1
N29260 Y106.02 I-97.979 J2.02
N29270 X200.979 Y107 I-1 J-0.021
N29280 G1 X150.615
N29290 G2 X147.64 Y109.617 I0 J3
N29300 G3 X138.198 Y131.686 I-43.64 J-5.618
N29310 X136.713 Y131.764 I-0.777 J-0.629
N29320 G1 X133.868 Y128.918
N29330 G3 X133.791 Y127.59 I0.707 J-0.707
N29340 G2 X133.82 Y80.446 I-29.791 J-23.59
N29350 G3 X133.886 Y79.129 I0.784 J-0.62
N29360 G1 X136.693 Y76.235
N29370 G3 X138.188 Y76.302 I0.718 J0.696
N29380 X147.64 Y98.383 I-34.188 J27.698
N29390 G2 X150.615 Y101 I2.975 J-0.383
N29400 G3 X150.815 Y101.2 I0 J0.2 F1000
N29410 G1 Y101.4
N29420 Y101.452 Z-0.393
N29430 Y101.5 Z-0.373
N29440 Y101.541 Z-0.341
N29450 Y101.573 Z-0.3
N29460 Y101.593 Z-0.252
N29470 Y101.6 Z-0.2
N29480 G0 Z2
N29490 X150.415
N29500 G1 Z0.7 F60
N29510 Z-0.3
N29520 G19 G2 Y101.4 Z-0.5 J-0.2 K0
N29530 G1 Y101.2
N29540 G17 G3 X150.615 Y101 I0.2 J0
N29550 G1 X200.979 F300
N29560 G3 X201.979 Y101.98 I0 J1
N29570 Y106.02 I-97.979 J2.02
N29580 X200.979 Y107 I-1 J-0.021
N29590 G1 X150.615
N29600 G2 X147.64 Y109.617 I0 J3
N29610 G3 X138.198 Y131.686 I-43.64 J-5.618
N29620 X136.713 Y131.764 I-0.777 J-0.629
N29630 G1 X133.868 Y128.918
N29640 G3 X133.791 Y127.59 I0.707 J-0.707
N29650 G2 X133.82 Y80.446 I-29.791 J-23.59
N29660 G3 X133.886 Y79.129 I0.784 J-0.62
N29670 G1 X136.693 Y76.235
N29680 G3 X138.188 Y76.302 I0.718 J0.696
N29690 X147.64 Y98.383 I-34.188 J27.698
N29700 G2 X150.615 Y101 I2.975 J-0.383
N29710 G3 X150.815 Y101.2 I0 J0.2 F1000
N29720 G1 Y101.4
N29730 Y101.452 Z-0.493
N29740 Y101.5 Z-0.473
N29750 Y101.541 Z-0.441
N29760 Y101.573 Z-0.4
N29770 Y101.593 Z-0.352
N29780 Y101.6 Z-0.3
N29790 G0 Z2
N29800 X150.415
N29810 G1 Z0.6 F60
N29820 Z-0.4
N29830 G19 G2 Y101.4 Z-0.6 J-0.2 K0
N29840 G1 Y101.2
N29850 G17 G3 X150.615 Y101 I0.2 J0
N29860 G1 X200.979 F300
N29870 G3 X201.979 Y101.98 I0 J1
N29880 Y106.02 I-97.979 J2.02
N29890 X200.979 Y107 I-1 J-0.021
N29900 G1 X150.615
N29910 G2 X147.64 Y109.617 I0 J3
N29920 G3 X138.198 Y131.686 I-43.64 J-5.618
N29930 X136.713 Y131.764 I-0.777 J-0.629
N29940 G1 X133.868 Y128.918
N29950 G3 X133.791 Y127.59 I0.707 J-0.707
N29960 G2 X133.82 Y80.446 I-29.791 J-23.59
N29970 G3 X133.886 Y79.129 I0.784 J-0.62
N29980 G1 X136.693 Y76.235
N29990 G3 X138.188 Y76.302 I0.718 J0.696
N30000 X147.64 Y98.383 I-34.188 J27.698
N30010 G2 X150.615 Y101 I2.975 J-0.383
N30020 G3 X150.815 Y101.2 I0 J0.2 F1000
N30030 G1 Y101.4
N30040 Y101.452 Z-0.593
N30050 Y101.5 Z-0.573
N30060 Y101.541 Z-0.541
N30070 Y101.573 Z-0.5
N30080 Y101.593 Z-0.452
N30090 Y101.6 Z-0.4
N30100 G0 Z2
N30110 X150.415
N30120 G1 Z0.5 F60
N30130 Z-0.5
N30140 G19 G2 Y101.4 Z-0.7 J-0.2 K0
N30150 G1 Y101.2
N30160 G17 G3 X150.615 Y101 I0.2 J0
N30170 G1 X200.979 F300
N30180 G3 X201.979 Y101.98 I0 J1
N30190 Y106.02 I-97.979 J2.02
N30200 X200.979 Y107 I-1 J-0.021
N30210 G1 X150.615
N30220 G2 X147.64 Y109.617 I0 J3
N30230 G3 X138.198 Y131.686 I-43.64 J-5.618
N30240 X136.713 Y131.764 I-0.777 J-0.629
N30250 G1 X133.868 Y128.918
N30260 G3 X133.791 Y127.59 I0.707 J-0.707
N30270 G2 X133.82 Y80.446 I-29.791 J-23.59
N30280 G3 X133.886 Y79.129 I0.784 J-0.62
N30290 G1 X136.693 Y76.235
N30300 G3 X138.188 Y76.302 I0.718 J0.696
N30310 X147.64 Y98.383 I-34.188 J27.698
N30320 G2 X150.615 Y101 I2.975 J-0.383
N30330 G3 X150.815 Y101.2 I0 J0.2 F1000
N30340 G1 Y101.4
N30350 Y101.452 Z-0.693
N30360 Y101.5 Z-0.673
N30370 Y101.541 Z-0.641
N30380 Y101.573 Z-0.6
N30390 Y101.593 Z-0.552
N30400 Y101.6 Z-0.5
N30410 G0 Z2
N30420 X150.415
N30430 G1 Z0.4 F60
N30440 Z-0.6
N30450 G19 G2 Y101.4 Z-0.8 J-0.2 K0
N30460 G1 Y101.2
N30470 G17 G3 X150.615 Y101 I0.2 J0
N30480 G1 X200.979 F300
N30490 G3 X201.979 Y101.98 I0 J1
N30500 Y106.02 I-97.979 J2.02
N30510 X200.979 Y107 I-1 J-0.021
N30520 G1 X150.615
N30530 G2 X147.64 Y109.617 I0 J3
N30540 G3 X138.198 Y131.686 I-43.64 J-5.618
N30550 X136.713 Y131.764 I-0.777 J-0.629
N30560 G1 X133.868 Y128.918
N30570 G3 X133.791 Y127.59 I0.707 J-0.707
N30580 G2 X133.82 Y80.446 I-29.791 J-23.59
N30590 G3 X133.886 Y79.129 I0.784 J-0.62
N30600 G1 X136.693 Y76.235
N30610 G3 X138.188 Y76.302 I0.718 J0.696
N30620 X147.64 Y98.383 I-34.188 J27.698
N30630 G2 X150.615 Y101 I2.975 J-0.383
N30640 G3 X150.815 Y101.2 I0 J0.2 F1000
N30650 G1 Y101.4
N30660 Y101.452 Z-0.793
N30670 Y101.5 Z-0.773
N30680 Y101.541 Z-0.741
N30690 Y101.573 Z-0.7
N30700 Y101.593 Z-0.652
N30710 Y101.6 Z-0.6
N30720 G0 Z2
N30730 X150.415
N30740 G1 Z0.3 F60
N30750 Z-0.7
N30760 G19 G2 Y101.4 Z-0.9 J-0.2 K0
N30770 G1 Y101.2
N30780 G17 G3 X150.615 Y101 I0.2 J0
N30790 G1 X200.979 F300
N30800 G3 X201.979 Y101.98 I0 J1
N30810 Y106.02 I-97.979 J2.02
N30820 X200.979 Y107 I-1 J-0.021
N30830 G1 X150.615
N30840 G2 X147.64 Y109.617 I0 J3
N30850 G3 X138.198 Y131.686 I-43.64 J-5.618
N30860 X136.713 Y131.764 I-0.777 J-0.629
N30870 G1 X133.868 Y128.918
N30880 G3 X133.791 Y127.59 I0.707 J-0.707
N30890 G2 X133.82 Y80.446 I-29.791 J-23.59
N30900 G3 X133.886 Y79.129 I0.784 J-0.62
N30910 G1 X136.693 Y76.235
N30920 G3 X138.188 Y76.302 I0.718 J0.696
N30930 X147.64 Y98.383 I-34.188 J27.698
N30940 G2 X150.615 Y101 I2.975 J-0.383
N30950 G3 X150.815 Y101.2 I0 J0.2 F1000
N30960 G1 Y101.4
N30970 Y101.452 Z-0.893
N30980 Y101.5 Z-0.873
N30990 Y101.541 Z-0.841
N31000 Y101.573 Z-0.8
N31010 Y101.593 Z-0.752
N31020 Y101.6 Z-0.7
N31030 G0 Z2
N31040 X150.415
N31050 G1 Z0.2 F60
N31060 Z-0.8
N31070 G19 G2 Y101.4 Z-1 J-0.2 K0
N31080 G1 Y101.2
N31090 G17 G3 X150.615 Y101 I0.2 J0
N31100 G1 X200.979 F300
N31110 G3 X201.979 Y101.98 I0 J1
N31120 Y106.02 I-97.979 J2.02
N31130 X200.979 Y107 I-1 J-0.021
N31140 G1 X150.615
N31150 G2 X147.64 Y109.617 I0 J3
N31160 G3 X138.198 Y131.686 I-43.64 J-5.618
N31170 X136.713 Y131.764 I-0.777 J-0.629
N31180 G1 X133.868 Y128.918
N31190 G3 X133.791 Y127.59 I0.707 J-0.707
N31200 G2 X133.82 Y80.446 I-29.791 J-23.59
N31210 G3 X133.886 Y79.129 I0.784 J-0.62
N31220 G1 X136.693 Y76.235
N31230 G3 X138.188 Y76.302 I0.718 J0.696
N31240 X147.64 Y98.383 I-34.188 J27.698
N31250 G2 X150.615 Y101 I2.975 J-0.383
N31260 G3 X150.815 Y101.2 I0 J0.2 F1000
N31270 G1 Y101.4
N31280 Y101.452 Z-0.993
N31290 Y101.5 Z-0.973
N31300 Y101.541 Z-0.941
N31310 Y101.573 Z-0.9
N31320 Y101.593 Z-0.852
N31330 Y101.6 Z-0.8
N31340 G0 Z2
N31350 X150.415
N31360 G1 Z0.1 F60
N31370 Z-0.9
N31380 G19 G2 Y101.4 Z-1.1 J-0.2 K0
N31390 G1 Y101.2
N31400 G17 G3 X150.615 Y101 I0.2 J0
N31410 G1 X200.979 F300
N31420 G3 X201.979 Y101.98 I0 J1
N31430 X201.996 Y103.075 I-97.979 J2.02
N31440 G1 X201.997 Y103.225 Z-1
N31450 G3 X201.992 Y105.225 I-97.997 J0.775
N31460 G1 X201.99 Y105.375 Z-1.1 F60
N31470 G3 X201.979 Y106.02 I-97.99 J-1.375 F300
N31480 X200.979 Y107 I-1 J-0.021
N31490 G1 X150.615
N31500 G2 X147.64 Y109.617 I0 J3
N31510 G3 X138.198 Y131.686 I-43.64 J-5.618
N31520 X136.713 Y131.764 I-0.777 J-0.629
N31530 G1 X133.868 Y128.918
N31540 G3 X133.791 Y127.59 I0.707 J-0.707
N31550 G2 X139.2 Y118.315 I-29.791 J-23.59
N31560 G1 X139.257 Y118.176 Z-1
N31570 G2 X139.954 Y116.302 I-35.257 J-14.177
N31580 G1 X140.002 Y116.16 Z-1.1 F60
N31590 G2 X140.838 Y94.672 I-36.002 J-12.16 F300
N31600 G1 X140.8 Y94.527 Z-1
N31610 G2 X140.251 Y92.604 I-36.8 J9.473
N31620 G1 X140.206 Y92.461 Z-1.1 F60
N31630 G2 X133.82 Y80.446 I-36.206 J11.539 F300
N31640 G3 X133.886 Y79.129 I0.784 J-0.62
N31650 G1 X136.693 Y76.235
N31660 G3 X138.188 Y76.302 I0.718 J0.696
N31670 X147.64 Y98.383 I-34.188 J27.698
N31680 G2 X150.615 Y101 I2.975 J-0.383
N31690 G3 X150.815 Y101.2 I0 J0.2 F1000
N31700 G1 Y101.4
N31710 Y101.452 Z-1.093
N31720 Y101.5 Z-1.073
N31730 Y101.541 Z-1.041
N31740 Y101.573 Z-1
N31750 Y101.593 Z-0.952
N31760 Y101.6 Z-0.9
N31770 G0 Z2
N31780 X150.415
N31790 G1 Z0 F60
N31800 Z-1
N31810 G19 G2 Y101.4 Z-1.2 J-0.2 K0
N31820 G1 Y101.2
N31830 G17 G3 X150.615 Y101 I0.2 J0
N31840 G1 X200.979 F300
N31850 G3 X201.979 Y101.98 I0 J1
N31860 X201.994 Y102.925 I-97.979 J2.02
N31870 X201.997 Y103.225 Z-1 I-97.994 J1.075
N31880 X201.992 Y105.225 I-97.997 J0.775
N31890 X201.988 Y105.525 Z-1.2 I-97.992 J-1.225 F60
N31900 X201.979 Y106.02 I-97.988 J-1.525 F300
N31910 X200.979 Y107 I-1 J-0.021
N31920 G1 X150.615
N31930 G2 X147.64 Y109.617 I0 J3
N31940 G3 X138.198 Y131.686 I-43.64 J-5.618
N31950 X136.713 Y131.764 I-0.777 J-0.629
N31960 G1 X133.868 Y128.918
N31970 G3 X133.791 Y127.59 I0.707 J-0.707
N31980 G2 X139.143 Y118.454 I-29.791 J-23.59
N31990 X139.257 Y118.176 Z-1 I-35.143 J-14.455
N32000 X139.954 Y116.302 I-35.257 J-14.177
N32010 X140.05 Y116.017 Z-1.2 I-35.954 J-12.302 F60
N32020 X140.874 Y94.818 I-36.05 J-12.018 F300
N32030 X140.8 Y94.527 Z-1 I-36.874 J9.182
N32040 X140.251 Y92.604 I-36.8 J9.473
N32050 X140.16 Y92.318 Z-1.2 I-36.251 J11.396 F60
N32060 X133.82 Y80.446 I-36.16 J11.682 F300
N32070 G3 X133.886 Y79.129 I0.784 J-0.62
N32080 G1 X136.693 Y76.235
N32090 G3 X138.188 Y76.302 I0.718 J0.696
N32100 X147.64 Y98.383 I-34.188 J27.698
N32110 G2 X150.615 Y101 I2.975 J-0.383
N32120 G3 X150.815 Y101.2 I0 J0.2 F1000
N32130 G1 Y101.4
N32140 Y101.452 Z-1.193
N32150 Y101.5 Z-1.173
N32160 Y101.541 Z-1.141
N32170 Y101.573 Z-1.1
N32180 Y101.593 Z-1.052
N32190 Y101.6 Z-1
N32200 G0 Z2
N32210 X150.415
N32220 G1 Z-0.1 F60
N32230 Z-1.1
N32240 G19 G2 Y101.4 Z-1.3 J-0.2 K0
N32250 G1 Y101.2
N32260 G17 G3 X150.615 Y101 I0.2 J0
N32270 G1 X200.979 F300
N32280 G3 X201.979 Y101.98 I0 J1
N32290 X201.992 Y102.775 I-97.979 J2.02
N32300 X201.997 Y103.225 Z-1 I-97.992 J1.225
N32310 X201.992 Y105.225 I-97.997 J0.775
N32320 X201.986 Y105.675 Z-1.3 I-97.992 J-1.225 F60
N32330 X201.979 Y106.02 I-97.986 J-1.675 F300
N32340 X200.979 Y107 I-1 J-0.021
N32350 G1 X150.615
N32360 G2 X147.64 Y109.617 I0 J3
N32370 G3 X138.198 Y131.686 I-43.64 J-5.618
N32380 X136.713 Y131.764 I-0.777 J-0.629
N32390 G1 X133.868 Y128.918
N32400 G3 X133.791 Y127.59 I0.707 J-0.707
N32410 G2 X139.086 Y118.593 I-29.791 J-23.59
N32420 X139.257 Y118.176 Z-1 I-35.086 J-14.593
N32430 X139.954 Y116.302 I-35.257 J-14.177
N32440 X140.097 Y115.875 Z-1.3 I-35.954 J-12.302 F60
N32450 X140.91 Y94.963 I-36.097 J-11.875 F300
N32460 X140.8 Y94.527 Z-1 I-36.91 J9.036
N32470 X140.251 Y92.604 I-36.8 J9.473
N32480 X140.113 Y92.175 Z-1.3 I-36.251 J11.396 F60
N32490 X133.82 Y80.446 I-36.113 J11.825 F300
N32500 G3 X133.886 Y79.129 I0.784 J-0.62
N32510 G1 X136.693 Y76.235
N32520 G3 X138.188 Y76.302 I0.718 J0.696
N32530 X147.64 Y98.383 I-34.188 J27.698
N32540 G2 X150.615 Y101 I2.975 J-0.383
N32550 G3 X150.815 Y101.2 I0 J0.2 F1000
N32560 G1 Y101.4
N32570 Y101.452 Z-1.293
N32580 Y101.5 Z-1.273
N32590 Y101.541 Z-1.241
N32600 Y101.573 Z-1.2
N32610 Y101.593 Z-1.152
N32620 Y101.6 Z-1.1
N32630 G0 Z2
N32640 X150.415
N32650 G1 Z-0.2 F60
N32660 Z-1.2
N32670 G19 G2 Y101.4 Z-1.4 J-0.2 K0
N32680 G1 Y101.2
N32690 G17 G3 X150.615 Y101 I0.2 J0
N32700 G1 X200.979 F300
N32710 G3 X201.979 Y101.98 I0 J1
N32720 X201.99 Y102.625 I-97.979 J2.02
N32730 X201.997 Y103.225 Z-1 I-97.99 J1.375
N32740 X201.992 Y105.225 I-97.997 J0.775
N32750 X201.983 Y105.825 Z-1.4 I-97.992 J-1.225 F60
N32760 G1 X201.979 Y106.02 F300
N32770 G3 X200.979 Y107 I-1 J-0.021
N32780 G1 X150.615
N32790 G2 X147.64 Y109.617 I0 J3
N32800 G3 X138.198 Y131.686 I-43.64 J-5.618
N32810 X136.713 Y131.764 I-0.777 J-0.629
N32820 G1 X133.868 Y128.918
N32830 G3 X133.791 Y127.59 I0.707 J-0.707
N32840 G2 X139.028 Y118.731 I-29.791 J-23.59
N32850 X139.257 Y118.176 Z-1 I-35.028 J-14.732
N32860 X139.954 Y116.302 I-35.257 J-14.177
N32870 X140.143 Y115.732 Z-1.4 I-35.954 J-12.302 F60
N32880 X140.945 Y95.109 I-36.143 J-11.733 F300
N32890 X140.8 Y94.527 Z-1 I-36.945 J8.89
N32900 X140.251 Y92.604 I-36.8 J9.473
